@Jimmyhogs_Major/@Jimmyhogs Major (Gradient only).cube
# VEGAS Pro LUT
TITLE "@Jimmyhogs Major"
LUT_3D_SIZE 9
0.00000000 0.00000000 0.29411766
0.00000000 0.00000000 0.28597355
0.00000000 0.00000000 0.27112138
0.00000000 0.00000000 0.25074020
0.00000000 0.00000000 0.22600898
0.00000000 0.00000000 0.19810678
0.00000000 0.00000000 0.16821265
0.00000000 0.00000000 0.13750558
0.00000000 0.00000000 0.10716462
0.00000000 0.00000000 0.27177298
0.00000000 0.00000000 0.25157428
0.00000000 0.00000000 0.22698222
0.00000000 0.00000000 0.19917580
0.00000000 0.00000000 0.16933405
0.00000000 0.00000000 0.13863601
0.00000000 0.00000000 0.10826069
0.00000000 0.00000000 0.07938713
0.00000000 0.00000000 0.05319436
0.00000000 0.00000000 0.22795112
0.00000000 0.00000000 0.20024206
0.00000000 0.00000000 0.17045429
0.00000000 0.00000000 0.13976687
0.00000000 0.00000000 0.10935879
0.00000000 0.00000000 0.08040909
0.00000000 0.00000000 0.05409681
0.00000000 0.00000000 0.03160096
0.00000000 0.00000000 0.01410059
0.00000000 0.00000000 0.17157333
0.00000000 0.00000000 0.14089811
0.00000000 0.00000000 0.11045886
0.00000000 0.00000000 0.08143462
0.00000000 0.00000000 0.05500442
0.00000000 0.00000000 0.03234728
0.00000000 0.00000000 0.01464224
0.00000000 0.00000000 0.00306832
0.00000755 0.00000000 0.02303438
0.00000000 0.00000000 0.11156084
0.00000000 0.00000000 0.08246366
0.00000000 0.00000000 0.05591714
0.00000000 0.00000000 0.03310030
0.00000000 0.00000000 0.01519218
0.00000000 0.00000000 0.00337181
0.00006476 0.00000000 0.02081453
0.00000000 0.00000000 0.10839414
0.00000000 0.00000000 0.24191855
0.00000000 0.00000000 0.05683490
0.00000000 0.00000000 0.03385996
0.00000000 0.00000000 0.01575037
0.00000000 0.00000000 0.00368514
0.00011373 0.00000000 0.01867882
0.00000000 0.00000000 0.10425877
0.00000000 0.00000000 0.23638032
0.00000000 0.00000000 0.39882106
0.00000000 0.00000000 0.57535851
0.00000000 0.00000000 0.01631673
0.00000000 0.00000000 0.00400825
0.00015430 0.00000000 0.01662806
0.00000000 0.00000000 0.10018639
0.00000000 0.00000000 0.23088314
0.00000000 0.00000000 0.39249587
0.00000000 0.00000000 0.56880218
0.00000000 0.00000000 0.74357957
0.01018603 0.00000000 0.90060568
0.00018627 0.00000000 0.01466305
0.00000000 0.00000000 0.09617780
0.00000000 0.00000000 0.22542779
0.00000000 0.00000000 0.38619059
0.00000000 0.00000000 0.56224376
0.00000000 0.00000000 0.73736483
0.00923858 0.00000000 0.89533138
0.04681675 0.02351855 1.00000000
0.12270478 0.18309000 1.00000000
0.00000000 0.00000000 0.22001511
0.00000000 0.00000000 0.37990600
0.00000000 0.00000000 0.55568403
0.00000000 0.00000000 0.73112684
0.00831174 0.00000000 0.89001197
0.04447071 0.01869133 1.00000000
0.11956818 0.17640713 1.00000000
0.21049078 0.37176695 1.00000000
0.30547866 0.57820153 1.00000000
0.00000000 0.00000000 0.29187882
0.00000000 0.00000000 0.28103805
0.00000000 0.00000000 0.26393875
0.00000000 0.00000000 0.24175996
0.00000000 0.00000000 0.21568067
0.00000000 0.00000000 0.18687995
0.00000000 0.00000000 0.15653679
0.00000000 0.00000000 0.12583025
0.00000000 0.00000000 0.09593933
0.00000000 0.00000000 0.26466504
0.00000000 0.00000000 0.24265222
0.00000000 0.00000000 0.21669555
0.00000000 0.00000000 0.18797405
0.00000000 0.00000000 0.15766676
0.00000000 0.00000000 0.12695268
0.00000000 0.00000000 0.09701087
0.00000000 0.00000000 0.06902036
0.00000000 0.00000000 0.04416015
0.00000000 0.00000000 0.21770668
0.00000000 0.00000000 0.18906601
0.00000000 0.00000000 0.15879616
0.00000000 0.00000000 0.12807617
0.00000000 0.00000000 0.09808506
0.00000000 0.00000000 0.07000186
0.00000000 0.00000000 0.04500561
0.00000000 0.00000000 0.02427533
0.00000000 0.00000000 0.00899004
0.00000000 0.00000000 0.15992497
0.00000000 0.00000000 0.12920064
0.00000000 0.00000000 0.09916183
0.00000000 0.00000000 0.07098755
0.00000000 0.00000000 0.04585684
0.00000000 0.00000000 0.02494873
0.00000000 0.00000000 0.00944223
0.00000000 0.00000000 0.00051639
0.00000000 0.00000000 0.05079865
0.00000000 0.00000000 0.10024112
0.00000000 0.00000000 0.07197735
0.00000000 0.00000000 0.04671379
0.00000000 0.00000000 0.02562943
0.00000000 0.00000000 0.00990333
0.00000000 0.00000000 0.00071450
0.00000000 0.00000000 0.04775436
0.00000000 0.00000000 0.15476485
0.00000000 0.00000000 0.30153498
0.00000000 0.00000000 0.04757639
0.00000000 0.00000000 0.02631740
0.00000000 0.00000000 0.01037327
0.00000000 0.00000000 0.00092305
0.00000000 0.00000000 0.04478584
0.00000000 0.00000000 0.15002422
0.00000000 0.00000000 0.29561907
0.00000000 0.00000000 0.46534795
0.00000000 0.00000000 0.64298838
0.00000000 0.00000000 0.01085201
0.00000000 0.00000000 0.00114199
0.00000000 0.00000000 0.04189390
0.00000000 0.00000000 0.14533821
0.00000000 0.00000000 0.28973579
0.00000000 0.00000000 0.45886421
0.00000000 0.00000000 0.63650107
0.00000000 0.00000000 0.80642384
0.02126189 0.00000000 0.95241016
0.00000000 0.00000000 0.03907934
0.00000000 0.00000000 0.14070761
0.00000000 0.00000000 0.28388599
0.00000000 0.00000000 0.45239201
0.00000000 0.00000000 0.63000327
0.00000000 0.00000000 0.80049729
0.02009031 0.00000000 0.94765162
0.07318664 0.07834264 1.00000000
0.15633047 0.25502786 1.00000000
0.00000000 0.00000000 0.27807048
0.00000000 0.00000000 0.44593215
0.00000000 0.00000000 0.62349582
0.00000000 0.00000000 0.79453915
0.01894121 0.00000000 0.94283956
0.07048815 0.07269263 1.00000000
0.15300637 0.24789488 1.00000000
0.24686605 0.45061108 1.00000000
0.34030733 0.65427190 1.00000000
0.00000000 0.00000000 0.28855878
0.00000000 0.00000000 0.27519277
0.00000000 0.00000000 0.25601774
0.00000000 0.00000000 0.23221272
0.00000000 0.00000000 0.20495677
0.00000000 0.00000000 0.17542888
0.00000000 0.00000000 0.14480811
0.00000000 0.00000000 0.11427347
0.00000000 0.00000000 0.08500400
0.00000000 0.00000000 0.25681242
0.00000000 0.00000000 0.23315686
0.00000000 0.00000000 0.20600696
0.00000000 0.00000000 0.17654178
0.00000000 0.00000000 0.14594032
0.00000000 0.00000000 0.11538162
0.00000000 0.00000000 0.08604472
0.00000000 0.00000000 0.05910863
0.00000000 0.00000000 0.03575239
0.00000000 0.00000000 0.20705403
0.00000000 0.00000000 0.17765313
0.00000000 0.00000000 0.14707258
0.00000000 0.00000000 0.11649143
0.00000000 0.00000000 0.08708868
0.00000000 0.00000000 0.06004338
0.00000000 0.00000000 0.03653455
0.00000000 0.00000000 0.01774121
0.00000000 0.00000000 0.00484241
0.00000000 0.00000000 0.14820485
0.00000000 0.00000000 0.11760283
0.00000000 0.00000000 0.08813584
0.00000000 0.00000000 0.06098292
0.00000000 0.00000000 0.03732309
0.00000000 0.00000000 0.01833539
0.00000000 0.00000000 0.00519884
0.00022718 0.00000000 0.01020851
0.00000000 0.00000000 0.08661413
0.00000000 0.00000000 0.08918613
0.00000000 0.00000000 0.06192718
0.00000000 0.00000000 0.03811796
0.00000000 0.00000000 0.01893748
0.00000000 0.00000000 0.00556478
0.00022808 0.00000000 0.00854597
0.00000000 0.00000000 0.08283217
0.00000000 0.00000000 0.20691532
0.00000000 0.00000000 0.36457300
0.00000000 0.00000000 0.03891909
0.00000000 0.00000000 0.01954744
0.00000000 0.00000000 0.00594018
0.00021959 0.00000000 0.00697278
0.00000000 0.00000000 0.07911760
0.00000000 0.00000000 0.20165618
0.00000000 0.00000000 0.35836610
0.00000000 0.00000000 0.53302491
0.00000000 0.00000000 0.70941013
0.00000000 0.00000000 0.00632498
0.00020152 0.00000000 0.00548975
0.00000000 0.00000000 0.07547123
0.00000000 0.00000000 0.19644329
0.00000000 0.00000000 0.35218349
0.00000000 0.00000000 0.52646941
0.00000000 0.00000000 0.70307857
0.00442869 0.00000000 0.86578858
0.03477046 0.00000000 0.99837691
0.00000000 0.00000000 0.07189388
0.00000000 0.00000000 0.19127746
0.00000000 0.00000000 0.34602600
0.00000000 0.00000000 0.51991707
0.00000000 0.00000000 0.69672817
0.00361106 0.00000000 0.86023694
0.03335541 0.00000000 0.99422085
0.10285181 0.14088657 1.00000000
0.19154194 0.33082330 1.00000000
0.00000000 0.00000000 0.33989441
0.00000000 0.00000000 0.51336867
0.00000000 0.00000000 0.69035977
0.00281287 0.00000000 0.85464531
0.03196470 0.00000000 0.99000293
0.09986376 0.13455586 1.00000000
0.18809325 0.32338226 1.00000000
0.28318048 0.52959251 1.00000000
0.37336564 0.72661728 1.00000000
0.00000000 0.00000000 0.28422293
0.00000000 0.00000000 0.26850304
0.00000000 0.00000000 0.24742366
0.00000000 0.00000000 0.22216384
0.00000000 0.00000000 0.19390258
0.00000000 0.00000000 0.16381896
0.00000000 0.00000000 0.13309196
0.00000000 0.00000000 0.10290062
0.00000000 0.00000000 0.07442398
0.00000000 0.00000000 0.24828045
0.00000000 0.00000000 0.22315353
0.00000000 0.00000000 0.19498181
0.00000000 0.00000000 0.16494432
0.00000000 0.00000000 0.13422011
0.00000000 0.00000000 0.10398817
0.00000000 0.00000000 0.07542756
0.00000000 0.00000000 0.04971729
0.00000000 0.00000000 0.02803640
0.00000000 0.00000000 0.19605850
0.00000000 0.00000000 0.16606878
0.00000000 0.00000000 0.13534893
0.00000000 0.00000000 0.10507799
0.00000000 0.00000000 0.07643500
0.00000000 0.00000000 0.05059898
0.00000000 0.00000000 0.02874896
0.00000000 0.00000000 0.01206398
0.00000000 0.00000000 0.00172304
0.00000000 0.00000000 0.13647835
0.00000000 0.00000000 0.10617001
0.00000000 0.00000000 0.07744624
0.00000000 0.00000000 0.05148607
0.00000000 0.00000000 0.02946852
0.00000000 0.00000000 0.01257262
0.00000000 0.00000000 0.00197741
0.00000000 0.00000000 0.03250405
0.00000000 0.00000000 0.12958172
0.00000000 0.00000000 0.07846122
0.00000000 0.00000000 0.05237849
0.00000000 0.00000000 0.03019500
0.00000000 0.00000000 0.01308979
0.00000000 0.00000000 0.00224189
0.00000000 0.00000000 0.02996304
0.00000000 0.00000000 0.12514883
0.00000000 0.00000000 0.26394644
0.00000000 0.00000000 0.43013340
0.00000000 0.00000000 0.03092836
0.00000000 0.00000000 0.01361544
0.00000000 0.00000000 0.00251644
0.00000000 0.00000000 0.02750301
0.00000000 0.00000000 0.12077497
0.00000000 0.00000000 0.25825554
0.00000000 0.00000000 0.42372233
0.00000000 0.00000000 0.60095280
0.00000000 0.00000000 0.77372462
0.00000000 0.00000000 0.00280100
0.00000000 0.00000000 0.02512477
0.00000000 0.00000000 0.11646093
0.00000000 0.00000000 0.25260255
0.00000000 0.00000000 0.41732714
0.00000000 0.00000000 0.59441233
0.00000000 0.00000000 0.76763558
0.01409076 0.00000000 0.92077452
0.05885565 0.04843216 1.00000000
0.00000000 0.00000000 0.11220755
0.00000000 0.00000000 0.24698822
0.00000000 0.00000000 0.41094869
0.00000000 0.00000000 0.58786654
0.00000000 0.00000000 0.76151931
0.01306105 0.00000000 0.91568458
0.05633481 0.04319748 1.00000000
0.13516048 0.20967779 1.00000000
0.22768742 0.40900365 1.00000000
0.00000000 0.00000000 0.40458781
0.00000000 0.00000000 0.58131641
0.00000000 0.00000000 0.75537670
0.01205264 0.00000000 0.91054636
0.05384844 0.03804322 1.00000000
0.13194577 0.20280845 1.00000000
0.22417700 0.40139669 1.00000000
0.31878233 0.60723871 1.00000000
0.40400189 0.79376513 1.00000000
0.00000000 0.00000000 0.27893659
0.00000000 0.00000000 0.26103422
0.00000000 0.00000000 0.23822188
0.00000000 0.00000000 0.21167864
0.00000000 0.00000000 0.18258350
0.00000000 0.00000000 0.15211549
0.00000000 0.00000000 0.12145366
0.00000000 0.00000000 0.09177702
0.00000000 0.00000000 0.06426460
0.00000000 0.00000000 0.23913446
0.00000000 0.00000000 0.21270758
0.00000000 0.00000000 0.18368544
0.00000000 0.00000000 0.15324704
0.00000000 0.00000000 0.12257145
0.00000000 0.00000000 0.09283768
0.00000000 0.00000000 0.06522475
0.00000000 0.00000000 0.04091170
0.00000000 0.00000000 0.02107755
0.00000000 0.00000000 0.18478544
0.00000000 0.00000000 0.15437828
0.00000000 0.00000000 0.12369052
0.00000000 0.00000000 0.09390120
0.00000000 0.00000000 0.06618936
0.00000000 0.00000000 0.04173402
0.00000000 0.00000000 0.02171421
0.00000000 0.00000000 0.00730896
0.00011544 0.00000000 0.00223693
0.00000000 0.00000000 0.12481080
0.00000000 0.00000000 0.09496754
0.00000000 0.00000000 0.06715839
0.00000000 0.00000000 0.04256235
0.00000000 0.00000000 0.02235847
0.00000000 0.00000000 0.00772577
0.00006291 0.00000000 0.00107159
0.00000000 0.00000000 0.06341079
0.00000000 0.00000000 0.17880230
0.00000000 0.00000000 0.06813175
0.00000000 0.00000000 0.04339662
0.00000000 0.00000000 0.02301026
0.00000000 0.00000000 0.00815171
0.00000000 0.00000000 0.00000000
0.00000000 0.00000000 0.06007806
0.00000000 0.00000000 0.17380524
0.00000000 0.00000000 0.32495907
0.00000000 0.00000000 0.49731714
0.00000000 0.00000000 0.02366954
0.00000000 0.00000000 0.00858674
0.00000000 0.00000000 0.00016739
0.00000000 0.00000000 0.05681795
0.00000000 0.00000000 0.16885884
0.00000000 0.00000000 0.31892321
0.00000000 0.00000000 0.49078861
0.00000000 0.00000000 0.66823262
0.00020255 0.00000000 0.83503276
0.00000000 0.00000000 0.00034540
0.00000000 0.00000000 0.05363125
0.00000000 0.00000000 0.16396390
0.00000000 0.00000000 0.31291685
0.00000000 0.00000000 0.48426762
0.00000000 0.00000000 0.66179383
0.00000000 0.00000000 0.82927299
0.02606067 0.00000000 0.97048271
0.08686770 0.10709658 1.00000000
0.00000000 0.00000000 0.15912123
0.00000000 0.00000000 0.30694079
0.00000000 0.00000000 0.47775501
0.00000000 0.00000000 0.65534145
0.00000000 0.00000000 0.82347769
0.02479953 0.00000000 0.96594125
0.08402421 0.10110641 1.00000000
0.16946086 0.28324366 1.00000000
0.26411512 0.48809639 1.00000000
0.00000000 0.00000000 0.47125155
0.00000000 0.00000000 0.64887625
0.00000000 0.00000000 0.81764758
0.02356157 0.00000000 0.96134305
0.08120912 0.09518295 1.00000000
0.16608238 0.27597782 1.00000000
0.26060587 0.48046559 1.00000000
0.35301977 0.68207699 1.00000000
0.43156424 0.85424280 1.00000000
0.00000000 0.00000000 0.27276510
0.00000000 0.00000000 0.25285164
0.00000000 0.00000000 0.22847776
0.00000000 0.00000000 0.20082247
0.00000000 0.00000000 0.17106484
0.00000000 0.00000000 0.14038387
0.00000000 0.00000000 0.10995859
0.00000000 0.00000000 0.08096803
0.00000000 0.00000000 0.05459123
0.00000000 0.00000000 0.22943981
0.00000000 0.00000000 0.20188436
0.00000000 0.00000000 0.17218317
0.00000000 0.00000000 0.14151528
0.00000000 0.00000000 0.11105971
0.00000000 0.00000000 0.08199548
0.00000000 0.00000000 0.05550164
0.00000000 0.00000000 0.03275719
0.00000000 0.00000000 0.01494118
0.00000000 0.00000000 0.17330021
0.00000000 0.00000000 0.14264700
0.00000000 0.00000000 0.11216272
0.00000000 0.00000000 0.08302642
0.00000000 0.00000000 0.05641711
0.00000000 0.00000000 0.03351384
0.00000000 0.00000000 0.01549563
0.00000000 0.00000000 0.00354150
0.00009250 0.00000000 0.01963912
0.00000000 0.00000000 0.11326755
0.00000000 0.00000000 0.08406077
0.00000000 0.00000000 0.05733761
0.00000000 0.00000000 0.03427710
0.00000000 0.00000000 0.01605828
0.00000000 0.00000000 0.00386017
0.00013691 0.00000000 0.01754964
0.00000000 0.00000000 0.10202961
0.00000000 0.00000000 0.23337673
0.00000000 0.00000000 0.05826306
0.00000000 0.00000000 0.03504692
0.00000000 0.00000000 0.01662908
0.00000000 0.00000000 0.00418859
0.00017281 0.00000000 0.01554555
0.00000000 0.00000000 0.09799193
0.00000000 0.00000000 0.22790226
0.00000000 0.00000000 0.38905412
0.00000000 0.00000000 0.56522506
0.00000000 0.00000000 0.01720798
0.00000000 0.00000000 0.00452669
0.00020002 0.00000000 0.01362766
0.00000000 0.00000000 0.09401848
0.00000000 0.00000000 0.22247007
0.00000000 0.00000000 0.38276002
0.00000000 0.00000000 0.55866581
0.00000000 0.00000000 0.73396510
0.00873049 0.00000000 0.89243543
0.00021836 0.00000000 0.01179678
0.00000000 0.00000000 0.09011009
0.00000000 0.00000000 0.21708100
0.00000000 0.00000000 0.37648705
0.00000000 0.00000000 0.55210578
0.00000000 0.00000000 0.72771484
0.00781481 0.00000000 0.88709170
0.04320674 0.01609485 1.00000000
0.11786630 0.17278332 1.00000000
0.00000000 0.00000000 0.21173580
0.00000000 0.00000000 0.37023601
0.00000000 0.00000000 0.54554576
0.00000000 0.00000000 0.72144258
0.00691946 0.00000000 0.88170403
0.04091865 0.01140251 1.00000000
0.11476305 0.16617975 1.00000000
0.20510119 0.36011165 1.00000000
0.30017325 0.56662893 1.00000000
0.00000000 0.00000000 0.53898650
0.00000000 0.00000000 0.71514910
0.00604426 0.00000000 0.87627321
0.03866879 0.00679912 1.00000000
0.11168212 0.15962917 1.00000000
0.20162183 0.35259134 1.00000000
0.29672810 0.55911636 1.00000000
0.38524106 0.75263488 1.00000000
0.45540091 0.90657771 1.00000000
0.00000000 0.00000000 0.26577383
0.00000000 0.00000000 0.24402067
0.00000000 0.00000000 0.21825662
0.00000000 0.00000000 0.18966070
0.00000000 0.00000000 0.15941195
0.00000000 0.00000000 0.12868939
0.00000000 0.00000000 0.09867207
0.00000000 0.00000000 0.07053900
0.00000000 0.00000000 0.04546921
0.00000000 0.00000000 0.21926185
0.00000000 0.00000000 0.19074923
0.00000000 0.00000000 0.16054040
0.00000000 0.00000000 0.12981439
0.00000000 0.00000000 0.09975022
0.00000000 0.00000000 0.07152694
0.00000000 0.00000000 0.04632356
0.00000000 0.00000000 0.02531912
0.00000000 0.00000000 0.00969264
0.00000000 0.00000000 0.16166814
0.00000000 0.00000000 0.13094027
0.00000000 0.00000000 0.10083087
0.00000000 0.00000000 0.07251897
0.00000000 0.00000000 0.04718360
0.00000000 0.00000000 0.02600379
0.00000000 0.00000000 0.01015857
0.00000000 0.00000000 0.00082697
0.00000000 0.00000000 0.04612572
0.00000000 0.00000000 0.10191394
0.00000000 0.00000000 0.07351502
0.00000000 0.00000000 0.04804926
0.00000000 0.00000000 0.02669568
0.00000000 0.00000000 0.01063332
0.00000000 0.00000000 0.00104119
0.00000000 0.00000000 0.04319887
0.00000000 0.00000000 0.14746138
0.00000000 0.00000000 0.29240590
0.00000000 0.00000000 0.04892049
0.00000000 0.00000000 0.02739474
0.00000000 0.00000000 0.01111682
0.00000000 0.00000000 0.00126577
0.00000000 0.00000000 0.04034904
0.00000000 0.00000000 0.14280550
0.00000000 0.00000000 0.28654078
0.00000000 0.00000000 0.45533246
0.00000000 0.00000000 0.63295805
0.00000000 0.00000000 0.01160902
0.00000000 0.00000000 0.00150064
0.00000000 0.00000000 0.03757703
0.00000000 0.00000000 0.13820550
0.00000000 0.00000000 0.28070959
0.00000000 0.00000000 0.44886687
0.00000000 0.00000000 0.62645489
0.00000000 0.00000000 0.79725122
0.01946076 0.00000000 0.94503349
0.00000000 0.00000000 0.03488366
0.00000000 0.00000000 0.13366216
0.00000000 0.00000000 0.27491310
0.00000000 0.00000000 0.44241405
0.00000000 0.00000000 0.61994255
0.00000000 0.00000000 0.79127622
0.01832383 0.00000000 0.94019252
0.06902938 0.06964157 1.00000000
0.15119967 0.24401978 1.00000000
0.00000000 0.00000000 0.26915216
0.00000000 0.00000000 0.43597481
0.00000000 0.00000000 0.61342186
0.00000000 0.00000000 0.78527081
0.01720911 0.00000000 0.93529928
0.06637947 0.06410524 1.00000000
0.14789954 0.23694490 1.00000000
0.24142969 0.43880913 1.00000000
0.33521006 0.64312863 1.00000000
0.00000000 0.00000000 0.60689354
0.00000000 0.00000000 0.77923590
0.01611639 0.00000000 0.93035454
0.06376171 0.05864414 1.00000000
0.14461568 0.22990930 1.00000000
0.23791233 0.43117648 1.00000000
0.33189186 0.63587642 1.00000000
0.41479442 0.81743973 1.00000000
0.47486016 0.94929725 1.00000000
0.00000000 0.00000000 0.25802812
0.00000000 0.00000000 0.23460665
0.00000000 0.00000000 0.20762382
0.00000000 0.00000000 0.17825866
0.00000000 0.00000000 0.14769019
0.00000000 0.00000000 0.11709745
0.00000000 0.00000000 0.08765947
0.00000000 0.00000000 0.06055527
0.00000000 0.00000000 0.03696388
0.00000000 0.00000000 0.20866592
0.00000000 0.00000000 0.17936753
0.00000000 0.00000000 0.14882243
0.00000000 0.00000000 0.11820970
0.00000000 0.00000000 0.08870834
0.00000000 0.00000000 0.06149739
0.00000000 0.00000000 0.03775588
0.00000000 0.00000000 0.01866283
0.00000000 0.00000000 0.00539727
0.00000000 0.00000000 0.14995459
0.00000000 0.00000000 0.11932345
0.00000000 0.00000000 0.08976031
0.00000000 0.00000000 0.06244421
0.00000000 0.00000000 0.03855417
0.00000000 0.00000000 0.01926921
0.00000000 0.00000000 0.00576838
0.00022462 0.00000000 0.00767674
0.00000000 0.00000000 0.08079763
0.00000000 0.00000000 0.09081533
0.00000000 0.00000000 0.06339567
0.00000000 0.00000000 0.03935869
0.00000000 0.00000000 0.01988343
0.00000000 0.00000000 0.00614891
0.00021093 0.00000000 0.00615263
0.00000000 0.00000000 0.07712016
0.00000000 0.00000000 0.19880700
0.00000000 0.00000000 0.35499069
0.00000000 0.00000000 0.04016939
0.00000000 0.00000000 0.02050542
0.00000000 0.00000000 0.00653881
0.00018756 0.00000000 0.00471912
0.00000000 0.00000000 0.07351134
0.00000000 0.00000000 0.19361968
0.00000000 0.00000000 0.34882170
0.00000000 0.00000000 0.52289492
0.00000000 0.00000000 0.69961697
0.00000000 0.00000000 0.00693802
0.00015434 0.00000000 0.00337702
0.00000000 0.00000000 0.06997198
0.00000000 0.00000000 0.18847986
0.00000000 0.00000000 0.34267822
0.00000000 0.00000000 0.51634467
0.00000000 0.00000000 0.69325668
0.00317329 0.00000000 0.85719186
0.03259384 0.00000000 0.99192780
0.00000000 0.00000000 0.06650287
0.00000000 0.00000000 0.18338834
0.00000000 0.00000000 0.33656111
0.00000000 0.00000000 0.50979877
0.00000000 0.00000000 0.68687880
0.00238563 0.00000000 0.85157883
0.03121633 0.00000000 0.98767638
0.09824450 0.13112773 1.00000000
0.18621601 0.31933337 1.00000000
0.00000000 0.00000000 0.33047116
0.00000000 0.00000000 0.50325805
0.00000000 0.00000000 0.68048418
0.00161713 0.00000000 0.84592706
0.02986288 0.00000000 0.98336434
0.09529565 0.12488949 1.00000000
0.18278190 0.31192929 1.00000000
0.27779454 0.51786351 1.00000000
0.36857373 0.71612293 1.00000000
0.00000000 0.00000000 0.67407358
0.00086761 0.00000000 0.84023738
0.02853330 0.00000000 0.97899240
0.09237289 0.11871280 1.00000000
0.17935799 0.30455074 1.00000000
0.27430210 0.51026064 1.00000000
0.36544538 0.70927316 1.00000000
0.44102803 0.87501901 1.00000000
0.48929021 0.98092890 1.00000000
0.00000000 0.00000000 0.24959330
0.00000000 0.00000000 0.22467493
0.00000000 0.00000000 0.19664471
0.00000000 0.00000000 0.16668169
0.00000000 0.00000000 0.13596490
0.00000000 0.00000000 0.10567337
0.00000000 0.00000000 0.07698612
0.00000000 0.00000000 0.05108218
0.00000000 0.00000000 0.02914059
0.00000000 0.00000000 0.19771738
0.00000000 0.00000000 0.16780458
0.00000000 0.00000000 0.13709463
0.00000000 0.00000000 0.10676657
0.00000000 0.00000000 0.07799941
0.00000000 0.00000000 0.05197218
0.00000000 0.00000000 0.02986393
0.00000000 0.00000000 0.01285366
0.00000000 0.00000000 0.00212042
0.00000000 0.00000000 0.13822488
0.00000000 0.00000000 0.10786188
0.00000000 0.00000000 0.07901641
0.00000000 0.00000000 0.05286749
0.00000000 0.00000000 0.03059417
0.00000000 0.00000000 0.01337546
0.00000000 0.00000000 0.00239040
0.00000000 0.00000000 0.02861111
0.00000000 0.00000000 0.12275572
0.00000000 0.00000000 0.08003706
0.00000000 0.00000000 0.05376805
0.00000000 0.00000000 0.03133125
0.00000000 0.00000000 0.01390570
0.00000000 0.00000000 0.00267042
0.00000000 0.00000000 0.02619560
0.00000000 0.00000000 0.11841439
0.00000000 0.00000000 0.25516734
0.00000000 0.00000000 0.42023203
0.00000000 0.00000000 0.03207511
0.00000000 0.00000000 0.01444431
0.00000000 0.00000000 0.00296041
0.00000000 0.00000000 0.02386231
0.00000000 0.00000000 0.11413334
0.00000000 0.00000000 0.24953534
0.00000000 0.00000000 0.41384587
0.00000000 0.00000000 0.59084249
0.00000000 0.00000000 0.76430279
0.00000000 0.00000000 0.00326031
0.00004490 0.00000000 0.02161206
0.00000000 0.00000000 0.10991337
0.00000000 0.00000000 0.24394247
0.00000000 0.00000000 0.40747690
0.00000000 0.00000000 0.58429426
0.00000000 0.00000000 0.75817204
0.01250838 0.00000000 0.91288787
0.05497430 0.04037601 1.00000000
0.00000000 0.00000000 0.10575529
0.00000000 0.00000000 0.23838952
0.00000000 0.00000000 0.40112591
0.00000000 0.00000000 0.57774198
0.00000000 0.00000000 0.75201535
0.01151152 0.00000000 0.90772361
0.05250697 0.03526617 1.00000000
0.13020031 0.19908075 1.00000000
0.22226356 0.39725152 1.00000000
0.00000000 0.00000000 0.39479369
0.00000000 0.00000000 0.57118660
0.00000000 0.00000000 0.74583358
0.01053569 0.00000000 0.90251219
0.05007501 0.03023879 1.00000000
0.12701543 0.19228271 1.00000000
0.21875836 0.38966030 1.00000000
0.31354401 0.59580225 1.00000000
0.39961249 0.78413922 1.00000000
0.00000000 0.00000000 0.73962748
0.00958071 0.00000000 0.89725459
0.04767900 0.02529519 1.00000000
0.12385056 0.18553250 1.00000000
0.21525729 0.38208094 1.00000000
0.31013933 0.58837122 1.00000000
0.39673689 0.77783400 1.00000000
0.46329013 0.92390001 1.00000000
0.49803922 1.00000000 1.00000000
