@Jimmyhogs_Major/@Jimmyhogs Major (Gradient only).cube
# VEGAS Pro LUT
TITLE "@Jimmyhogs Major"
LUT_3D_SIZE 33
0.00000000 0.00000000 0.29411766
0.00000000 0.00000000 0.29277501
0.00000000 0.00000000 0.29095781
0.00000000 0.00000000 0.28868452
0.00000000 0.00000000 0.28597355
0.00000000 0.00000000 0.28284335
0.00000000 0.00000000 0.27931228
0.00000000 0.00000000 0.27539885
0.00000000 0.00000000 0.27112138
0.00000000 0.00000000 0.26649839
0.00000000 0.00000000 0.26154822
0.00000000 0.00000000 0.25628936
0.00000000 0.00000000 0.25074020
0.00000000 0.00000000 0.24491914
0.00000000 0.00000000 0.23884465
0.00000000 0.00000000 0.23253511
0.00000000 0.00000000 0.22600898
0.00000000 0.00000000 0.21928465
0.00000000 0.00000000 0.21238056
0.00000000 0.00000000 0.20531514
0.00000000 0.00000000 0.19810678
0.00000000 0.00000000 0.19077393
0.00000000 0.00000000 0.18333502
0.00000000 0.00000000 0.17580844
0.00000000 0.00000000 0.16821265
0.00000000 0.00000000 0.16056603
0.00000000 0.00000000 0.15288705
0.00000000 0.00000000 0.14519408
0.00000000 0.00000000 0.13750558
0.00000000 0.00000000 0.12983996
0.00000000 0.00000000 0.12221565
0.00000000 0.00000000 0.11465106
0.00000000 0.00000000 0.10716462
0.00000000 0.00000000 0.29103285
0.00000000 0.00000000 0.28877601
0.00000000 0.00000000 0.28608084
0.00000000 0.00000000 0.28296572
0.00000000 0.00000000 0.27944908
0.00000000 0.00000000 0.27554938
0.00000000 0.00000000 0.27128500
0.00000000 0.00000000 0.26667437
0.00000000 0.00000000 0.26173592
0.00000000 0.00000000 0.25648808
0.00000000 0.00000000 0.25094926
0.00000000 0.00000000 0.24513790
0.00000000 0.00000000 0.23907240
0.00000000 0.00000000 0.23277119
0.00000000 0.00000000 0.22625269
0.00000000 0.00000000 0.21953534
0.00000000 0.00000000 0.21263753
0.00000000 0.00000000 0.20557772
0.00000000 0.00000000 0.19837430
0.00000000 0.00000000 0.19104570
0.00000000 0.00000000 0.18361036
0.00000000 0.00000000 0.17608668
0.00000000 0.00000000 0.16849311
0.00000000 0.00000000 0.16084804
0.00000000 0.00000000 0.15316990
0.00000000 0.00000000 0.14547713
0.00000000 0.00000000 0.13778815
0.00000000 0.00000000 0.13012135
0.00000000 0.00000000 0.12249520
0.00000000 0.00000000 0.11492809
0.00000000 0.00000000 0.10743845
0.00000000 0.00000000 0.10004470
0.00000000 0.00000000 0.09276526
0.00000000 0.00000000 0.28618753
0.00000000 0.00000000 0.28308755
0.00000000 0.00000000 0.27958536
0.00000000 0.00000000 0.27569941
0.00000000 0.00000000 0.27144814
0.00000000 0.00000000 0.26684991
0.00000000 0.00000000 0.26192319
0.00000000 0.00000000 0.25668642
0.00000000 0.00000000 0.25115797
0.00000000 0.00000000 0.24535631
0.00000000 0.00000000 0.23929983
0.00000000 0.00000000 0.23300697
0.00000000 0.00000000 0.22649615
0.00000000 0.00000000 0.21978576
0.00000000 0.00000000 0.21289428
0.00000000 0.00000000 0.20584010
0.00000000 0.00000000 0.19864163
0.00000000 0.00000000 0.19131732
0.00000000 0.00000000 0.18388557
0.00000000 0.00000000 0.17636482
0.00000000 0.00000000 0.16877349
0.00000000 0.00000000 0.16113000
0.00000000 0.00000000 0.15345275
0.00000000 0.00000000 0.14576019
0.00000000 0.00000000 0.13807073
0.00000000 0.00000000 0.13040280
0.00000000 0.00000000 0.12277482
0.00000000 0.00000000 0.11520521
0.00000000 0.00000000 0.10771240
0.00000000 0.00000000 0.10031480
0.00000000 0.00000000 0.09303083
0.00000000 0.00000000 0.08587893
0.00000000 0.00000000 0.07887751
0.00000000 0.00000000 0.27972111
0.00000000 0.00000000 0.27584895
0.00000000 0.00000000 0.27161080
0.00000000 0.00000000 0.26702502
0.00000000 0.00000000 0.26211005
0.00000000 0.00000000 0.25688437
0.00000000 0.00000000 0.25136632
0.00000000 0.00000000 0.24557438
0.00000000 0.00000000 0.23952694
0.00000000 0.00000000 0.23324245
0.00000000 0.00000000 0.22673932
0.00000000 0.00000000 0.22003597
0.00000000 0.00000000 0.21315081
0.00000000 0.00000000 0.20610228
0.00000000 0.00000000 0.19890881
0.00000000 0.00000000 0.19158879
0.00000000 0.00000000 0.18416068
0.00000000 0.00000000 0.17664288
0.00000000 0.00000000 0.16905381
0.00000000 0.00000000 0.16141190
0.00000000 0.00000000 0.15373558
0.00000000 0.00000000 0.14604326
0.00000000 0.00000000 0.13835336
0.00000000 0.00000000 0.13068432
0.00000000 0.00000000 0.12305453
0.00000000 0.00000000 0.11548245
0.00000000 0.00000000 0.10798648
0.00000000 0.00000000 0.10058505
0.00000000 0.00000000 0.09329658
0.00000000 0.00000000 0.08613949
0.00000000 0.00000000 0.07913221
0.00000000 0.00000000 0.07229315
0.00000000 0.00000000 0.06564074
0.00000000 0.00000000 0.27177298
0.00000000 0.00000000 0.26719967
0.00000000 0.00000000 0.26229650
0.00000000 0.00000000 0.25708190
0.00000000 0.00000000 0.25157428
0.00000000 0.00000000 0.24579211
0.00000000 0.00000000 0.23975374
0.00000000 0.00000000 0.23347764
0.00000000 0.00000000 0.22698222
0.00000000 0.00000000 0.22028591
0.00000000 0.00000000 0.21340711
0.00000000 0.00000000 0.20636427
0.00000000 0.00000000 0.19917580
0.00000000 0.00000000 0.19186012
0.00000000 0.00000000 0.18443565
0.00000000 0.00000000 0.17692082
0.00000000 0.00000000 0.16933405
0.00000000 0.00000000 0.16169377
0.00000000 0.00000000 0.15401837
0.00000000 0.00000000 0.14632632
0.00000000 0.00000000 0.13863601
0.00000000 0.00000000 0.13096586
0.00000000 0.00000000 0.12333432
0.00000000 0.00000000 0.11575978
0.00000000 0.00000000 0.10826069
0.00000000 0.00000000 0.10085545
0.00000000 0.00000000 0.09356250
0.00000000 0.00000000 0.08640026
0.00000000 0.00000000 0.07938713
0.00000000 0.00000000 0.07254156
0.00000000 0.00000000 0.06588196
0.00000000 0.00000000 0.05942675
0.00000000 0.00000000 0.05319436
0.00000000 0.00000000 0.26248252
0.00000000 0.00000000 0.25727904
0.00000000 0.00000000 0.25178188
0.00000000 0.00000000 0.24600947
0.00000000 0.00000000 0.23998022
0.00000000 0.00000000 0.23371254
0.00000000 0.00000000 0.22722486
0.00000000 0.00000000 0.22053561
0.00000000 0.00000000 0.21366321
0.00000000 0.00000000 0.20662607
0.00000000 0.00000000 0.19944263
0.00000000 0.00000000 0.19213130
0.00000000 0.00000000 0.18471050
0.00000000 0.00000000 0.17719868
0.00000000 0.00000000 0.16961423
0.00000000 0.00000000 0.16197558
0.00000000 0.00000000 0.15430115
0.00000000 0.00000000 0.14660938
0.00000000 0.00000000 0.13891868
0.00000000 0.00000000 0.13124748
0.00000000 0.00000000 0.12361418
0.00000000 0.00000000 0.11603722
0.00000000 0.00000000 0.10853503
0.00000000 0.00000000 0.10112601
0.00000000 0.00000000 0.09382860
0.00000000 0.00000000 0.08666122
0.00000000 0.00000000 0.07964228
0.00000000 0.00000000 0.07279022
0.00000000 0.00000000 0.06612346
0.00000000 0.00000000 0.05966040
0.00000000 0.00000000 0.05341949
0.00000000 0.00000000 0.04741913
0.00000000 0.00000000 0.04167776
0.00000000 0.00000000 0.25198913
0.00000000 0.00000000 0.24622650
0.00000000 0.00000000 0.24020636
0.00000000 0.00000000 0.23394713
0.00000000 0.00000000 0.22746722
0.00000000 0.00000000 0.22078505
0.00000000 0.00000000 0.21391906
0.00000000 0.00000000 0.20688766
0.00000000 0.00000000 0.19970928
0.00000000 0.00000000 0.19240233
0.00000000 0.00000000 0.18498524
0.00000000 0.00000000 0.17747644
0.00000000 0.00000000 0.16989432
0.00000000 0.00000000 0.16225734
0.00000000 0.00000000 0.15458392
0.00000000 0.00000000 0.14689246
0.00000000 0.00000000 0.13920139
0.00000000 0.00000000 0.13152914
0.00000000 0.00000000 0.12389412
0.00000000 0.00000000 0.11631476
0.00000000 0.00000000 0.10880949
0.00000000 0.00000000 0.10139672
0.00000000 0.00000000 0.09409488
0.00000000 0.00000000 0.08692238
0.00000000 0.00000000 0.07989766
0.00000000 0.00000000 0.07303914
0.00000000 0.00000000 0.06636522
0.00000000 0.00000000 0.05989435
0.00000000 0.00000000 0.05364494
0.00000000 0.00000000 0.04763541
0.00000000 0.00000000 0.04188418
0.00000000 0.00000000 0.03640968
0.00000000 0.00000000 0.03123034
0.00000000 0.00000000 0.24043219
0.00000000 0.00000000 0.23418142
0.00000000 0.00000000 0.22770931
0.00000000 0.00000000 0.22103426
0.00000000 0.00000000 0.21417470
0.00000000 0.00000000 0.20714906
0.00000000 0.00000000 0.19997576
0.00000000 0.00000000 0.19267321
0.00000000 0.00000000 0.18525985
0.00000000 0.00000000 0.17775409
0.00000000 0.00000000 0.17017435
0.00000000 0.00000000 0.16253906
0.00000000 0.00000000 0.15486665
0.00000000 0.00000000 0.14717552
0.00000000 0.00000000 0.13948411
0.00000000 0.00000000 0.13181084
0.00000000 0.00000000 0.12417413
0.00000000 0.00000000 0.11659240
0.00000000 0.00000000 0.10908408
0.00000000 0.00000000 0.10166758
0.00000000 0.00000000 0.09436133
0.00000000 0.00000000 0.08718375
0.00000000 0.00000000 0.08015326
0.00000000 0.00000000 0.07328830
0.00000000 0.00000000 0.06660727
0.00000000 0.00000000 0.06012860
0.00000000 0.00000000 0.05387071
0.00000000 0.00000000 0.04785203
0.00000000 0.00000000 0.04209097
0.00000000 0.00000000 0.03660597
0.00000000 0.00000000 0.03141544
0.00000000 0.00000000 0.02653780
0.00000000 0.00000000 0.02199148
0.00000000 0.00000000 0.22795112
0.00000000 0.00000000 0.22128321
0.00000000 0.00000000 0.21443012
0.00000000 0.00000000 0.20741026
0.00000000 0.00000000 0.20024206
0.00000000 0.00000000 0.19294395
0.00000000 0.00000000 0.18553433
0.00000000 0.00000000 0.17803164
0.00000000 0.00000000 0.17045429
0.00000000 0.00000000 0.16282073
0.00000000 0.00000000 0.15514936
0.00000000 0.00000000 0.14745860
0.00000000 0.00000000 0.13976687
0.00000000 0.00000000 0.13209260
0.00000000 0.00000000 0.12445422
0.00000000 0.00000000 0.11687014
0.00000000 0.00000000 0.10935879
0.00000000 0.00000000 0.10193858
0.00000000 0.00000000 0.09462795
0.00000000 0.00000000 0.08744531
0.00000000 0.00000000 0.08040909
0.00000000 0.00000000 0.07353771
0.00000000 0.00000000 0.06684958
0.00000000 0.00000000 0.06036314
0.00000000 0.00000000 0.05409681
0.00000000 0.00000000 0.04806900
0.00000000 0.00000000 0.04229814
0.00000000 0.00000000 0.03680266
0.00000000 0.00000000 0.03160096
0.00000000 0.00000000 0.02671149
0.00000000 0.00000000 0.02215265
0.00000000 0.00000000 0.01794288
0.00000000 0.00000000 0.01410059
0.00000000 0.00000000 0.21468531
0.00000000 0.00000000 0.20767125
0.00000000 0.00000000 0.20050819
0.00000000 0.00000000 0.19321452
0.00000000 0.00000000 0.18580869
0.00000000 0.00000000 0.17830910
0.00000000 0.00000000 0.17073418
0.00000000 0.00000000 0.16310234
0.00000000 0.00000000 0.15543203
0.00000000 0.00000000 0.14774166
0.00000000 0.00000000 0.14004964
0.00000000 0.00000000 0.13237441
0.00000000 0.00000000 0.12473438
0.00000000 0.00000000 0.11714797
0.00000000 0.00000000 0.10963362
0.00000000 0.00000000 0.10220974
0.00000000 0.00000000 0.09489475
0.00000000 0.00000000 0.08770708
0.00000000 0.00000000 0.08066514
0.00000000 0.00000000 0.07378737
0.00000000 0.00000000 0.06709217
0.00000000 0.00000000 0.06059799
0.00000000 0.00000000 0.05432323
0.00000000 0.00000000 0.04828632
0.00000000 0.00000000 0.04250568
0.00000000 0.00000000 0.03699974
0.00000000 0.00000000 0.03178691
0.00000000 0.00000000 0.02688562
0.00000000 0.00000000 0.02231430
0.00000000 0.00000000 0.01809136
0.00000000 0.00000000 0.01423522
0.00000000 0.00000000 0.01076431
0.00000000 0.00000000 0.00769706
0.00000000 0.00000000 0.20077413
0.00000000 0.00000000 0.19348495
0.00000000 0.00000000 0.18608291
0.00000000 0.00000000 0.17858645
0.00000000 0.00000000 0.17101397
0.00000000 0.00000000 0.16338392
0.00000000 0.00000000 0.15571469
0.00000000 0.00000000 0.14802472
0.00000000 0.00000000 0.14033245
0.00000000 0.00000000 0.13265626
0.00000000 0.00000000 0.12501462
0.00000000 0.00000000 0.11742591
0.00000000 0.00000000 0.10990858
0.00000000 0.00000000 0.10248104
0.00000000 0.00000000 0.09516172
0.00000000 0.00000000 0.08796903
0.00000000 0.00000000 0.08092141
0.00000000 0.00000000 0.07403728
0.00000000 0.00000000 0.06733504
0.00000000 0.00000000 0.06083313
0.00000000 0.00000000 0.05454997
0.00000000 0.00000000 0.04850398
0.00000000 0.00000000 0.04271359
0.00000000 0.00000000 0.03719722
0.00000000 0.00000000 0.03197328
0.00000000 0.00000000 0.02706021
0.00000000 0.00000000 0.02247642
0.00000000 0.00000000 0.01824033
0.00000000 0.00000000 0.01437037
0.00000000 0.00000000 0.01088497
0.00000000 0.00000000 0.00780253
0.00000000 0.00000000 0.00514150
0.00000000 0.00000000 0.00292028
0.00000000 0.00000000 0.18635702
0.00000000 0.00000000 0.17886370
0.00000000 0.00000000 0.17129369
0.00000000 0.00000000 0.16366543
0.00000000 0.00000000 0.15599732
0.00000000 0.00000000 0.14830779
0.00000000 0.00000000 0.14061527
0.00000000 0.00000000 0.13293816
0.00000000 0.00000000 0.12529492
0.00000000 0.00000000 0.11770394
0.00000000 0.00000000 0.11018366
0.00000000 0.00000000 0.10275249
0.00000000 0.00000000 0.09542886
0.00000000 0.00000000 0.08823119
0.00000000 0.00000000 0.08117791
0.00000000 0.00000000 0.07428742
0.00000000 0.00000000 0.06757817
0.00000000 0.00000000 0.06106857
0.00000000 0.00000000 0.05477703
0.00000000 0.00000000 0.04872200
0.00000000 0.00000000 0.04292187
0.00000000 0.00000000 0.03739509
0.00000000 0.00000000 0.03216007
0.00000000 0.00000000 0.02723523
0.00000000 0.00000000 0.02263900
0.00000000 0.00000000 0.01838980
0.00000000 0.00000000 0.01450605
0.00000000 0.00000000 0.01100617
0.00000000 0.00000000 0.00790858
0.00000000 0.00000000 0.00523171
0.00000000 0.00000000 0.00299399
0.00000000 0.00000000 0.00121382
0.00003703 0.00000000 0.00059731
0.00000000 0.00000000 0.17157333
0.00000000 0.00000000 0.16394688
0.00000000 0.00000000 0.15627991
0.00000000 0.00000000 0.14859085
0.00000000 0.00000000 0.14089811
0.00000000 0.00000000 0.13322012
0.00000000 0.00000000 0.12557529
0.00000000 0.00000000 0.11798207
0.00000000 0.00000000 0.11045886
0.00000000 0.00000000 0.10302409
0.00000000 0.00000000 0.09569617
0.00000000 0.00000000 0.08849355
0.00000000 0.00000000 0.08143462
0.00000000 0.00000000 0.07453782
0.00000000 0.00000000 0.06782158
0.00000000 0.00000000 0.06130430
0.00000000 0.00000000 0.05500442
0.00000000 0.00000000 0.04894035
0.00000000 0.00000000 0.04313053
0.00000000 0.00000000 0.03759336
0.00000000 0.00000000 0.03234728
0.00000000 0.00000000 0.02741071
0.00000000 0.00000000 0.02280206
0.00000000 0.00000000 0.01853976
0.00000000 0.00000000 0.01464224
0.00000000 0.00000000 0.01112791
0.00000000 0.00000000 0.00801520
0.00000000 0.00000000 0.00532253
0.00000000 0.00000000 0.00306832
0.00000000 0.00000000 0.00127099
0.00002115 0.00000000 0.00033074
0.00022853 0.00000000 0.00963175
0.00000755 0.00000000 0.02303438
0.00000000 0.00000000 0.15656248
0.00000000 0.00000000 0.14887390
0.00000000 0.00000000 0.14118096
0.00000000 0.00000000 0.13350211
0.00000000 0.00000000 0.12585574
0.00000000 0.00000000 0.11826029
0.00000000 0.00000000 0.11073418
0.00000000 0.00000000 0.10329583
0.00000000 0.00000000 0.09596366
0.00000000 0.00000000 0.08875609
0.00000000 0.00000000 0.08169156
0.00000000 0.00000000 0.07478847
0.00000000 0.00000000 0.06806525
0.00000000 0.00000000 0.06154033
0.00000000 0.00000000 0.05523212
0.00000000 0.00000000 0.04915905
0.00000000 0.00000000 0.04333955
0.00000000 0.00000000 0.03779203
0.00000000 0.00000000 0.03253491
0.00000000 0.00000000 0.02758662
0.00000000 0.00000000 0.02296558
0.00000000 0.00000000 0.01869022
0.00000000 0.00000000 0.01477895
0.00000000 0.00000000 0.01125020
0.00000000 0.00000000 0.00812238
0.00000000 0.00000000 0.00541393
0.00000000 0.00000000 0.00314327
0.00000000 0.00000000 0.00132881
0.00000462 0.00000000 0.00007007
0.00022883 0.00000000 0.00921535
0.00002261 0.00000000 0.02247158
0.00000000 0.00000000 0.03958529
0.00000000 0.00000000 0.06030300
0.00000000 0.00000000 0.14146385
0.00000000 0.00000000 0.13378415
0.00000000 0.00000000 0.12613626
0.00000000 0.00000000 0.11853860
0.00000000 0.00000000 0.11100962
0.00000000 0.00000000 0.10356771
0.00000000 0.00000000 0.09623130
0.00000000 0.00000000 0.08901883
0.00000000 0.00000000 0.08194871
0.00000000 0.00000000 0.07503935
0.00000000 0.00000000 0.06830919
0.00000000 0.00000000 0.06177665
0.00000000 0.00000000 0.05546014
0.00000000 0.00000000 0.04937810
0.00000000 0.00000000 0.04354894
0.00000000 0.00000000 0.03799108
0.00000000 0.00000000 0.03272296
0.00000000 0.00000000 0.02776298
0.00000000 0.00000000 0.02312958
0.00000000 0.00000000 0.01884117
0.00000000 0.00000000 0.01491618
0.00000000 0.00000000 0.01137303
0.00000000 0.00000000 0.00823014
0.00000000 0.00000000 0.00550593
0.00000000 0.00000000 0.00321883
0.00000000 0.00000000 0.00138726
0.00000000 0.00000000 0.00002964
0.00022856 0.00000000 0.00880451
0.00003717 0.00000000 0.02191399
0.00000000 0.00000000 0.03889028
0.00000000 0.00000000 0.05947989
0.00000000 0.00000000 0.08342935
0.00000000 0.00000000 0.11048520
0.00000000 0.00000000 0.12641685
0.00000000 0.00000000 0.11881702
0.00000000 0.00000000 0.11128517
0.00000000 0.00000000 0.10383973
0.00000000 0.00000000 0.09649912
0.00000000 0.00000000 0.08928176
0.00000000 0.00000000 0.08220608
0.00000000 0.00000000 0.07529048
0.00000000 0.00000000 0.06855340
0.00000000 0.00000000 0.06201326
0.00000000 0.00000000 0.05568848
0.00000000 0.00000000 0.04959748
0.00000000 0.00000000 0.04375869
0.00000000 0.00000000 0.03819053
0.00000000 0.00000000 0.03291142
0.00000000 0.00000000 0.02793978
0.00000000 0.00000000 0.02329404
0.00000000 0.00000000 0.01899261
0.00000000 0.00000000 0.01505392
0.00000000 0.00000000 0.01149640
0.00000000 0.00000000 0.00833846
0.00000000 0.00000000 0.00559852
0.00000000 0.00000000 0.00329501
0.00000000 0.00000000 0.00144636
0.00000000 0.00000000 0.00007098
0.00022770 0.00000000 0.00839925
0.00005122 0.00000000 0.02136164
0.00000000 0.00000000 0.03820016
0.00000000 0.00000000 0.05866133
0.00000000 0.00000000 0.08249168
0.00000000 0.00000000 0.10943773
0.00000000 0.00000000 0.13924600
0.00000000 0.00000000 0.17166303
0.00000000 0.00000000 0.11156084
0.00000000 0.00000000 0.10411190
0.00000000 0.00000000 0.09676711
0.00000000 0.00000000 0.08954488
0.00000000 0.00000000 0.08246366
0.00000000 0.00000000 0.07554185
0.00000000 0.00000000 0.06879788
0.00000000 0.00000000 0.06225016
0.00000000 0.00000000 0.05591714
0.00000000 0.00000000 0.04981721
0.00000000 0.00000000 0.04396882
0.00000000 0.00000000 0.03839037
0.00000000 0.00000000 0.03310030
0.00000000 0.00000000 0.02811702
0.00000000 0.00000000 0.02345896
0.00000000 0.00000000 0.01914454
0.00000000 0.00000000 0.01519218
0.00000000 0.00000000 0.01162031
0.00000000 0.00000000 0.00844734
0.00000000 0.00000000 0.00569170
0.00000000 0.00000000 0.00337181
0.00000000 0.00000000 0.00150610
0.00000000 0.00000000 0.00011298
0.00022625 0.00000000 0.00799957
0.00006476 0.00000000 0.02081453
0.00000000 0.00000000 0.03751494
0.00000000 0.00000000 0.05784733
0.00000000 0.00000000 0.08155822
0.00000000 0.00000000 0.10839414
0.00000000 0.00000000 0.13810161
0.00000000 0.00000000 0.17042714
0.00000000 0.00000000 0.20511729
0.00000000 0.00000000 0.24191855
0.00000000 0.00000000 0.09703526
0.00000000 0.00000000 0.08980820
0.00000000 0.00000000 0.08272146
0.00000000 0.00000000 0.07579346
0.00000000 0.00000000 0.06904262
0.00000000 0.00000000 0.06248736
0.00000000 0.00000000 0.05614611
0.00000000 0.00000000 0.05003728
0.00000000 0.00000000 0.04417931
0.00000000 0.00000000 0.03859060
0.00000000 0.00000000 0.03328960
0.00000000 0.00000000 0.02829470
0.00000000 0.00000000 0.02362435
0.00000000 0.00000000 0.01929696
0.00000000 0.00000000 0.01533096
0.00000000 0.00000000 0.01174476
0.00000000 0.00000000 0.00855679
0.00000000 0.00000000 0.00578547
0.00000000 0.00000000 0.00344923
0.00000000 0.00000000 0.00156648
0.00000000 0.00000000 0.00015564
0.00022421 0.00000000 0.00760550
0.00007778 0.00000000 0.02027269
0.00000000 0.00000000 0.03683465
0.00000000 0.00000000 0.05703790
0.00000000 0.00000000 0.08062899
0.00000000 0.00000000 0.10735443
0.00000000 0.00000000 0.13696074
0.00000000 0.00000000 0.16919446
0.00000000 0.00000000 0.20380211
0.00000000 0.00000000 0.24053019
0.00000000 0.00000000 0.27912524
0.00000000 0.00000000 0.31933382
0.00000000 0.00000000 0.08297948
0.00000000 0.00000000 0.07604531
0.00000000 0.00000000 0.06928762
0.00000000 0.00000000 0.06272484
0.00000000 0.00000000 0.05637539
0.00000000 0.00000000 0.05025769
0.00000000 0.00000000 0.04439016
0.00000000 0.00000000 0.03879122
0.00000000 0.00000000 0.03347930
0.00000000 0.00000000 0.02847283
0.00000000 0.00000000 0.02379021
0.00000000 0.00000000 0.01944987
0.00000000 0.00000000 0.01547025
0.00000000 0.00000000 0.01186975
0.00000000 0.00000000 0.00866680
0.00000000 0.00000000 0.00587983
0.00000000 0.00000000 0.00352725
0.00000000 0.00000000 0.00162749
0.00000000 0.00000000 0.00019897
0.00022157 0.00000000 0.00721705
0.00009028 0.00000000 0.01973611
0.00000000 0.00000000 0.03615927
0.00000000 0.00000000 0.05623307
0.00000000 0.00000000 0.07970401
0.00000000 0.00000000 0.10631863
0.00000000 0.00000000 0.13582344
0.00000000 0.00000000 0.16796499
0.00000000 0.00000000 0.20248979
0.00000000 0.00000000 0.23914436
0.00000000 0.00000000 0.27767521
0.00000000 0.00000000 0.31782892
0.00000000 0.00000000 0.35935196
0.00000000 0.00000000 0.40199086
0.00000000 0.00000000 0.06953289
0.00000000 0.00000000 0.06296261
0.00000000 0.00000000 0.05660499
0.00000000 0.00000000 0.05047844
0.00000000 0.00000000 0.04460137
0.00000000 0.00000000 0.03899223
0.00000000 0.00000000 0.03366943
0.00000000 0.00000000 0.02865138
0.00000000 0.00000000 0.02395653
0.00000000 0.00000000 0.01960327
0.00000000 0.00000000 0.01561005
0.00000000 0.00000000 0.01199528
0.00000000 0.00000000 0.00877738
0.00000000 0.00000000 0.00597478
0.00000000 0.00000000 0.00360589
0.00000000 0.00000000 0.00168915
0.00000000 0.00000000 0.00024296
0.00021834 0.00000000 0.00683422
0.00010227 0.00000000 0.01920482
0.00000000 0.00000000 0.03548884
0.00000000 0.00000000 0.05543282
0.00000000 0.00000000 0.07878328
0.00000000 0.00000000 0.10528673
0.00000000 0.00000000 0.13468972
0.00000000 0.00000000 0.16673875
0.00000000 0.00000000 0.20118035
0.00000000 0.00000000 0.23776107
0.00000000 0.00000000 0.27622738
0.00000000 0.00000000 0.31632587
0.00000000 0.00000000 0.35780302
0.00000000 0.00000000 0.40040538
0.00000000 0.00000000 0.44387943
0.00000000 0.00000000 0.48797175
0.00000000 0.00000000 0.05683490
0.00000000 0.00000000 0.05069952
0.00000000 0.00000000 0.04481295
0.00000000 0.00000000 0.03919363
0.00000000 0.00000000 0.03385996
0.00000000 0.00000000 0.02883038
0.00000000 0.00000000 0.02412331
0.00000000 0.00000000 0.01975716
0.00000000 0.00000000 0.01575037
0.00000000 0.00000000 0.01212135
0.00000000 0.00000000 0.00888852
0.00000000 0.00000000 0.00607031
0.00000000 0.00000000 0.00368514
0.00000000 0.00000000 0.00175144
0.00000000 0.00000000 0.00028762
0.00021451 0.00000000 0.00645703
0.00011373 0.00000000 0.01867882
0.00000000 0.00000000 0.03482337
0.00000000 0.00000000 0.05463719
0.00000000 0.00000000 0.07786682
0.00000000 0.00000000 0.10425877
0.00000000 0.00000000 0.13355957
0.00000000 0.00000000 0.16551575
0.00000000 0.00000000 0.19987382
0.00000000 0.00000000 0.23638032
0.00000000 0.00000000 0.27478176
0.00000000 0.00000000 0.31482470
0.00000000 0.00000000 0.35625562
0.00000000 0.00000000 0.39882106
0.00000000 0.00000000 0.44226757
0.00000000 0.00000000 0.48634163
0.00000000 0.00000000 0.53078979
0.00000000 0.00000000 0.57535851
0.00000000 0.00000000 0.04502489
0.00000000 0.00000000 0.03939541
0.00000000 0.00000000 0.03405091
0.00000000 0.00000000 0.02900982
0.00000000 0.00000000 0.02429055
0.00000000 0.00000000 0.01991154
0.00000000 0.00000000 0.01589119
0.00000000 0.00000000 0.01224795
0.00000000 0.00000000 0.00900022
0.00000000 0.00000000 0.00616643
0.00000000 0.00000000 0.00376501
0.00000000 0.00000000 0.00181436
0.00000000 0.00000000 0.00033293
0.00021008 0.00000000 0.00608549
0.00012467 0.00000000 0.01815814
0.00000000 0.00000000 0.03416286
0.00000000 0.00000000 0.05384618
0.00000000 0.00000000 0.07695463
0.00000000 0.00000000 0.10323473
0.00000000 0.00000000 0.13243301
0.00000000 0.00000000 0.16429599
0.00000000 0.00000000 0.19857019
0.00000000 0.00000000 0.23500215
0.00000000 0.00000000 0.27333838
0.00000000 0.00000000 0.31332541
0.00000000 0.00000000 0.35470974
0.00000000 0.00000000 0.39723796
0.00000000 0.00000000 0.44065651
0.00000000 0.00000000 0.48471197
0.00000000 0.00000000 0.52915084
0.00000000 0.00000000 0.57371968
0.00000000 0.00000000 0.61816496
