@Jimmyhogs_Major/@Jimmyhogs Major (Gradient only).cube
# VEGAS Pro LUT
TITLE "@Jimmyhogs Major"
LUT_3D_SIZE 5
0.00000000 0.00000000 0.29411766
0.00000000 0.00000000 0.27112138
0.00000000 0.00000000 0.22600898
0.00000000 0.00000000 0.16821265
0.00000000 0.00000000 0.10716462
0.00000000 0.00000000 0.22795112
0.00000000 0.00000000 0.17045429
0.00000000 0.00000000 0.10935879
0.00000000 0.00000000 0.05409681
0.00000000 0.00000000 0.01410059
0.00000000 0.00000000 0.11156084
0.00000000 0.00000000 0.05591714
0.00000000 0.00000000 0.01519218
0.00006476 0.00000000 0.02081453
0.00000000 0.00000000 0.24191855
0.00000000 0.00000000 0.01631673
0.00015430 0.00000000 0.01662806
0.00000000 0.00000000 0.23088314
0.00000000 0.00000000 0.56880218
0.01018603 0.00000000 0.90060568
0.00000000 0.00000000 0.22001511
0.00000000 0.00000000 0.55568403
0.00831174 0.00000000 0.89001197
0.11956818 0.17640713 1.00000000
0.30547866 0.57820153 1.00000000
0.00000000 0.00000000 0.28855878
0.00000000 0.00000000 0.25601774
0.00000000 0.00000000 0.20495677
0.00000000 0.00000000 0.14480811
0.00000000 0.00000000 0.08500400
0.00000000 0.00000000 0.20705403
0.00000000 0.00000000 0.14707258
0.00000000 0.00000000 0.08708868
0.00000000 0.00000000 0.03653455
0.00000000 0.00000000 0.00484241
0.00000000 0.00000000 0.08918613
0.00000000 0.00000000 0.03811796
0.00000000 0.00000000 0.00556478
0.00000000 0.00000000 0.08283217
0.00000000 0.00000000 0.36457300
0.00000000 0.00000000 0.00632498
0.00000000 0.00000000 0.07547123
0.00000000 0.00000000 0.35218349
0.00000000 0.00000000 0.70307857
0.03477046 0.00000000 0.99837691
0.00000000 0.00000000 0.33989441
0.00000000 0.00000000 0.69035977
0.03196470 0.00000000 0.99000293
0.18809325 0.32338226 1.00000000
0.37336564 0.72661728 1.00000000
0.00000000 0.00000000 0.27893659
0.00000000 0.00000000 0.23822188
0.00000000 0.00000000 0.18258350
0.00000000 0.00000000 0.12145366
0.00000000 0.00000000 0.06426460
0.00000000 0.00000000 0.18478544
0.00000000 0.00000000 0.12369052
0.00000000 0.00000000 0.06618936
0.00000000 0.00000000 0.02171421
0.00011544 0.00000000 0.00223693
0.00000000 0.00000000 0.06813175
0.00000000 0.00000000 0.02301026
0.00000000 0.00000000 0.00000000
0.00000000 0.00000000 0.17380524
0.00000000 0.00000000 0.49731714
0.00000000 0.00000000 0.00034540
0.00000000 0.00000000 0.16396390
0.00000000 0.00000000 0.48426762
0.00000000 0.00000000 0.82927299
0.08686770 0.10709658 1.00000000
0.00000000 0.00000000 0.47125155
0.00000000 0.00000000 0.81764758
0.08120912 0.09518295 1.00000000
0.26060587 0.48046559 1.00000000
0.43156424 0.85424280 1.00000000
0.00000000 0.00000000 0.26577383
0.00000000 0.00000000 0.21825662
0.00000000 0.00000000 0.15941195
0.00000000 0.00000000 0.09867207
0.00000000 0.00000000 0.04546921
0.00000000 0.00000000 0.16166814
0.00000000 0.00000000 0.10083087
0.00000000 0.00000000 0.04718360
0.00000000 0.00000000 0.01015857
0.00000000 0.00000000 0.04612572
0.00000000 0.00000000 0.04892049
0.00000000 0.00000000 0.01111682
0.00000000 0.00000000 0.04034904
0.00000000 0.00000000 0.28654078
0.00000000 0.00000000 0.63295805
0.00000000 0.00000000 0.03488366
0.00000000 0.00000000 0.27491310
0.00000000 0.00000000 0.61994255
0.01832383 0.00000000 0.94019252
0.15119967 0.24401978 1.00000000
0.00000000 0.00000000 0.60689354
0.01611639 0.00000000 0.93035454
0.14461568 0.22990930 1.00000000
0.33189186 0.63587642 1.00000000
0.47486016 0.94929725 1.00000000
0.00000000 0.00000000 0.24959330
0.00000000 0.00000000 0.19664471
0.00000000 0.00000000 0.13596490
0.00000000 0.00000000 0.07698612
0.00000000 0.00000000 0.02914059
0.00000000 0.00000000 0.13822488
0.00000000 0.00000000 0.07901641
0.00000000 0.00000000 0.03059417
0.00000000 0.00000000 0.00239040
0.00000000 0.00000000 0.12275572
0.00000000 0.00000000 0.03207511
0.00000000 0.00000000 0.00296041
0.00000000 0.00000000 0.11413334
0.00000000 0.00000000 0.41384587
0.00000000 0.00000000 0.76430279
0.00000000 0.00000000 0.10575529
0.00000000 0.00000000 0.40112591
0.00000000 0.00000000 0.75201535
0.05250697 0.03526617 1.00000000
0.22226356 0.39725152 1.00000000
0.00000000 0.00000000 0.73962748
0.04767900 0.02529519 1.00000000
0.21525729 0.38208094 1.00000000
0.39673689 0.77783400 1.00000000
0.49803922 1.00000000 1.00000000
