Blue_Sea_Major/Blue Sea Major.cube
# VEGAS Pro LUT
TITLE "Blue Sea Major"
LUT_3D_SIZE 33
0.18431373 0.52549022 0.77254903
0.18618524 0.52710795 0.77308095
0.18867919 0.52936047 0.77379316
0.19177568 0.53221643 0.77467954
0.19545472 0.53564429 0.77573389
0.19969639 0.53961259 0.77695006
0.20448075 0.54408979 0.77832186
0.20978786 0.54904455 0.77984315
0.21559776 0.55444533 0.78150773
0.22189051 0.56026065 0.78330946
0.22864619 0.56645912 0.78524214
0.23584482 0.57300913 0.78729963
0.24346648 0.57987934 0.78947574
0.25149122 0.58703822 0.79176438
0.25989911 0.59445435 0.79415923
0.26867017 0.60209614 0.79665428
0.27778450 0.60993224 0.79924327
0.28722215 0.61793119 0.80192006
0.29696316 0.62606144 0.80467844
0.30698755 0.63429153 0.80751228
0.31727546 0.64259005 0.81041545
0.32780689 0.65092552 0.81338173
0.33856192 0.65926641 0.81640500
0.34952062 0.66758132 0.81947905
0.36066300 0.67583871 0.82259768
0.37196913 0.68400717 0.82575482
0.38341910 0.69205517 0.82894421
0.39567205 0.70016998 0.83234906
0.41127041 0.70944226 0.83685768
0.42866960 0.71952391 0.84212273
0.44769695 0.73032552 0.84806204
0.46817982 0.74175751 0.85459328
0.48994556 0.75373060 0.86163425
0.18857665 0.52926677 0.77376384
0.19165131 0.53210104 0.77464396
0.19530928 0.53550839 0.77569222
0.19953062 0.53945738 0.77690256
0.20429537 0.54391646 0.77826869
0.20958358 0.54885417 0.77978462
0.21537535 0.55423909 0.78144401
0.22165069 0.56003976 0.78324080
0.22838968 0.56622463 0.78516877
0.23557237 0.57276231 0.78722179
0.24317881 0.57962132 0.78939366
0.25118908 0.58677012 0.79167825
0.25958323 0.59417731 0.79406935
0.26834130 0.60181141 0.79656076
0.27744335 0.60964090 0.79914641
0.28686944 0.61763442 0.80182010
0.29659963 0.62576038 0.80457556
0.30661398 0.63398737 0.80740678
0.31689253 0.64228392 0.81030750
0.32741538 0.65061855 0.81327158
0.33816254 0.65895981 0.81629282
0.34911406 0.66727620 0.81936514
0.36025006 0.67553627 0.82248223
0.37155053 0.68370861 0.82563806
0.38299555 0.69176161 0.82882637
0.39513478 0.69984543 0.83219868
0.41066360 0.70908624 0.83667785
0.42799959 0.71913970 0.84191656
0.44697011 0.72991639 0.84783256
0.46740249 0.74132681 0.85434347
0.48912409 0.75328159 0.86136711
0.51196229 0.76569116 0.86882126
0.53574449 0.77846617 0.87662351
0.19516461 0.53537327 0.77565074
0.19936556 0.53930283 0.77685523
0.20411067 0.54374373 0.77821577
0.20937999 0.54866439 0.77972627
0.21515357 0.55403346 0.78138047
0.22141148 0.55981934 0.78317237
0.22813377 0.56599069 0.78509563
0.23530050 0.57251590 0.78714412
0.24289171 0.57936364 0.78931171
0.25088748 0.58650231 0.79159224
0.25926784 0.59390056 0.79397953
0.26801288 0.60152686 0.79646742
0.27710262 0.60934979 0.79904968
0.28651714 0.61733776 0.80172020
0.29623652 0.62545943 0.80447286
0.30624077 0.63368326 0.80730134
0.31650996 0.64197785 0.81019962
0.32702416 0.65031165 0.81316149
0.33776340 0.65865320 0.81618077
0.34870780 0.66697109 0.81925124
0.35983732 0.67523378 0.82236683
0.37113211 0.68340987 0.82552135
0.38257217 0.69146782 0.82870853
0.39460018 0.69952214 0.83204949
0.41005921 0.70873135 0.83649915
0.42733178 0.71875650 0.84171134
0.44624522 0.72950816 0.84760386
0.46662688 0.74089682 0.85409433
0.48830414 0.75283313 0.86110061
0.51110435 0.76522762 0.86854035
0.53485483 0.77799076 0.87633127
0.55938298 0.79103315 0.88439113
0.58451611 0.80426538 0.89263767
0.20392670 0.54357165 0.77816302
0.20917708 0.54847527 0.77966809
0.21493247 0.55382836 0.78131717
0.22117291 0.55959946 0.78310406
0.22787847 0.56575716 0.78502262
0.23502919 0.57226992 0.78706664
0.24260513 0.57910633 0.78922993
0.25058636 0.58623493 0.79150641
0.25895295 0.59362417 0.79388988
0.26768491 0.60124266 0.79637414
0.27676234 0.60905886 0.79895312
0.28616527 0.61704135 0.80162048
0.29587376 0.62515867 0.80437016
0.30586788 0.63337928 0.80719602
0.31612769 0.64167178 0.81009185
0.32663324 0.65000468 0.81305146
0.33736455 0.65834653 0.81606871
0.34830174 0.66666585 0.81913745
0.35942483 0.67493117 0.82225150
0.37071389 0.68311095 0.82540464
0.38214895 0.69117385 0.82859081
0.39406827 0.69920003 0.83190137
0.40945733 0.70837754 0.83632141
0.42666620 0.71837425 0.84150702
0.44552234 0.72910076 0.84737599
0.46585304 0.74046761 0.85384595
0.48748568 0.75238538 0.86083466
0.51024765 0.76476455 0.86825991
0.53396618 0.77751571 0.87603939
0.55846882 0.79054946 0.88409078
0.58358276 0.80377626 0.89233196
0.60913545 0.81710672 0.90068048
0.63495421 0.83045143 0.90905422
0.21471201 0.55362380 0.78125399
0.22093497 0.55938011 0.78303593
0.22762376 0.56552416 0.78494978
0.23475847 0.57202441 0.78698927
0.24231912 0.57884949 0.78914833
0.25028580 0.58596784 0.79142076
0.25863856 0.59334809 0.79380041
0.26735744 0.60095865 0.79628104
0.27642250 0.60876817 0.79885662
0.28581381 0.61674511 0.80152088
0.29551142 0.62485802 0.80426764
0.30549538 0.63307542 0.80709082
0.31574577 0.64136583 0.80998415
0.32624263 0.64969778 0.81294155
0.33696601 0.65803987 0.81595677
0.34789595 0.66636056 0.81902373
0.35901254 0.67462838 0.82213622
0.37029585 0.68281192 0.82528806
0.38172591 0.69087964 0.82847303
0.39353907 0.69887918 0.83175445
0.40885785 0.70802486 0.83614475
0.42600286 0.71799302 0.84130365
0.44480145 0.72869426 0.84714890
0.46508098 0.74003911 0.85359824
0.48666877 0.75193816 0.86056930
0.50939220 0.76430196 0.86797994
0.53307867 0.77704108 0.87574786
0.55755550 0.79006594 0.88379073
0.58265001 0.80328727 0.89202636
0.60818964 0.81661552 0.90037239
0.63400167 0.82996124 0.90874666
0.65991348 0.84323502 0.91706681
0.68575245 0.85634744 0.92525059
0.22736967 0.56529158 0.78487706
0.23448831 0.57177931 0.78691208
0.24203366 0.57859302 0.78906685
0.24998575 0.58570117 0.79133523
0.25832465 0.59307230 0.79371101
0.26703042 0.60067499 0.79618806
0.27608311 0.60847771 0.79876024
0.28546277 0.61644900 0.80142134
0.29514945 0.62455750 0.80416518
0.30512324 0.63277161 0.80698568
0.31536418 0.64105988 0.80987650
0.32585230 0.64939088 0.81283164
0.33656770 0.65773314 0.81584489
0.34749043 0.66605520 0.81891006
0.35860050 0.67432553 0.82202095
0.36987802 0.68251270 0.82517147
0.38130304 0.69058526 0.82835537
0.39301255 0.69855958 0.83160865
0.40826088 0.70767325 0.83596909
0.42534176 0.71761274 0.84110117
0.44408256 0.72828859 0.84692264
0.46431065 0.73961139 0.85335118
0.48585340 0.75149167 0.86030459
0.50853813 0.76383990 0.86770052
0.53219223 0.77656680 0.87545669
0.55664301 0.78958279 0.88349092
0.58171785 0.80279845 0.89172089
0.60724413 0.81612432 0.90006435
0.63304925 0.82947099 0.90843898
0.65896046 0.84274900 0.91676259
0.68480515 0.85586894 0.92495286
0.71041071 0.86874127 0.93292755
0.73560452 0.88127661 0.94060439
0.24174874 0.57833689 0.78898549
0.24968623 0.58543479 0.79124981
0.25801125 0.59279680 0.79362178
0.26670387 0.60039151 0.79609525
0.27574414 0.60818744 0.79866397
0.28511211 0.61615312 0.80132192
0.29478788 0.62425709 0.80406284
0.30475146 0.63246787 0.80688059
0.31498292 0.64075404 0.80976897
0.32546231 0.64908403 0.81272191
0.33616969 0.65742642 0.81573308
0.34708515 0.66574973 0.81879646
0.35818869 0.67402256 0.82190579
0.36946040 0.68221337 0.82505494
0.38088033 0.69029069 0.82823771
0.39248878 0.69824117 0.83146399
0.40766639 0.70732278 0.83579451
0.42468289 0.71723348 0.84089965
0.44336569 0.72788382 0.84669721
0.46354213 0.73918444 0.85310489
0.48503956 0.75104576 0.86004043
0.50768530 0.76337838 0.86742151
0.53130680 0.77609289 0.87516594
0.55573136 0.78909981 0.88319141
0.58078635 0.80230975 0.89141560
0.60629904 0.81563318 0.89975631
0.63209695 0.82898062 0.90813130
0.65800732 0.84226280 0.91645825
0.68385756 0.85539007 0.92465490
0.70947498 0.86827314 0.93263894
0.73468697 0.88082248 0.94032818
0.75932086 0.89294863 0.94764030
0.78320408 0.90456218 0.95449305
0.25769833 0.59252167 0.79353267
0.26637778 0.60010839 0.79600251
0.27540562 0.60789746 0.79856789
0.28476191 0.61585742 0.80122262
0.29442668 0.62395686 0.80396062
0.30438003 0.63216430 0.80677563
0.31460199 0.64044821 0.80966157
0.32507262 0.64877713 0.81261218
0.33577198 0.65711963 0.81562132
0.34668010 0.66544425 0.81868291
0.35777709 0.67371947 0.82179064
0.36904296 0.68191385 0.82493842
0.38045782 0.68999588 0.82812011
0.39200166 0.69793415 0.83132946
0.40707436 0.70697343 0.83562094
0.42402628 0.71685523 0.84069908
0.44265085 0.72747993 0.84647262
0.46277538 0.73875821 0.85285932
0.48422727 0.75060046 0.85977685
0.50683385 0.76291734 0.86714303
0.53042251 0.77561939 0.87487555
0.55482060 0.78861719 0.88289207
0.57985538 0.80182117 0.89111048
0.60535437 0.81514204 0.89944839
0.63114482 0.82849020 0.90782356
0.65705413 0.84177631 0.91615373
0.68290961 0.85491091 0.92435658
0.70853865 0.86780453 0.93234992
0.73376858 0.88036770 0.94005150
0.75842685 0.89251101 0.94737893
0.78234071 0.90414500 0.95425004
0.80533761 0.91518027 0.96058249
0.82724476 0.92552727 0.96629411
0.27506757 0.60760766 0.79847187
0.28441212 0.61556196 0.80112344
0.29406589 0.62365681 0.80385852
0.30400899 0.63186079 0.80667078
0.31422141 0.64014244 0.80955422
0.32468325 0.64847028 0.81250256
0.33537453 0.65681285 0.81550968
0.34627533 0.66513866 0.81856942
0.35736573 0.67341626 0.82167554
0.36862576 0.68161416 0.82482201
0.38003546 0.68970090 0.82800251
0.39157492 0.69764501 0.83121097
0.40648484 0.70662522 0.83544844
0.42337194 0.71647799 0.84049946
0.44193804 0.72707695 0.84624887
0.46201044 0.73833275 0.85261440
0.48341656 0.75015587 0.85951394
0.50598371 0.76245683 0.86686504
0.52953929 0.77514631 0.87458551
0.55391061 0.78813481 0.88259310
0.57892513 0.80133283 0.89080548
0.60441005 0.81465095 0.89914048
0.63019282 0.82799971 0.90751570
0.65610081 0.84128970 0.91584903
0.68196136 0.85443145 0.92405802
0.70760179 0.86733550 0.93206054
0.73284948 0.87991244 0.93977427
0.75753182 0.89207280 0.94711697
0.78147614 0.90372711 0.95400631
0.80450982 0.91478592 0.96036005
0.82646012 0.92515981 0.96609592
0.84715456 0.93475938 0.97113168
0.86642039 0.94349509 0.97538507
0.29370549 0.62335688 0.80375648
0.30363828 0.63155740 0.80656606
0.31384116 0.63983679 0.80944693
0.32429418 0.64816344 0.81239301
0.33497736 0.65650606 0.81539810
0.34587082 0.66483301 0.81845599
0.35695460 0.67311293 0.82156050
0.36820874 0.68131435 0.82470560
0.37961328 0.68940574 0.82788497
0.39114830 0.69735563 0.83109254
0.40589783 0.70627815 0.83527702
0.42271987 0.71610171 0.84030074
0.44122726 0.72667485 0.84602588
0.46124732 0.73790807 0.85237026
0.48260742 0.74971187 0.85925156
0.50513494 0.76199687 0.86658752
0.52865720 0.77467364 0.87429589
0.55300158 0.78765267 0.88229436
0.57799542 0.80084461 0.89050072
0.60346615 0.81415987 0.89883262
0.62924105 0.82750911 0.90720785
0.65514743 0.84080285 0.91554415
0.68101281 0.85395163 0.92375916
0.70666438 0.86686599 0.93177074
0.73192960 0.87945658 0.93949658
0.75663579 0.89163381 0.94685435
0.78061032 0.90330833 0.95376182
0.80368054 0.91439068 0.96013677
0.82567382 0.92479134 0.96589684
0.84641749 0.93442100 0.97095978
0.86573887 0.94319004 0.97524339
0.88346547 0.95100915 0.97866541
0.89942449 0.95778883 0.98114341
0.31346124 0.63953114 0.80933976
0.32390541 0.64785665 0.81228352
0.33458051 0.65619922 0.81528652
0.34546658 0.66452730 0.81834263
0.35654369 0.67280954 0.82144558
0.36779192 0.68101436 0.82458925
0.37919128 0.68911040 0.82776749
0.39072186 0.69706607 0.83097410
0.40531334 0.70593220 0.83510667
0.42207009 0.71572649 0.84010297
0.44051853 0.72627360 0.84580380
0.46048599 0.73748410 0.85212684
0.48179984 0.74926853 0.85898983
0.50428748 0.76153743 0.86631054
0.52777618 0.77420139 0.87400669
0.55209339 0.78717089 0.88199592
0.57706642 0.80035651 0.89019608
0.60252267 0.81366885 0.89852482
0.62828940 0.82701844 0.90689993
0.65419406 0.84031582 0.91523910
0.68006396 0.85347152 0.92346007
0.70572644 0.86639607 0.93148059
0.73100895 0.87900013 0.93921834
0.75573879 0.89119416 0.94659114
0.77974325 0.90288877 0.95351666
0.80284983 0.91399449 0.95991260
0.82488579 0.92442185 0.96569675
0.84567845 0.93408144 0.97078687
0.86505526 0.94288373 0.97510058
0.88284355 0.95073938 0.97855574
0.89887065 0.95755887 0.98106998
0.91296399 0.96325284 0.98256105
0.92495084 0.96773171 0.98294669
0.33418390 0.65589237 0.81517506
0.34506258 0.66422158 0.81822932
0.35613301 0.67250603 0.82133067
0.36737528 0.68071425 0.82447290
0.37876946 0.68881482 0.82765001
0.39029557 0.69677621 0.83085567
0.40473136 0.70558739 0.83493733
0.42142260 0.71535230 0.83990622
0.43981186 0.72587329 0.84558254
0.45972648 0.73706096 0.85188419
0.48099387 0.74882585 0.85872877
0.50344139 0.76107854 0.86603409
0.52689636 0.77372950 0.87371784
0.55118614 0.78668934 0.88169777
0.57613808 0.79986864 0.88989162
0.60157955 0.81317788 0.89821708
0.62733793 0.82652766 0.90659195
0.65324062 0.83982855 0.91493386
0.67911482 0.85299104 0.92316067
0.70478803 0.86592573 0.93119001
0.73008758 0.87854314 0.93893963
0.75484079 0.89075387 0.94632733
0.77887499 0.90246844 0.95327073
0.80201769 0.91359740 0.95968765
0.82409602 0.92405128 0.96549577
0.84493756 0.93374068 0.97061282
0.86436951 0.94257611 0.97495657
0.88221931 0.95046818 0.97844476
0.89831424 0.95732743 0.98099506
0.91248173 0.96306431 0.98252529
0.92454916 0.96758950 0.98295307
0.93434381 0.97081351 0.98219621
0.94088346 0.97216755 0.97978562
0.35572258 0.67220241 0.82121581
0.36695889 0.68041402 0.82435668
0.37834781 0.68851906 0.82753259
0.38986942 0.69648618 0.83073729
0.40415195 0.70524371 0.83476913
0.42077738 0.71497911 0.83971035
0.43910724 0.72547388 0.84536213
0.45896882 0.73663861 0.85164219
0.48018950 0.74838388 0.85846829
0.50259662 0.76062018 0.86575812
0.52601761 0.77325809 0.87342942
0.55027974 0.78620815 0.88139987
0.57521039 0.79938096 0.88958734
0.60063690 0.81268698 0.89790940
0.62638670 0.82603687 0.90628392
0.65228713 0.83934110 0.91462851
0.67816544 0.85251027 0.92286098
0.70384908 0.86545497 0.93089908
0.72916543 0.87808561 0.93866044
0.75394183 0.89031291 0.94606286
0.77800554 0.90204728 0.95302409
0.80118406 0.91319937 0.95946187
0.82330465 0.92367971 0.96529382
0.84419471 0.93339878 0.97043777
0.86368161 0.94226724 0.97481143
0.88159263 0.95019561 0.97833258
0.89775521 0.95709437 0.98091882
0.91199672 0.96287417 0.98248798
0.92414439 0.96744555 0.98295784
0.93402570 0.97071898 0.98224598
0.94101620 0.97233766 0.98005462
0.93532455 0.96647525 0.97156519
0.92549878 0.95815456 0.96075064
0.37792635 0.68822312 0.82741517
0.38944343 0.69619584 0.83061898
0.40357503 0.70490122 0.83460194
0.42013448 0.71460694 0.83951545
0.43840468 0.72507536 0.84514260
0.45821297 0.73621702 0.85140097
0.47938672 0.74794251 0.85820842
0.50175327 0.76016235 0.86548269
0.52513999 0.77278703 0.87314135
0.54937422 0.78572720 0.88110232
0.57428336 0.79889339 0.88928324
0.59969473 0.81219614 0.89760184
0.62543565 0.82554603 0.90597582
0.65133357 0.83885354 0.91432303
0.67721581 0.85202926 0.92256105
0.70290965 0.86498374 0.93060774
0.72824258 0.87762755 0.93838078
0.75304186 0.88987124 0.94579786
0.77713490 0.90162534 0.95277679
0.80034900 0.91280043 0.95923525
0.82251161 0.92330706 0.96509093
0.84345001 0.93305576 0.97026169
0.86299157 0.94195712 0.97466516
0.88096362 0.94992161 0.97821909
0.89719361 0.95685989 0.98084122
0.91150880 0.96268243 0.98244923
0.92373657 0.96729982 0.98296094
0.93370438 0.97062260 0.98229408
0.94114298 0.97250420 0.98032027
0.93560898 0.96673554 0.97191983
0.92593014 0.95850223 0.96118760
0.91239983 0.94797844 0.94830310
0.89531142 0.93533826 0.93344569
0.40300068 0.70455986 0.83443582
0.41949391 0.71423578 0.83932155
0.43770424 0.72467774 0.84492385
0.45745900 0.73579627 0.85116053
0.47858557 0.74750185 0.85794926
0.50091130 0.75970507 0.86520773
0.52426356 0.77231646 0.87285376
0.54846966 0.78524661 0.88080502
0.57335699 0.79840606 0.88897932
0.59875298 0.81170535 0.89729428
0.62448484 0.82505506 0.90566772
0.65038002 0.83836573 0.91401738
0.67626590 0.85154790 0.92226088
0.70196974 0.86451209 0.93031609
0.72731900 0.87716895 0.93810064
0.75214100 0.88942891 0.94553226
0.77626306 0.90120262 0.95252877
0.79951257 0.91240060 0.95900780
0.82171690 0.92293340 0.96488714
0.84270340 0.93271160 0.97008455
0.86229938 0.94164568 0.97451770
0.88033223 0.94964623 0.97810435
0.89662939 0.95662385 0.98076218
0.91101807 0.96248901 0.98240900
0.92332572 0.96715230 0.98296249
0.93337971 0.97052431 0.98234046
0.94100732 0.97251552 0.98046052
0.93588781 0.96699250 0.97227126
0.92635626 0.95884675 0.96162170
0.91296244 0.94840419 0.94881314
0.89599973 0.93583876 0.93402517
0.87576145 0.92132467 0.91743708
0.85254097 0.90503591 0.89922827
0.43700588 0.72428107 0.84470600
0.45670688 0.73537624 0.85092080
0.47778603 0.74706185 0.85769063
0.50007069 0.75924832 0.86493331
0.52338827 0.77184629 0.87256658
0.54756600 0.78476632 0.88050807
0.57243133 0.79791892 0.88867557
0.59781164 0.81121469 0.89698684
0.62353420 0.82456410 0.90535963
0.64942646 0.83787775 0.91371155
0.67531574 0.85106623 0.92196047
0.70102936 0.86404008 0.93002403
0.72639471 0.87670982 0.93781996
0.75123912 0.88898599 0.94526607
0.77539003 0.90077913 0.95228004
0.79867470 0.91199988 0.95877957
0.82092053 0.92255872 0.96468246
0.84195489 0.93236625 0.96990639
0.86160511 0.94133300 0.97436911
0.87969851 0.94936949 0.97798836
0.89606255 0.95638627 0.98068184
0.91052455 0.96229398 0.98236728
0.92291182 0.96700311 0.98296249
0.93305176 0.97042418 0.98238510
0.94077170 0.97246778 0.98055291
0.93616098 0.96724612 0.97261959
0.92677712 0.95918822 0.96205282
0.91352022 0.94882703 0.94932055
0.89668357 0.93633664 0.93460220
0.87656063 0.92189115 0.91807711
0.85344470 0.90566462 0.89992481
0.82762909 0.88783115 0.88032460
0.79940724 0.86856484 0.85945588
0.47698814 0.74662250 0.85743272
0.49923152 0.75879216 0.86465943
0.52251410 0.77137655 0.87227976
0.54666328 0.78428632 0.88021141
0.57150638 0.79743195 0.88837206
0.59687078 0.81072402 0.89667952
0.62258387 0.82407308 0.90505147
0.64847291 0.83738965 0.91340560
0.67436534 0.85058433 0.92165977
0.70008850 0.86356759 0.92973161
0.72546971 0.87625009 0.93753886
0.75033635 0.88854235 0.94499928
0.77451581 0.90035486 0.95203060
0.79783541 0.91159827 0.95855051
0.82012254 0.92218304 0.96447682
0.84120452 0.93201977 0.96972716
0.86090869 0.94101906 0.97421938
0.87906247 0.94909132 0.97787106
0.89549321 0.95614725 0.98060006
0.91002822 0.96209735 0.98232412
0.92249489 0.96685213 0.98296088
0.93272054 0.97032219 0.98242807
0.94053257 0.97241807 0.98064351
0.93642855 0.96749634 0.97296470
0.92719281 0.95952654 0.96248102
0.91407317 0.94924700 0.94982523
0.89736301 0.93683183 0.93517679
0.87735575 0.92245519 0.91871500
0.85434473 0.90629107 0.90061933
0.82862324 0.88851368 0.88106924
0.80048472 0.86929697 0.86024404
0.77022249 0.84881514 0.83832318
0.73812991 0.82724226 0.81548613
0.52164114 0.77090728 0.87199342
0.54576153 0.78380668 0.87991506
0.57058215 0.79694521 0.88806874
0.59593040 0.81023347 0.89637226
0.62163371 0.82358199 0.90474325
0.64751935 0.83690137 0.91309953
0.67341471 0.85010207 0.92135882
0.69914716 0.86309475 0.92943883
0.72454399 0.87578988 0.93725729
0.74943262 0.88809806 0.94473189
0.77364045 0.89992982 0.95178050
0.79699475 0.91119576 0.95832068
0.81932288 0.92180634 0.96427023
0.84045225 0.93167222 0.96954697
0.86021018 0.94070387 0.97406846
0.87842411 0.94881183 0.97775257
0.89492124 0.95590669 0.98051697
0.90952903 0.96189904 0.98227942
0.92207485 0.96669942 0.98295766
0.93238604 0.97021830 0.98246932
0.94028991 0.97236633 0.98073226
0.93669045 0.96774328 0.97330666
0.92760319 0.95986170 0.96290630
0.91462123 0.94966406 0.95032728
0.89803797 0.93732440 0.93574893
0.87814683 0.92301685 0.91935068
0.85524112 0.90691543 0.90131193
0.82961416 0.88919425 0.88181216
0.80155933 0.87002742 0.86103070
0.77137005 0.84958905 0.83914697
0.73933965 0.82805318 0.81634045
0.70576143 0.80559397 0.79279041
0.67092884 0.78238547 0.76867640
0.56965858 0.79645866 0.88776559
0.59499055 0.80974299 0.89606506
0.62068379 0.82309085 0.90443504
0.64656579 0.83641291 0.91279334
0.67246389 0.84961957 0.92105764
0.69820535 0.86262149 0.92914569
0.72361761 0.87532914 0.93697524
0.74852800 0.88765317 0.94446397
0.77276391 0.89950407 0.95152968
0.79615265 0.91079235 0.95809001
0.81852162 0.92142862 0.96406281
0.83969820 0.93132347 0.96936572
0.85950965 0.94038737 0.97391647
0.87778336 0.94853097 0.97763282
0.89434677 0.95566469 0.98043257
0.90902710 0.96169919 0.98223329
0.92165184 0.96654499 0.98295283
0.93204832 0.97011262 0.98250896
0.94004381 0.97231263 0.98081928
0.93694669 0.96798676 0.97364539
0.92800826 0.96019375 0.96332860
0.91516441 0.95007825 0.95082653
0.89870846 0.93781430 0.93631858
0.87893385 0.92357606 0.91998410
0.85613382 0.90753752 0.90200257
0.83060175 0.88987285 0.88255334
0.80263108 0.87075615 0.86181587
0.77251512 0.85036147 0.83996952
0.74054724 0.82886291 0.81719375
0.70702076 0.80643457 0.79366791
0.67222911 0.78325057 0.76957148
0.63646561 0.75948489 0.74508381
0.60002363 0.73531181 0.72038436
0.61973417 0.82259971 0.90412682
0.64561230 0.83592427 0.91248703
0.67151284 0.84913677 0.92075622
0.69726312 0.86214781 0.92885220
0.72269058 0.87486792 0.93669271
0.74762249 0.88720763 0.94419545
0.77188623 0.89907748 0.95127815
0.79530925 0.91038805 0.95785856
0.81771874 0.92104995 0.96385443
0.83894223 0.93097365 0.96918344
0.85880697 0.94006968 0.97376335
0.87714034 0.94824868 0.97751188
0.89376968 0.95542115 0.98034674
0.90852243 0.96149766 0.98218572
0.92122585 0.96638876 0.98294652
0.93170732 0.97000504 0.98254681
0.93979418 0.97225696 0.98090446
0.93719727 0.96822691 0.97398090
0.92840815 0.96052271 0.96374798
0.91570276 0.95048952 0.95132315
0.89937449 0.93830156 0.93688577
0.87971669 0.92413282 0.92061532
0.85702276 0.90815747 0.90269119
0.83158606 0.89054954 0.88329279
0.80369991 0.87148315 0.86259949
0.77365768 0.85113239 0.84079081
0.74175268 0.82967138 0.81804603
0.70827842 0.80727416 0.79454464
0.67352808 0.78411484 0.77046597
0.63779515 0.76036751 0.74598956
0.60137290 0.73620629 0.72129470
0.56455475 0.71180522 0.69656086
0.52763402 0.68733847 0.67196739
0.67056155 0.84865373 0.92045456
0.69632047 0.86167377 0.92855841
0.72176284 0.87440610 0.93640977
0.74671602 0.88676143 0.94392639
0.77100742 0.89865017 0.95102602
0.79446441 0.90998292 0.95762634
0.81691432 0.92067021 0.96364516
0.83818448 0.93062264 0.96900016
0.85810226 0.93975073 0.97360909
0.87649500 0.94796509 0.97738963
0.89319009 0.95517617 0.98025960
0.90801489 0.96129459 0.98213667
0.92079681 0.96623087 0.98293859
0.93136305 0.96989560 0.98258305
0.93954110 0.97219932 0.98098785
0.93744212 0.96846372 0.97431326
0.92880267 0.96084845 0.96416438
0.91623616 0.95089787 0.95181698
0.90003598 0.93878609 0.93745047
0.88049549 0.92468715 0.92124432
0.85790807 0.90877515 0.90337783
0.83256704 0.89122421 0.88403046
0.80476582 0.87220842 0.86338168
0.77479768 0.85190183 0.84161079
0.74295610 0.83047855 0.81889731
0.70953429 0.80811268 0.79542053
0.67482573 0.78497833 0.77135998
0.63912374 0.76124954 0.74689496
0.60272163 0.73710048 0.72220498
0.56591284 0.71270519 0.69746941
0.52899075 0.68823773 0.67286760
0.49224859 0.66387224 0.64857906
0.45597985 0.63978279 0.62478310
0.72083443 0.87394387 0.93612635
0.74580872 0.88631457 0.94365674
0.77012753 0.89822209 0.95077318
0.79361826 0.90957689 0.95739335
0.81610823 0.92028952 0.96343499
0.83742481 0.93027055 0.96881586
0.85739541 0.93943059 0.97345370
0.87584734 0.94768012 0.97726619
0.89260799 0.95492971 0.98017108
0.90750468 0.96108991 0.98208612
0.92036474 0.96607125 0.98292905
0.93101561 0.96978438 0.98261762
0.93928456 0.97213972 0.98106945
0.93768126 0.96869707 0.97464240
0.92919189 0.96117109 0.96457779
0.91676462 0.95130330 0.95230812
0.90069294 0.93926793 0.93801272
0.88127017 0.92523903 0.92187107
0.85878962 0.90939069 0.90406245
0.83354473 0.89189696 0.88476640
0.80582881 0.87293196 0.86416233
0.77593517 0.85266978 0.84242952
0.74415731 0.83128446 0.81974751
0.71078843 0.80895019 0.79629570
0.67612201 0.78584105 0.77225339
0.64045137 0.76213104 0.74780011
0.60406989 0.73799431 0.72311521
0.56727087 0.71360499 0.69837815
0.53034770 0.68913710 0.67376822
0.49359372 0.66476476 0.64946496
0.45730236 0.64066213 0.62564772
0.42176691 0.61700314 0.60249597
