Blue_Sea_Major/Blue Sea Major.cube
# VEGAS Pro LUT
TITLE "Blue Sea Major"
LUT_3D_SIZE 5
0.18431373 0.52549022 0.77254903
0.21559776 0.55444533 0.78150773
0.27778450 0.60993224 0.79924327
0.36066300 0.67583871 0.82259768
0.48994556 0.75373060 0.86163425
0.27506757 0.60760766 0.79847187
0.35736573 0.67341626 0.82167554
0.48341656 0.75015587 0.85951394
0.68196136 0.85443145 0.92405802
0.86642039 0.94349509 0.97538507
0.47698814 0.74662250 0.85743272
0.67436534 0.85058433 0.92165977
0.86090869 0.94101906 0.97421938
0.92719281 0.95952654 0.96248102
0.73812991 0.82724226 0.81548613
0.85526276 0.93846267 0.97298086
0.93032748 0.96211982 0.96580011
0.74774802 0.83369446 0.82229197
0.46127599 0.64330363 0.62824696
0.22111160 0.48008215 0.47552302
0.75722545 0.84006286 0.82902938
0.47191432 0.65037239 0.63521612
0.22738507 0.48457208 0.47934446
0.14616999 0.41026306 0.44215515
0.10835849 0.35196680 0.44530934
0.19194652 0.53237504 0.77472848
0.23621726 0.57334644 0.78740603
0.30749756 0.63470650 0.80765635
0.39640900 0.70061445 0.83255595
0.56246376 0.79266214 0.88540316
0.30451506 0.63227469 0.80681378
0.39215687 0.69803923 0.83137256
0.55515164 0.78879267 0.88300091
0.75875205 0.89267021 0.94747406
0.91456503 0.96387476 0.98267037
0.54789448 0.78494096 0.88061601
0.75156718 0.88914710 0.94536293
0.91070431 0.96236509 0.98238266
0.87627047 0.92168540 0.91784465
0.63198686 0.75651217 0.74203521
0.90666378 0.96075147 0.98200035
0.88252884 0.92613679 0.92289174
0.64262182 0.76357222 0.74928057
0.35608920 0.57302666 0.56015533
0.17313114 0.44363499 0.44737375
0.65319365 0.77059442 0.75650495
0.36571512 0.57949895 0.56632292
0.17628539 0.44627818 0.44910520
0.13039127 0.38748869 0.44205651
0.09733416 0.33262381 0.44836691
0.20498998 0.54456592 0.77846789
0.26076308 0.59521139 0.79440516
0.33965260 0.66010237 0.81671125
0.44968924 0.73144555 0.84869200
0.64041203 0.83325654 0.91081405
0.33645913 0.65764952 0.81581438
0.44388685 0.72817814 0.84686106
0.63278949 0.82933730 0.90835512
0.82859606 0.92615944 0.96663415
0.94000846 0.97112513 0.97817987
0.62517631 0.82541209 0.90589184
0.82229501 0.92320526 0.96503550
0.94117647 0.97254902 0.98039216
0.79753935 0.86729616 0.85809112
0.51986927 0.68219125 0.66682029
0.93921399 0.97212315 0.98109138
0.80611819 0.87312895 0.86437494
0.53071779 0.68938243 0.67401391
0.26595879 0.51163948 0.50316155
0.15505554 0.42207846 0.44313073
0.54158074 0.69658178 0.68123400
0.27376902 0.51703864 0.50803638
0.15672441 0.42421475 0.44338948
0.11624549 0.36517158 0.44369921
0.08852383 0.31648898 0.45142686
0.22287816 0.56116980 0.78359210
0.28866929 0.61914718 0.80233014
0.37368366 0.68522686 0.82623291
0.51634985 0.76805872 0.87025851
0.71889114 0.87297565 0.93553227
0.37033385 0.68283910 0.82529861
0.50946993 0.76434404 0.86800539
0.71143097 0.86925143 0.93324196
0.88659418 0.95236075 0.97920382
0.90706611 0.94397789 0.94354475
0.70393449 0.86549777 0.93092555
0.88164973 0.95022041 0.97834283
0.91178060 0.94751078 0.94774359
0.69932425 0.80129904 0.78831160
0.41010177 0.60921973 0.59493256
0.91618788 0.95086092 0.95177221
0.70942020 0.80803651 0.79534096
0.42036068 0.61606538 0.60158324
0.19920950 0.46408230 0.46235681
0.13850635 0.39948472 0.44184932
0.43071151 0.62296516 0.60830772
0.20440078 0.46793166 0.46544760
0.14004064 0.40168566 0.44187129
0.10395422 0.34436056 0.44642022
0.08214906 0.30461118 0.45382622
0.24504511 0.58129376 0.78992617
0.31936991 0.64426076 0.81100583
0.41462299 0.71140331 0.83785617
0.59149170 0.80791563 0.89492100
0.79300201 0.90928102 0.95722336
0.40973061 0.70853823 0.83640206
0.58400697 0.80399859 0.89247090
0.78617686 0.90599686 0.95532691
0.92784727 0.96873587 0.98284841
0.84193349 0.89768237 0.89111298
0.77926981 0.90265960 0.95338261
0.92473209 0.96765435 0.98295039
0.84939116 0.90284753 0.89680713
0.58994979 0.72863424 0.71359730
0.31100926 0.54253787 0.53146315
0.85661918 0.90787596 0.90237844
0.60075963 0.73579973 0.72088087
0.31987524 0.54856128 0.53707957
0.16603088 0.43563870 0.44527808
0.12347352 0.37679622 0.44265816
0.32891065 0.55468482 0.54281729
0.16777278 0.43768361 0.44571659
0.12485183 0.37896058 0.44250733
0.09373897 0.32610449 0.44955656
0.07843138 0.29803923 0.45490196
