Blue_Sea_Major/Blue Sea Major.cube
# VEGAS Pro LUT
TITLE "Blue Sea Major"
LUT_3D_SIZE 9
0.18431373 0.52549022 0.77254903
0.19545472 0.53564429 0.77573389
0.21559776 0.55444533 0.78150773
0.24346648 0.57987934 0.78947574
0.27778450 0.60993224 0.79924327
0.31727546 0.64259005 0.81041545
0.36066300 0.67583871 0.82259768
0.41127041 0.70944226 0.83685768
0.48994556 0.75373060 0.86163425
0.21471201 0.55362380 0.78125399
0.24231912 0.57884949 0.78914833
0.27642250 0.60876817 0.79885662
0.31574577 0.64136583 0.80998415
0.35901254 0.67462838 0.82213622
0.40885785 0.70802486 0.83614475
0.48666877 0.75193816 0.86056930
0.58265001 0.80328727 0.89202636
0.68575245 0.85634744 0.92525059
0.27506757 0.60760766 0.79847187
0.31422141 0.64014244 0.80955422
0.35736573 0.67341626 0.82167554
0.40648484 0.70662522 0.83544844
0.48341656 0.75015587 0.85951394
0.57892513 0.80133283 0.89080548
0.68196136 0.85443145 0.92405802
0.78147614 0.90372711 0.95400631
0.86642039 0.94349509 0.97538507
0.35572258 0.67220241 0.82121581
0.40415195 0.70524371 0.83476913
0.48018950 0.74838388 0.85846829
0.57521039 0.79938096 0.88958734
0.67816544 0.85251027 0.92286098
0.77800554 0.90204728 0.95302409
0.86368161 0.94226724 0.97481143
0.92414439 0.96744555 0.98295784
0.92549878 0.95815456 0.96075064
0.47698814 0.74662250 0.85743272
0.57150638 0.79743195 0.88837206
0.67436534 0.85058433 0.92165977
0.77451581 0.90035486 0.95203060
0.86090869 0.94101906 0.97421938
0.92249489 0.96685213 0.98296088
0.92719281 0.95952654 0.96248102
0.85434473 0.90629107 0.90061933
0.73812991 0.82724226 0.81548613
0.67056155 0.84865373 0.92045456
0.77100742 0.89865017 0.95102602
0.85810226 0.93975073 0.97360909
0.92079681 0.96623087 0.98293859
0.92880267 0.96084845 0.96416438
0.85790807 0.90877515 0.90337783
0.74295610 0.83047855 0.81889731
0.60272163 0.73710048 0.72220498
0.45597985 0.63978279 0.62478310
0.85526276 0.93846267 0.97298086
0.91905075 0.96558213 0.98289120
0.93032748 0.96211982 0.96580011
0.86141181 0.91122377 0.90610427
0.74774802 0.83369446 0.82229197
0.60811102 0.74067384 0.72584546
0.46127599 0.64330363 0.62824696
0.32601783 0.55272579 0.54097879
0.22111160 0.48008215 0.47552302
0.93176633 0.96334004 0.96738768
0.86485499 0.91363633 0.90879804
0.75250477 0.83688945 0.82566953
0.61349070 0.74424130 0.72948438
0.46658778 0.64683372 0.63172483
0.33057106 0.55580854 0.54387313
0.22421555 0.48230773 0.47741148
0.16809064 0.43805355 0.44579953
0.14537455 0.40916947 0.44210050
0.75722545 0.84006286 0.82902938
0.61885965 0.74780226 0.73312116
0.47191432 0.65037239 0.63521612
0.33516446 0.55891508 0.54679650
0.22738507 0.48457208 0.47934446
0.16896652 0.43906778 0.44603279
0.14616999 0.41026306 0.44215515
0.12580076 0.38044089 0.44241241
0.10835849 0.35196680 0.44530934
0.18741843 0.52821356 0.77343285
0.20214218 0.54190201 0.77765137
0.22538136 0.56346959 0.78430831
0.25585955 0.59090221 0.79300898
0.29230043 0.62218589 0.80335861
0.33342758 0.65530652 0.81496251
0.37796465 0.68825006 0.82742584
0.43846849 0.72511154 0.84516251
0.52521974 0.77282983 0.87316751
0.22439033 0.56255990 0.78402478
0.25462481 0.58981246 0.79265726
0.29086894 0.62099010 0.80295324
0.33184630 0.65407884 0.81451797
0.37628055 0.68706459 0.82695669
0.43567845 0.72352630 0.84429252
0.52172047 0.77094996 0.87201941
0.62172008 0.82362664 0.90477127
0.72462821 0.87583172 0.93728292
0.28944385 0.61979687 0.80254954
0.33026972 0.65285099 0.81407458
0.37459940 0.68587625 0.82648814
0.43292230 0.72195596 0.84343648
0.51824009 0.76907712 0.87087810
0.61792195 0.82166201 0.90353835
0.72091883 0.87398589 0.93615210
0.81618160 0.92032415 0.96345413
0.89266104 0.95495218 0.98017919
0.37292126 0.68468511 0.82602030
0.43020052 0.72040069 0.84259462
0.51477915 0.76721174 0.86974382
0.61412835 0.81969702 0.90230542
0.71719903 0.87213194 0.93501413
0.81294209 0.91879183 0.96260488
0.89030832 0.95395207 0.97981232
0.93824857 0.97188801 0.98137134
0.90321743 0.94112563 0.94018644
0.51133817 0.76535398 0.86861688
0.61033976 0.81773192 0.90107262
0.71346933 0.87027013 0.93386924
0.80967772 0.91724396 0.96174157
0.88791573 0.95292866 0.97942430
0.93713439 0.97159970 0.98165232
0.90572804 0.94298327 0.94237065
0.81413096 0.87859172 0.87028188
0.68632555 0.79263479 0.77929932
0.70973021 0.86840087 0.93271768
0.80638897 0.91568077 0.96086442
0.88548392 0.95188224 0.97901535
0.93596596 0.97128063 0.98190522
0.90816420 0.94479662 0.94451374
0.81825727 0.88141096 0.87333906
0.69145125 0.79605001 0.78284818
0.54652119 0.69985569 0.68452334
0.40224212 0.60396975 0.58984679
0.88301343 0.95081311 0.97858572
0.93474382 0.97093105 0.98213035
0.91052496 0.94656515 0.94661516
0.82233357 0.88420045 0.87637007
0.69655246 0.79945058 0.78638637
0.55195653 0.70345736 0.68814629
0.40732083 0.60736269 0.59313214
0.28142044 0.52230847 0.51282603
0.19303034 0.45943645 0.45871022
0.91280949 0.94828832 0.94867432
0.82635909 0.88695967 0.87937438
0.70162815 0.80283588 0.78991342
0.55739176 0.70705891 0.69177365
0.41242489 0.61077058 0.59643734
0.28550258 0.52511275 0.51538670
0.19539985 0.46122727 0.46010393
0.15917298 0.42730117 0.44381279
0.13733043 0.39778334 0.44184569
0.70667750 0.80620545 0.79342866
0.56282604 0.71065974 0.69540477
0.41755337 0.61419284 0.59976190
0.28963456 0.52794647 0.51798224
0.19784461 0.46306261 0.46154806
0.16002037 0.42835593 0.44397146
0.13809036 0.39888427 0.44184673
0.11877816 0.36929709 0.44328678
0.10258342 0.34195983 0.44679639
0.19194652 0.53237504 0.77472848
0.21006751 0.54930514 0.77992332
0.23621726 0.57334644 0.78740603
0.26911941 0.60248494 0.79678196
0.30749756 0.63470650 0.80765635
0.35007539 0.66799718 0.81963450
0.39640900 0.70061445 0.83255595
0.46924260 0.74234605 0.85493505
0.56246376 0.79266214 0.88540316
0.23512778 0.57235932 0.78709477
0.26780412 0.60134596 0.79640806
0.30600345 0.63348985 0.80723435
0.34844935 0.66677684 0.81917882
0.39426139 0.69931704 0.83195508
0.46613422 0.74062359 0.85393620
0.55880111 0.79072529 0.88419998
0.66121292 0.84389746 0.91748130
0.76232052 0.89441538 0.94851488
0.30451506 0.63227469 0.80681378
0.34682736 0.66555536 0.81872416
0.39215687 0.69803923 0.83137256
0.46305400 0.73891312 0.85294855
0.55515164 0.78879267 0.88300091
0.65740073 0.84195328 0.91626447
0.75875205 0.89267021 0.94747406
0.84815651 0.93521893 0.97136444
0.91456503 0.96387476 0.98267037
0.39045057 0.69688165 0.83089876
0.46000245 0.73721474 0.85197234
0.55151594 0.78686440 0.88180614
0.65358728 0.84000576 0.91504490
0.75516742 0.89091408 0.94642329
0.84520721 0.93386471 0.97067624
0.91265744 0.96313304 0.98253846
0.93492764 0.96611494 0.97107655
0.87304372 0.91940165 0.91526800
0.54789448 0.78494096 0.88061601
0.64977324 0.83805525 0.91382277
0.75156718 0.88914710 0.94536293
0.84222728 0.93249196 0.96997130
0.91070431 0.96236509 0.98238266
0.93606228 0.96715426 0.97249329
0.87627047 0.92168540 0.91784465
0.76865369 0.84775746 0.83719784
0.63198686 0.75651217 0.74203521
0.74795187 0.88736969 0.94429314
0.83921731 0.93110096 0.96924984
0.90870625 0.96157116 0.98220319
0.93710679 0.96814001 0.97385925
0.87943250 0.92393064 0.92038608
0.77324247 0.85085225 0.84049231
0.63731176 0.76004666 0.74566019
0.49041536 0.66265571 0.64737201
0.35132834 0.56982124 0.55710995
0.90666378 0.96075147 0.98200035
0.93806022 0.96907157 0.97517395
0.88252884 0.92613679 0.92289174
0.77779102 0.85392308 0.84376651
0.64262182 0.76357222 0.74928057
0.49579620 0.66622615 0.65091610
0.35608920 0.57302666 0.56015533
0.24227583 0.49511567 0.48848048
0.17313114 0.44363499 0.44737375
0.88555861 0.92830330 0.92536104
0.78229845 0.85696930 0.84701997
0.64791608 0.76708835 0.75289565
0.50118667 0.66980219 0.65447044
0.36088508 0.57625276 0.56322646
0.24578647 0.49758190 0.49064603
0.17466579 0.44493145 0.44821131
0.15056591 0.41620079 0.44255364
0.12966952 0.38639310 0.44210109
0.65319365 0.77059442 0.75650495
0.50658578 0.67338330 0.65803450
0.36571512 0.57949895 0.56632292
0.24935664 0.50008333 0.49285242
0.17628539 0.44627818 0.44910520
0.15138210 0.41728342 0.44264573
0.13039127 0.38748869 0.44205651
0.11220873 0.35848033 0.44446200
0.09733416 0.33262381 0.44836691
0.19782729 0.53786302 0.77641416
0.21915996 0.55774200 0.78252780
0.24803476 0.58396423 0.79077893
0.28317529 0.61451578 0.80077273
0.32330522 0.64738256 0.81211454
0.36714813 0.68055052 0.82440948
0.42107037 0.71514863 0.83979923
0.50298047 0.76082844 0.86588347
0.60106534 0.81291014 0.89804924
0.24685363 0.58291054 0.79044211
0.28178629 0.61333847 0.80037880
0.32175526 0.64615571 0.81167793
0.36548421 0.67934829 0.82394487
0.41850850 0.71366429 0.83902377
0.49961278 0.75899941 0.86478388
0.59729838 0.81094700 0.89681917
0.70051622 0.86378241 0.92986453
0.79821706 0.91178095 0.95865476
0.32021040 0.64492941 0.81124270
0.36382362 0.67814386 0.82348102
0.41598403 0.71219665 0.83826393
0.49626759 0.75717938 0.86369276
0.59353894 0.80898511 0.89559048
0.69674897 0.86188930 0.92869198
0.79484862 0.91016716 0.95773202
0.87678862 0.94809419 0.97744536
0.93151993 0.96994555 0.98256677
0.41349751 0.71074605 0.83752000
0.49294534 0.75536853 0.86261040
0.58978754 0.80702472 0.89436346
0.69297487 0.85998988 0.92751396
0.79145825 0.90853941 0.95679665
0.87418854 0.94694865 0.97694641
0.93011659 0.96949285 0.98269796
0.91808760 0.95232207 0.95354587
0.83601820 0.89360029 0.88663167
0.58604467 0.80506605 0.89313829
0.68919432 0.85808450 0.92633063
0.78804654 0.90689790 0.95584893
0.87155217 0.94578165 0.97642797
0.92866206 0.96901095 0.98280251
0.92010134 0.95388424 0.95545465
0.83986074 0.89625055 0.88953930
0.71895349 0.81440580 0.80200368
0.57615459 0.71949178 0.70433003
0.78461409 0.90524298 0.95488912
0.86888009 0.94459343 0.97589034
0.92715681 0.96850014 0.98288071
0.92203468 0.95539850 0.95731860
0.84364820 0.89886802 0.89241767
0.72390437 0.81771660 0.80547398
0.58157825 0.72308594 0.70796984
0.43544477 0.62611806 0.61138749
0.30427903 0.53795481 0.52720904
0.92560142 0.96796060 0.98293287
0.92388666 0.95686442 0.95913720
0.84737974 0.90145224 0.89526618
0.72882473 0.82100910 0.80893004
0.58699673 0.72667700 0.71161097
0.44067070 0.62959772 0.61479121
0.30862164 0.54091305 0.52995300
0.20962460 0.47176498 0.46857855
0.16382952 0.43301201 0.44476250
0.85105431 0.90400249 0.89808428
0.73371363 0.82428288 0.81237119
0.59240913 0.73026431 0.71525270
0.44591594 0.63308865 0.61821115
0.31300899 0.54389781 0.53272873
0.21246333 0.47383356 0.47028759
0.16469224 0.43404704 0.44495943
0.14229710 0.40488350 0.44193920
0.12241953 0.37512979 0.44278383
0.59781456 0.73384732 0.71889460
0.45117956 0.63659042 0.62164676
0.31744012 0.54690838 0.53553563
0.21537127 0.47594312 0.47204340
0.16555768 0.43507805 0.44516361
0.14307946 0.40598136 0.44197267
0.12310041 0.37620744 0.44270164
0.10612018 0.34812176 0.44585517
0.09263840 0.32408983 0.44993803
0.20498998 0.54456592 0.77846789
0.22934879 0.56710094 0.78544307
0.26076308 0.59521139 0.79440516
0.29795647 0.62688321 0.80495948
0.33965260 0.66010237 0.81671125
0.38457510 0.69285482 0.82926571
0.44968924 0.73144555 0.84869200
0.53906959 0.78024143 0.87771595
0.64041203 0.83325654 0.91081405
0.25949717 0.59410179 0.79404485
0.29650056 0.62567830 0.80454755
0.33805364 0.65887618 0.81626225
0.38288006 0.69168150 0.82879424
0.44677219 0.72980499 0.84777009
0.53550172 0.77833647 0.87654376
0.63659984 0.83129781 0.90958524
0.73901749 0.88296425 0.94162923
0.83170545 0.92761123 0.96741062
0.33645913 0.65764952 0.81581438
0.38118774 0.69050491 0.82832325
0.44388685 0.72817814 0.84686106
0.53195065 0.77643752 0.87537736
0.63278949 0.82933730 0.90835512
0.73535436 0.88115281 0.94052911
0.82859606 0.92615944 0.96663415
0.90146548 0.95863253 0.98140508
0.94000846 0.97112513 0.97817987
0.44103375 0.72656530 0.84596527
0.52841681 0.77454478 0.87421697
0.62898147 0.82737529 0.90712386
0.73167861 0.87933213 0.93942076
0.82545906 0.92469066 0.96584237
0.89927369 0.95772630 0.98112357
0.94064009 0.97186542 0.97931296
0.89270705 0.93344969 0.93126452
0.79318148 0.86433899 0.85491389
0.62517631 0.82541209 0.90589184
0.72799075 0.87750256 0.93830442
0.82229501 0.92320526 0.96503550
0.89703995 0.95679563 0.98081976
0.94117647 0.97254902 0.98039216
0.89549959 0.93547505 0.93360394
0.79753935 0.86729616 0.85809112
0.66607094 0.77915430 0.76533580
0.51986927 0.68219125 0.66682029
0.81910455 0.92170346 0.96421379
0.89476484 0.95584089 0.98049408
0.94022316 0.97235185 0.98075616
0.89822131 0.93745828 0.93590450
0.80185193 0.87022632 0.86124498
0.67128354 0.78262150 0.76892060
0.52529126 0.68578553 0.67041349
0.38264999 0.59086037 0.57720602
0.26213482 0.50898790 0.50078034
0.93921399 0.97212315 0.98109138
0.90087134 0.93939888 0.93816561
0.80611819 0.87312895 0.86437494
0.67647535 0.78607619 0.77249700
0.53071779 0.68938243 0.67401391
0.38762060 0.59418958 0.58040804
0.26595879 0.51163948 0.50316155
0.18450733 0.45287395 0.45375663
0.15505554 0.42207846 0.44313073
0.81033725 0.87600344 0.86748046
0.68164527 0.78951782 0.77606446
0.53614795 0.69298136 0.67762095
0.39262024 0.59753585 0.58363217
0.26983714 0.51432323 0.50558037
0.18657374 0.45448530 0.45494777
0.15588848 0.42314801 0.44325686
0.13439429 0.39348045 0.44188657
0.11560814 0.36412457 0.44381103
0.54158074 0.69658178 0.68123400
0.39764792 0.60089874 0.58687794
0.27376902 0.51703864 0.50803638
0.18871905 0.45614335 0.45619157
0.15672441 0.42421475 0.44338948
0.13514012 0.39458084 0.44186944
0.11624549 0.36517158 0.44369921
0.10054018 0.33835247 0.44738343
0.08852383 0.31648898 0.45142686
0.21336384 0.55237204 0.78086782
0.24056326 0.57727039 0.78864712
0.27433151 0.60697627 0.79826283
0.31339222 0.63947558 0.80932027
0.35646901 0.67275435 0.82142466
0.40520734 0.70586944 0.83507580
0.48165318 0.74918801 0.85894233
0.57689762 0.80026782 0.89014071
0.67989141 0.85338414 0.92340565
0.27298760 0.60582155 0.79788113
0.31187621 0.63825381 0.80889249
0.35482788 0.67153960 0.82096535
0.40289652 0.70449787 0.83440578
0.47844008 0.74742180 0.85790217
0.57318866 0.79831749 0.88892406
0.67609316 0.85146034 0.92220628
0.77610439 0.90112573 0.95248359
0.86217332 0.94158894 0.97449076
0.35319054 0.67032325 0.82050699
0.40062666 0.70314491 0.83375305
0.47525296 0.74566633 0.85687220
0.56949079 0.79637021 0.88771051
0.67229098 0.84953183 0.92100286
0.77260441 0.89942652 0.95148396
0.85938203 0.94032973 0.97388870
0.92157459 0.96651667 0.98295182
0.92808139 0.96025383 0.96340507
0.47209236 0.74392200 0.85585260
0.56580448 0.79442626 0.88650030
0.66848540 0.84759885 0.91979563
0.76908612 0.89771521 0.95047349
0.85655749 0.93905061 0.97326863
0.91985029 0.96588039 0.98291582
0.92964494 0.96154821 0.96506256
0.85982668 0.91011518 0.90486896
0.74557418 0.83223528 0.82075101
0.66467708 0.84566176 0.91858482
0.76555008 0.89599198 0.94945228
0.85370022 0.93775189 0.97263068
0.91807830 0.96521676 0.98285490
0.93112302 0.96279180 0.96667206
0.86329746 0.91254419 0.90757763
0.75034702 0.83543980 0.82413644
0.61104667 0.74262047 0.72783053
0.46417144 0.64522803 0.63014233
0.85081077 0.93643379 0.97197527
0.91625917 0.96452600 0.98276937
0.93251455 0.96398389 0.96823311
0.86670721 0.91493684 0.91025341
0.75508422 0.83862311 0.82750440
0.61642063 0.74618447 0.73146838
0.46949139 0.64876288 0.63362753
0.33307165 0.55750012 0.54546416
0.22593632 0.48353806 0.47846034
0.93381870 0.96512401 0.96974510
0.87005496 0.91729259 0.91289556
0.75978482 0.84178454 0.83085442
0.62178338 0.74974173 0.73510379
0.47482559 0.65230602 0.63712591
0.33768654 0.56061929 0.54840302
0.22914121 0.48582336 0.48041734
0.16944538 0.43961909 0.44616324
0.14660524 0.41085899 0.44218731
0.76444787 0.84492362 0.83418584
0.62713397 0.75329173 0.73873615
0.48017305 0.65585703 0.64063674
0.34234011 0.56376135 0.55136997
0.23241019 0.48814660 0.48241794
0.17032528 0.44062623 0.44640830
0.14740574 0.41195041 0.44225061
0.12688512 0.38212267 0.44231290
0.10926304 0.35350850 0.44509983
0.48553288 0.65941519 0.64415956
0.34703147 0.56692570 0.55436438
0.23574236 0.49050722 0.48446155
0.17120776 0.44162858 0.44666108
0.14820950 0.41304025 0.44231966
0.12759176 0.38321298 0.44225317
0.10985420 0.35451227 0.44496635
0.09549645 0.32930359 0.44896391
0.08501816 0.30995241 0.45275056
0.22287816 0.56116980 0.78359210
0.25273260 0.58813870 0.79211813
0.28866929 0.61914718 0.80233014
0.32941175 0.65218127 0.81383330
0.37368366 0.68522686 0.82623291
0.43143338 0.72110575 0.84297550
0.51634985 0.76805872 0.87025851
0.61585212 0.82059020 0.90286583
0.71889114 0.87297565 0.93553227
0.28725421 0.61795819 0.80192912
0.32784250 0.65095341 0.81339180
0.37200719 0.68403429 0.82576543
0.42873061 0.71955889 0.84214151
0.51289976 0.76619744 0.86912823
0.61206120 0.81862515 0.90163296
0.71516585 0.87111735 0.93439049
0.81116456 0.91794944 0.96213567
0.88900816 0.95339674 0.97960329
0.37033385 0.68283910 0.82529861
0.42606309 0.71802765 0.84132212
0.50946993 0.76434404 0.86800539
0.60827559 0.81666017 0.90040040
0.71143097 0.86925143 0.93324196
0.80788684 0.91639322 0.96126485
0.88659418 0.95236075 0.97920382
0.93650377 0.97142947 0.98179370
0.90706611 0.94397789 0.94354475
0.50606096 0.76249868 0.86689031
0.60449588 0.81469554 0.89916843
0.70768696 0.86737818 0.93208688
0.80458510 0.91482180 0.96038032
0.88414115 0.95130187 0.97878355
0.93530595 0.97109371 0.98203146
0.90946126 0.94576687 0.94566518
0.82048696 0.88293624 0.87499559
0.69423681 0.79790670 0.78477943
0.70393449 0.86549777 0.93092555
0.80125988 0.91323560 0.95948243
0.88164973 0.95022041 0.97834283
0.93405479 0.97072762 0.98224151
0.91178060 0.94751078 0.94774359
0.82453567 0.88570923 0.87801212
0.69932425 0.80129904 0.78831160
0.55492127 0.70542186 0.69012433
0.41010177 0.60921973 0.59493256
0.87912041 0.94911671 0.97788179
0.93275076 0.97033155 0.98242426
0.91402310 0.94920892 0.94977951
0.82853299 0.88845170 0.88100159
0.70438564 0.80467582 0.79183233
0.56035608 0.70902312 0.69375384
0.41521928 0.61263549 0.59824836
0.28775027 0.52665478 0.51679814
0.19672409 0.46222287 0.46088541
0.91618788 0.95086092 0.95177221
0.83247805 0.89116299 0.88396353
0.70942020 0.80803651 0.79534096
0.56578940 0.71262336 0.69738680
0.42036068 0.61606538 0.60158324
0.29190904 0.52950442 0.51941252
0.19920950 0.46408230 0.46235681
0.16048378 0.42892987 0.44406089
0.13850635 0.39948472 0.44184932
0.71442688 0.81138062 0.79883695
0.57122028 0.71622205 0.70102262
0.42552507 0.61950874 0.60493654
0.29611620 0.53238261 0.52206081
0.20176871 0.46598542 0.46387771
0.16133557 0.42997938 0.44423017
0.13927174 0.40058535 0.44185781
0.11979731 0.37094131 0.44313529
0.10341194 0.34341273 0.44656733
0.43071151 0.62296516 0.60830772
0.30037081 0.53528887 0.52474254
0.20440078 0.46793166 0.46544760
0.16219020 0.43102539 0.44440642
0.14004064 0.40168566 0.44187129
0.12046209 0.37200889 0.44304097
0.10395422 0.34436056 0.44642022
0.09101666 0.32110617 0.45051372
0.08214906 0.30461118 0.45382622
0.23346215 0.57084763 0.78661883
0.26578614 0.59959424 0.79583424
0.30370566 0.63161260 0.80658507
0.34594434 0.66488862 0.81847656
0.39122587 0.69740826 0.83111405
0.46138594 0.73798519 0.85241461
0.55316681 0.78774035 0.88234866
0.65532082 0.84089136 0.91559958
0.75679880 0.89171368 0.94690216
0.30222628 0.63040000 0.80616695
0.34432870 0.66366547 0.81802344
0.38952088 0.69624865 0.83064049
0.45835027 0.73629361 0.85144478
0.54953879 0.78581464 0.88115638
0.65150696 0.83894217 0.91437858
0.75320554 0.88995159 0.94584608
0.84358555 0.93311822 0.97029376
0.91159773 0.96271741 0.98245639
0.38781834 0.69508541 0.83016741
0.45534417 0.73461467 0.85048687
0.54592538 0.78389382 0.87996888
0.64769274 0.83699012 0.91315520
0.74959701 0.88817888 0.94478059
0.84058917 0.93173546 0.96957982
0.90962005 0.96193522 0.98228765
0.93664324 0.96769863 0.97324467
0.87800330 0.92291492 0.91923529
0.54232711 0.78197819 0.87878639
0.64387870 0.83503550 0.91192973
0.74597371 0.88639587 0.94370580
0.83756310 0.93033469 0.96884942
0.90759766 0.96112722 0.98209542
0.93763822 0.96865487 0.97458279
0.88112962 0.92513889 0.92175728
0.77572858 0.85253024 0.84228081
0.64021003 0.76197082 0.74763554
0.74233621 0.88460279 0.94262207
0.83450782 0.92891604 0.96810299
0.90553111 0.96029371 0.98187995
0.93854159 0.96955669 0.97586924
0.88418978 0.92732352 0.92424315
0.78025478 0.85558772 0.84554374
0.64551163 0.76549131 0.75125313
0.49873531 0.66817605 0.65285361
0.35870084 0.57478380 0.56182736
0.90342104 0.95943493 0.98164153
0.93935239 0.97040349 0.97710353
0.88718283 0.92946815 0.92669243
0.78473932 0.85862041 0.84878558
0.65079689 0.76900202 0.75486511
0.50413060 0.67175490 0.65641332
0.36351547 0.57802093 0.56491238
0.24772651 0.49894199 0.49184451
0.17553875 0.44565985 0.44869193
0.89010781 0.93157238 0.92910451
0.78918117 0.86162764 0.85200578
0.65606493 0.77250242 0.75847095
0.50953412 0.67533857 0.65998244
0.36836371 0.58127791 0.56802231
0.25132877 0.50146240 0.49407288
0.17720427 0.44703379 0.44961631
0.15182863 0.41787305 0.44269851
0.13078654 0.38808677 0.44203389
0.66131485 0.77599192 0.76207012
0.51494485 0.67892641 0.66356039
0.37324461 0.58455420 0.57115668
0.25498906 0.50401717 0.49634117
0.17895328 0.44845718 0.45059615
0.15264966 0.41895235 0.44279999
0.13151415 0.38918397 0.44199559
0.11315855 0.36006749 0.44427091
0.09808251 0.33396834 0.44813064
0.37815723 0.58784914 0.57431483
0.25870651 0.50660574 0.49864882
0.18078485 0.44992948 0.45163089
0.15347376 0.42002931 0.44290769
0.13224551 0.39028206 0.44196147
0.11377879 0.36109969 0.44414997
0.09857324 0.33484760 0.44797790
0.08712851 0.31389135 0.45195001
0.07994424 0.30059642 0.45457098
0.24504511 0.58129376 0.78992617
0.27965304 0.61152536 0.79977357
0.31936991 0.64426076 0.81100583
0.36291930 0.67748600 0.82322836
0.41462299 0.71140331 0.83785617
0.49445257 0.75619048 0.86310124
0.59149170 0.80791563 0.89492100
0.69469118 0.86085403 0.92805010
0.79300201 0.90928102 0.95722336
0.31783304 0.64303547 0.81057268
0.36126402 0.67627835 0.82276571
0.41215742 0.70996207 0.83712095
0.49114311 0.75438482 0.86202377
0.58774489 0.80595613 0.89369494
0.69091350 0.85895133 0.92686915
0.78959996 0.90764576 0.95628124
0.87275499 0.94631469 0.97666603
0.92932951 0.96923363 0.98275828
0.40973061 0.70853823 0.83640206
0.48785752 0.75258881 0.86095548
0.58400697 0.80399859 0.89247090
0.68712980 0.85704279 0.92568308
0.78617686 0.90599686 0.95532691
0.87009907 0.94513613 0.97613704
0.92784727 0.96873587 0.98284841
0.92116594 0.95471615 0.95647693
0.84193349 0.89768237 0.89111298
0.58027846 0.80204326 0.89124918
0.68334049 0.85512877 0.92449224
0.78273332 0.90433472 0.95436060
0.86740768 0.94393647 0.97558904
0.92631459 0.96820939 0.98291236
0.92305499 0.95620412 0.95831627
0.84569061 0.90028173 0.89397514
0.72659206 0.81951481 0.80736089
0.58453447 0.72504514 0.70995581
0.77926981 0.90265960 0.95338261
0.86468148 0.94271612 0.97502220
0.92473209 0.96765435 0.98295039
0.92486215 0.95764339 0.96010983
0.84939116 0.90284753 0.89680713
0.73149538 0.82279718 0.81080890
0.58994979 0.72863424 0.71359730
0.44352940 0.63150048 0.61665463
0.31100926 0.54253787 0.53146315
0.92310035 0.96707112 0.98296267
0.92658645 0.95903337 0.96185720
0.85303432 0.90537912 0.89960843
0.73636669 0.82606041 0.81424171
0.59535849 0.73221928 0.71723920
0.44878477 0.63499743 0.62008321
0.31542060 0.54553676 0.53425592
0.21404095 0.47497916 0.47123954
0.16516396 0.43460992 0.44506991
0.85661918 0.90787596 0.90237844
0.74120504 0.82930404 0.81765872
0.60075963 0.73579973 0.72088087
0.45405805 0.63850486 0.62352711
0.31987524 0.54856128 0.53707957
0.21698625 0.47711083 0.47302058
0.16603088 0.43563870 0.44527808
0.14350763 0.40657982 0.44199318
0.12347352 0.37679622 0.44265816
0.60615236 0.73937505 0.72452182
0.45934826 0.64202225 0.62698573
0.32437223 0.55161077 0.53993356
0.21999931 0.47928259 0.47484747
0.16690050 0.43666330 0.44549361
0.14429520 0.40767619 0.44203487
0.12416066 0.37787735 0.44258106
0.10699653 0.34963226 0.44563684
0.09330245 0.32530642 0.44970694
0.32891065 0.55468482 0.54281729
0.22307920 0.48149392 0.47671959
0.16777278 0.43768361 0.44571659
0.14508612 0.40877149 0.44208202
0.12485183 0.37896058 0.44250733
0.10756956 0.35061643 0.44549727
0.09373897 0.32610449 0.44955656
0.08385969 0.30779025 0.45318988
0.07843138 0.29803923 0.45490196
