YBMCW_Sphere/YBMCW Sphere (Gradient Map Only).cube
# VEGAS Pro LUT
TITLE "YBMCW Sphere (Gradient Map Only)"
LUT_3D_SIZE 5
0.00000000 1.00000000 1.00000000
0.09487054 0.84374297 1.00000000
0.27645874 0.54903615 1.00000000
0.49617836 0.23552591 1.00000000
0.70544308 0.02285868 1.00000000
0.26880512 0.56094396 1.00000000
0.48798275 0.24600562 1.00000000
0.69849300 0.02750857 1.00000000
0.83195364 0.06569005 0.85565960
0.90596378 0.27429184 0.58581263
0.69146538 0.03245093 1.00000000
0.82839727 0.06029287 0.86436856
0.90391546 0.26494631 0.59642786
0.94659656 0.54069316 0.31289998
0.97337317 0.81230563 0.08901275
0.90182269 0.25569698 0.60702205
0.94541186 0.53016126 0.32273468
0.97247356 0.80325866 0.09532045
0.99994022 0.99976134 0.00000718
1.00000000 1.00000000 0.17019588
0.97157449 0.79410809 0.10180695
0.99872619 0.99476147 0.00030089
1.00000000 1.00000000 0.16143465
1.00000000 1.00000000 0.43769166
1.00000000 1.00000000 0.73144084
0.02285066 0.96436888 1.00000000
0.15651494 0.74121249 1.00000000
0.35837239 0.42522398 1.00000000
0.57983667 0.13604975 1.00000000
0.76734835 0.00554830 0.97699171
0.35030130 0.43710649 1.00000000
0.57190514 0.14482591 1.00000000
0.76262760 0.00372273 0.98331738
0.86504894 0.13237689 0.75907469
0.92477953 0.37590259 0.47546670
0.75782621 0.00215445 0.98946083
0.86214101 0.12514786 0.76883692
0.92314214 0.36578041 0.48608002
0.95776212 0.64882421 0.21641812
0.98293340 0.89905137 0.03507908
0.92146903 0.35571563 0.49671108
0.95675957 0.63853204 0.22523452
0.98197842 0.89129937 0.03931328
1.00000000 1.00000000 0.04603660
1.00000000 1.00000000 0.26875693
0.98103279 0.88340485 0.04376509
1.00000000 1.00000000 0.04044151
1.00000000 1.00000000 0.25870529
1.00000000 1.00000000 0.55274189
1.00000000 1.00000000 0.82835722
0.06267724 0.89785033 1.00000000
0.22807243 0.62518722 1.00000000
0.44313622 0.30530974 1.00000000
0.65928239 0.05786422 1.00000000
0.81172502 0.03870919 0.90161723
0.43490750 0.31652707 1.00000000
0.65187466 0.06429696 1.00000000
0.80779099 0.03443772 0.90961021
0.89193833 0.21576232 0.65385997
0.93985087 0.48327628 0.36742666
0.80378497 0.03038473 0.91745985
0.88958830 0.20710379 0.66427314
0.93853390 0.47277978 0.37763575
0.96755409 0.75218481 0.13277553
0.99358153 0.97009093 0.00492039
0.93718994 0.46230185 0.38790137
0.96664321 0.74253464 0.14017132
0.99248070 0.96403617 0.00667876
1.00000000 1.00000000 0.11642970
1.00000000 1.00000000 0.37782913
0.99139786 0.95780015 0.00869356
1.00000000 1.00000000 0.10872672
1.00000000 1.00000000 0.36699083
1.00000000 1.00000000 0.66511428
1.00000000 1.00000000 0.90890294
0.11678690 0.80707562 1.00000000
0.30685011 0.50229853 1.00000000
0.52805740 0.19592476 1.00000000
0.73182249 0.00760065 1.00000000
0.84846348 0.09493259 0.81124902
0.51993090 0.20583706 1.00000000
0.72519851 0.01105011 1.00000000
0.84522551 0.08861753 0.82050699
0.91356039 0.31167689 0.54418498
0.95211625 0.59224337 0.26586202
0.84192437 0.08248214 0.82966048
0.91167772 0.30199113 0.55484676
0.95102912 0.58177489 0.27526453
0.97691107 0.84660542 0.06614168
1.00000000 1.00000000 0.01837830
0.94992375 0.57128614 0.28476241
0.97600120 0.83799964 0.07171452
1.00000000 1.00000000 0.01409497
1.00000000 1.00000000 0.20580608
1.00000000 1.00000000 0.49219185
1.00000000 1.00000000 0.01006727
1.00000000 1.00000000 0.19649895
1.00000000 1.00000000 0.48107064
1.00000000 1.00000000 0.76958817
1.00000000 1.00000000 0.96785748
0.18248674 0.69867611 1.00000000
0.39015514 0.37917775 1.00000000
0.61044306 0.10370036 1.00000000
0.78504372 0.01508253 0.95058703
0.87850213 0.17004903 0.71005660
0.60267860 0.11166777 1.00000000
0.78063035 0.01228713 0.95758885
0.87586975 0.16209272 0.72017729
0.93085355 0.41595110 0.43421909
0.96251416 0.69863445 0.17494217
0.87318289 0.15427724 0.73023224
0.92934763 0.40564048 0.44472718
0.96156633 0.68859625 0.18313581
0.98677140 0.92791665 0.02068602
1.00000000 1.00000000 0.07668327
0.96060896 0.67849898 0.19146362
0.98577207 0.92075759 0.02403361
1.00000000 1.00000000 0.07002691
1.00000000 1.00000000 0.30894506
1.00000000 1.00000000 0.60662442
1.00000000 1.00000000 0.06357758
1.00000000 1.00000000 0.29853755
1.00000000 1.00000000 0.59572405
1.00000000 1.00000000 0.86094290
1.00000000 1.00000000 1.00000000
