YBMCW_Sphere/YBMCW Sphere (Gradient Map Only).cube
# VEGAS Pro LUT
TITLE "YBMCW Sphere (Gradient Map Only)"
LUT_3D_SIZE 9
0.00000000 1.00000000 1.00000000
0.03355892 0.94665563 1.00000000
0.09487054 0.84374297 1.00000000
0.17786157 0.70621789 1.00000000
0.27645874 0.54903615 1.00000000
0.38458878 0.38715354 1.00000000
0.49617836 0.23552591 1.00000000
0.60515422 0.10910901 1.00000000
0.70544308 0.02285868 1.00000000
0.09219362 0.84823388 1.00000000
0.17449470 0.71171719 1.00000000
0.27262533 0.55499363 1.00000000
0.38051224 0.39301896 1.00000000
0.49208218 0.24074908 1.00000000
0.60126179 0.11313972 1.00000000
0.70197785 0.02514670 1.00000000
0.77981967 0.01180484 0.95884401
0.83370686 0.06846174 0.85126019
0.26880512 0.56094396 1.00000000
0.37644073 0.39889753 1.00000000
0.48798275 0.24600562 1.00000000
0.59735793 0.11722403 1.00000000
0.69849300 0.02750857 1.00000000
0.77757692 0.01052007 0.96226698
0.83195364 0.06569005 0.85565960
0.87404376 0.15674847 0.72704029
0.90596378 0.27429184 0.58581263
0.48388040 0.25129479 1.00000000
0.59344292 0.12136123 1.00000000
0.69498873 0.02994356 1.00000000
0.77531469 0.00929661 0.96564746
0.83018386 0.06296694 0.86002922
0.87268847 0.15287165 0.73205310
0.90494514 0.26960728 0.59112263
0.92907041 0.40377030 0.44664133
0.94718081 0.54595727 0.30801266
0.69146538 0.03245093 1.00000000
0.77303290 0.00813491 0.96898490
0.82839727 0.06029287 0.86436856
0.87131929 0.14903116 0.73704833
0.90391546 0.26494631 0.59642786
0.92830235 0.39863479 0.45191059
0.94659656 0.54069316 0.31289998
0.96091467 0.68171793 0.18879953
0.97337317 0.81230563 0.08901275
0.82659388 0.05766830 0.86867714
0.86993611 0.14522745 0.74202561
0.90287465 0.26030937 0.60172784
0.92752612 0.39351061 0.45718729
0.94600695 0.53542769 0.31780747
0.96043384 0.67665708 0.19299190
0.97292322 0.80779535 0.09214401
0.98559177 0.91943896 0.02466733
1.00000000 1.00000000 0.00144217
0.90182269 0.25569698 0.60702205
0.92674148 0.38839823 0.46247098
0.94541186 0.53016126 0.32273468
0.95995033 0.67158258 0.19721669
0.97247356 0.80325866 0.09532045
0.98509794 0.91578609 0.02644945
0.99994022 0.99976134 0.00000718
1.00000000 1.00000000 0.06560689
1.00000000 1.00000000 0.17019588
0.94481117 0.52489436 0.32768115
0.95946413 0.66649485 0.20147346
0.97202396 0.79869610 0.09854158
0.98460716 0.91209459 0.02828900
0.99933034 0.99728686 0.00011919
1.00000000 1.00000000 0.06242758
1.00000000 1.00000000 0.16579667
1.00000000 1.00000000 0.29665416
1.00000000 1.00000000 0.44322583
0.97157449 0.79410809 0.10180695
0.98411930 0.90836489 0.03018550
0.99872619 0.99476147 0.00030089
1.00000000 1.00000000 0.05930139
1.00000000 1.00000000 0.16143465
1.00000000 1.00000000 0.29148951
1.00000000 1.00000000 0.43769166
1.00000000 1.00000000 0.58826685
1.00000000 1.00000000 0.73144084
0.00913503 0.98645985 1.00000000
0.05399160 0.91245246 1.00000000
0.12428530 0.79457903 1.00000000
0.21394286 0.64779538 1.00000000
0.31689098 0.48705727 1.00000000
0.42705640 0.32732052 1.00000000
0.53836578 0.18354096 1.00000000
0.64474595 0.07067434 1.00000000
0.74012351 0.00367650 1.00000000
0.12131897 0.79951930 1.00000000
0.21037175 0.65353423 1.00000000
0.31293854 0.49304456 1.00000000
0.42294604 0.33300599 1.00000000
0.53432095 0.18837437 1.00000000
0.64099002 0.07410551 1.00000000
0.73687994 0.00515520 1.00000000
0.80194002 0.02861569 0.92097944
0.85092276 0.09993307 0.80402589
0.30899614 0.49903244 1.00000000
0.41883752 0.33871228 1.00000000
0.53026974 0.19324888 1.00000000
0.63721955 0.07759801 1.00000000
0.73361367 0.00671547 1.00000000
0.79989314 0.02672320 0.92481554
0.84933567 0.09668556 0.80870646
0.88729858 0.19895108 0.67417079
0.91589838 0.32411626 0.53061199
0.52621245 0.19816373 1.00000000
0.63343477 0.08115110 1.00000000
0.73032480 0.00835658 1.00000000
0.79782784 0.02488716 0.92861390
0.84773308 0.09348176 0.81336206
0.88608080 0.19472548 0.67933774
0.91498756 0.31921482 0.53594428
0.93656987 0.45754629 0.39258525
0.95294440 0.60031646 0.25866410
0.72701377 0.01007778 1.00000000
0.79574406 0.02310803 0.93237418
0.84611481 0.09032216 0.81799233
0.88485026 0.19053136 0.68449193
0.91406685 0.31433213 0.54127657
0.93588114 0.45232096 0.39774969
0.95240968 0.59509444 0.26331472
0.96576911 0.73324895 0.14737521
0.97807592 0.85738117 0.05933464
0.84448087 0.08720722 0.82259667
0.88360679 0.18636915 0.68963307
0.91313607 0.30946860 0.54660845
0.93518519 0.44710210 0.40292642
0.95187074 0.58986616 0.26799038
0.96530926 0.72835726 0.15120383
0.97761726 0.85317189 0.06197025
0.99091142 0.95490664 0.00969314
1.00000000 1.00000000 0.02186026
0.91219521 0.30462477 0.55193949
0.93448204 0.44189018 0.40811500
0.95132738 0.58463210 0.27269059
0.96484786 0.72344697 0.15506971
0.97715998 0.84893143 0.06465588
0.99038035 0.95168185 0.01085256
1.00000000 1.00000000 0.01959023
1.00000000 1.00000000 0.10154306
1.00000000 1.00000000 0.21783622
0.95077950 0.57939267 0.27741489
0.96438479 0.71851867 0.15897243
0.97670388 0.84466016 0.06739105
0.98985332 0.94841355 0.01207425
1.00000000 1.00000000 0.01738261
1.00000000 1.00000000 0.09784754
1.00000000 1.00000000 0.21308595
1.00000000 1.00000000 0.35132360
1.00000000 1.00000000 0.50078619
0.97624892 0.84035856 0.07017531
0.98933029 0.94510227 0.01335775
1.00000000 1.00000000 0.01523800
1.00000000 1.00000000 0.09419908
1.00000000 1.00000000 0.20836683
1.00000000 1.00000000 0.34596696
1.00000000 1.00000000 0.49522522
1.00000000 1.00000000 0.64436734
1.00000000 1.00000000 0.78161907
0.02285066 0.96436888 1.00000000
0.07812202 0.87187260 1.00000000
0.15651494 0.74121249 1.00000000
0.25195616 0.58734435 1.00000000
0.35837239 0.42522398 1.00000000
0.46969032 0.26980716 1.00000000
0.57983667 0.13604975 1.00000000
0.68273818 0.03890750 1.00000000
0.76734835 0.00554830 0.97699171
0.15329167 0.74652213 1.00000000
0.24821331 0.59324282 1.00000000
0.35433337 0.43116108 1.00000000
0.46557859 0.27523267 1.00000000
0.57587564 0.14041342 1.00000000
0.67915130 0.04165915 1.00000000
0.76499802 0.00460359 0.98017704
0.82209527 0.05143905 0.87911958
0.86648118 0.13604994 0.75416321
0.35030130 0.43710649 1.00000000
0.46146557 0.28068674 1.00000000
0.57190514 0.14482591 1.00000000
0.67554671 0.04447984 1.00000000
0.76262760 0.00372273 0.98331738
0.82023287 0.04898912 0.88331842
0.86504894 0.13237689 0.75907469
0.89919227 0.24448255 0.61998963
0.92477953 0.37590259 0.47546670
0.56792539 0.14928646 1.00000000
0.67192465 0.04736885 1.00000000
0.76023704 0.00290620 0.98641211
0.81835318 0.04659079 0.88748449
0.86360222 0.12874271 0.76396608
0.89810073 0.23995847 0.62526041
0.92396528 0.37083459 0.48077092
0.94331235 0.51196754 0.33990112
0.95825857 0.65395391 0.21205451
0.75782621 0.00215445 0.98946083
0.81645608 0.04424452 0.89161724
0.86214101 0.12514786 0.76883692
0.89699751 0.23546100 0.63052332
0.92314214 0.36578041 0.48608002
0.94269150 0.50670266 0.34491044
0.95776212 0.64882421 0.21641812
0.97047055 0.78274161 0.11000650
0.98293340 0.89905137 0.03507908
0.86066508 0.12159283 0.77368671
0.89588249 0.23099060 0.63577795
0.92231011 0.36074063 0.49139357
0.94206458 0.50143939 0.34993693
0.95726252 0.64368343 0.22081161
0.97002035 0.77806926 0.11342105
0.98245472 0.89519340 0.03716875
0.99668211 0.98565233 0.00145819
1.00000000 1.00000000 0.04891894
0.92146903 0.35571563 0.49671108
0.94143152 0.49617824 0.35498014
0.95675957 0.63853204 0.22523452
0.96956968 0.77337360 0.11687775
0.98197842 0.89129937 0.03931328
0.99610239 0.98290592 0.00194461
1.00000000 1.00000000 0.04603660
1.00000000 1.00000000 0.14247119
1.00000000 1.00000000 0.26875693
0.95625323 0.63337046 0.22968639
0.96911848 0.76865500 0.12037612
0.98150450 0.88736969 0.04151222
0.99552786 0.98011112 0.00249816
1.00000000 1.00000000 0.04321059
1.00000000 1.00000000 0.13832243
1.00000000 1.00000000 0.26371858
1.00000000 1.00000000 0.40762478
1.00000000 1.00000000 0.55826676
0.98103279 0.88340485 0.04376509
0.99495840 0.97726846 0.00311837
1.00000000 1.00000000 0.04044151
1.00000000 1.00000000 0.13421467
1.00000000 1.00000000 0.25870529
1.00000000 1.00000000 0.40213913
1.00000000 1.00000000 0.55274189
1.00000000 1.00000000 0.69873935
1.00000000 1.00000000 0.82835722
0.04081026 0.93455607 1.00000000
0.10561356 0.82574499 1.00000000
0.19122286 0.68447226 1.00000000
0.29156488 0.52569371 1.00000000
0.40056634 0.36436516 1.00000000
0.51215392 0.21544237 1.00000000
0.62025440 0.09388120 1.00000000
0.71879447 0.01463740 1.00000000
0.79055011 0.01898534 0.94143927
0.18777514 0.69007134 1.00000000
0.28768274 0.53167182 1.00000000
0.39647323 0.37017208 1.00000000
0.50807333 0.22052793 1.00000000
0.61640966 0.09769515 1.00000000
0.71540904 0.01662954 1.00000000
0.78840154 0.01740643 0.94506419
0.84040272 0.07975373 0.83378559
0.88049948 0.17629117 0.70219338
0.39238393 0.37599507 1.00000000
0.50398827 0.22564977 1.00000000
0.61255229 0.10156563 1.00000000
0.71200281 0.01869845 1.00000000
0.78623402 0.01588653 0.94864887
0.83871353 0.07679665 0.83829695
0.87921071 0.17224288 0.70728546
0.90984219 0.29282171 0.56501794
0.93272460 0.42912966 0.42089784
0.60868257 0.10549190 1.00000000
0.70857596 0.02084339 1.00000000
0.78404742 0.01442610 0.95219290
0.83700806 0.07388633 0.84278035
0.87790859 0.16822860 0.71236229
0.90886557 0.28804943 0.57034230
0.93199551 0.42394534 0.42612371
0.94941503 0.56651282 0.28911012
0.96324068 0.70634842 0.16870500
0.78184164 0.01302561 0.95569575
0.83528632 0.07102321 0.84723532
0.87659305 0.16424881 0.71742344
0.90787834 0.28329891 0.57566363
0.93125874 0.41877005 0.43135935
0.94885081 0.56125867 0.29391408
0.96277118 0.70136142 0.17273133
0.97513628 0.82967466 0.07721455
0.98806280 0.93679500 0.01676727
0.87526393 0.16030397 0.72246838
0.90688038 0.27857062 0.58098155
0.93051410 0.41360423 0.43660426
0.94828165 0.55600131 0.29874003
0.96229953 0.69635844 0.17679238
0.97468442 0.82527202 0.08016478
0.98755276 0.93333864 0.01826070
1.00000000 1.00000000 0.00832226
1.00000000 1.00000000 0.08196563
0.92976153 0.40844840 0.44185796
0.94770736 0.55074120 0.30358753
0.96182573 0.69133997 0.18088771
0.97423315 0.82084119 0.08316199
0.98704624 0.92984134 0.01981385
1.00000000 1.00000000 0.00646541
1.00000000 1.00000000 0.07853395
1.00000000 1.00000000 0.18773872
1.00000000 1.00000000 0.32230544
0.96134961 0.68630648 0.18501684
0.97378248 0.81638259 0.08620573
0.98654312 0.92630357 0.02142625
1.00000000 1.00000000 0.00467475
1.00000000 1.00000000 0.07515252
1.00000000 1.00000000 0.18319969
1.00000000 1.00000000 0.31704196
1.00000000 1.00000000 0.46490511
1.00000000 1.00000000 0.61501485
0.98604333 0.92272580 0.02309744
1.00000000 1.00000000 0.00295088
1.00000000 1.00000000 0.07182195
1.00000000 1.00000000 0.17869557
1.00000000 1.00000000 0.31179750
1.00000000 1.00000000 0.45935342
1.00000000 1.00000000 0.60958910
1.00000000 1.00000000 0.75073034
1.00000000 1.00000000 0.87100273
0.06267724 0.89785033 1.00000000
0.13612962 0.77489847 1.00000000
0.22807243 0.62518722 1.00000000
0.33243239 0.46367240 1.00000000
0.44313622 0.30530974 1.00000000
0.55411065 0.16505508 1.00000000
0.65928239 0.05786422 1.00000000
0.75182199 0.00058690 0.99674612
0.81172502 0.03870919 0.90161723
0.22443272 0.63099575 1.00000000
0.32844347 0.46965012 1.00000000
0.43902153 0.31090653 1.00000000
0.55009359 0.16972071 1.00000000
0.65558642 0.06104847 1.00000000
0.74934030 0.00006259 0.99963230
0.80976695 0.03654638 0.90563136
0.85697961 0.11303854 0.78549868
0.89309490 0.22013557 0.64863759
0.43490750 0.31652707 1.00000000
0.54606903 0.17443034 1.00000000
0.65187466 0.06429696 1.00000000
0.74625123 0.00108276 1.00000000
0.80779099 0.03443772 0.90961021
0.85545230 0.10962461 0.79027224
0.89193833 0.21576232 0.65385997
0.91936570 0.34344736 0.50977695
0.93985087 0.48327628 0.36742666
0.64814746 0.06760896 1.00000000
0.74305207 0.00240365 1.00000000
0.80579704 0.03238368 0.91355318
0.85390985 0.10625257 0.79502267
0.89076954 0.21141824 0.65907198
0.91849262 0.33847719 0.51510459
0.93919569 0.47802594 0.37252390
0.95499527 0.62066096 0.24073347
0.96800804 0.75697887 0.12913679
0.80378497 0.03038473 0.91745985
0.85235214 0.10292289 0.79974955
0.88958830 0.20710379 0.66427314
0.91761005 0.33352390 0.52043402
0.93853390 0.47277978 0.37763575
0.95447636 0.61546791 0.24528174
0.96755409 0.75218481 0.13277553
0.97988367 0.87352693 0.04952058
0.99358153 0.97009093 0.00492039
0.88839465 0.20281942 0.66946298
0.91671789 0.32858798 0.52576494
0.93786532 0.46753824 0.38276172
0.95395356 0.61026669 0.24985687
0.96709919 0.74736989 0.13645387
0.97941875 0.86944431 0.05195617
0.99302882 0.96708643 0.00576729
1.00000000 1.00000000 0.03132179
1.00000000 1.00000000 0.12034776
0.93718994 0.46230185 0.38790137
0.95342684 0.60505790 0.25445840
0.96664321 0.74253464 0.14017132
0.97895563 0.86532861 0.05444361
0.99248070 0.96403617 0.00667876
1.00000000 1.00000000 0.02881340
1.00000000 1.00000000 0.11642970
1.00000000 1.00000000 0.23669304
1.00000000 1.00000000 0.37782913
0.96618593 0.73767954 0.14392743
0.97849417 0.86118025 0.05698243
0.99193710 0.96094060 0.00765434
1.00000000 1.00000000 0.02636514
1.00000000 1.00000000 0.11255582
1.00000000 1.00000000 0.23182671
1.00000000 1.00000000 0.37240353
1.00000000 1.00000000 0.52251202
1.00000000 1.00000000 0.67037791
0.99139786 0.95780015 0.00869356
1.00000000 1.00000000 0.02397759
1.00000000 1.00000000 0.10872672
1.00000000 1.00000000 0.22698922
1.00000000 1.00000000 0.36699083
1.00000000 1.00000000 0.51695728
1.00000000 1.00000000 0.66511428
1.00000000 1.00000000 0.79968762
1.00000000 1.00000000 0.90890294
0.08811499 0.85508054 1.00000000
0.16933358 0.72016203 1.00000000
0.26672706 0.56418633 1.00000000
0.37422210 0.40210930 1.00000000
0.48574546 0.24888663 1.00000000
0.59522384 0.11947417 1.00000000
0.69658393 0.02882773 1.00000000
0.77634543 0.00984510 0.96411622
0.83099037 0.06419867 0.85804671
0.26292783 0.57012427 1.00000000
0.37015888 0.40800670 1.00000000
0.48164162 0.25419331 1.00000000
0.59130287 0.12363990 1.00000000
0.69306922 0.03130229 1.00000000
0.77407253 0.00865527 0.96747327
0.82921141 0.06150224 0.86239988
0.87194335 0.15077230 0.73477995
0.90438485 0.26706198 0.59401703
0.47753534 0.25953144 1.00000000
0.58737117 0.12785734 1.00000000
0.68953562 0.03384881 1.00000000
0.77177995 0.00752746 0.97078711
0.82741570 0.05885512 0.86672252
0.87056655 0.14695181 0.73976547
0.90334916 0.26241407 0.59931946
0.92787999 0.39583835 0.45478788
0.94627565 0.53782123 0.31557432
0.68598342 0.03646656 1.00000000
0.76946765 0.00646214 0.97405720
0.82560307 0.05625776 0.87101418
0.86917573 0.14316836 0.74473274
0.90230227 0.25779045 0.60461628
0.92709917 0.39072055 0.46006846
0.94568306 0.53255516 0.32049263
0.96017045 0.67389083 0.19529234
0.97267795 0.80532402 0.09387105
0.82377344 0.05371063 0.87527436
0.86777079 0.13942240 0.74968123
0.90124410 0.25319162 0.60990721
0.92630994 0.38561478 0.46535575
0.94508493 0.52728844 0.32543042
0.95968550 0.66880906 0.19953464
0.97222829 0.80077320 0.09707192
0.98482990 0.91377729 0.02744575
0.99960679 0.99841797 0.00005961
0.90017456 0.24861805 0.61519158
0.92551219 0.38052157 0.47064933
0.94448113 0.52202147 0.33038718
0.95919776 0.66371435 0.20380865
0.97177881 0.79619664 0.10031723
0.98434073 0.91006494 0.02931642
0.99900007 0.99591565 0.00020969
1.00000000 1.00000000 0.06071576
1.00000000 1.00000000 0.16341273
0.94387156 0.51675481 0.33536246
0.95870715 0.65860718 0.20811391
0.97132927 0.79159498 0.10360653
0.98385435 0.90631461 0.03124380
0.99839908 0.99336272 0.00042920
1.00000000 1.00000000 0.05761882
1.00000000 1.00000000 0.15907127
1.00000000 1.00000000 0.28868157
1.00000000 1.00000000 0.43467548
0.97087955 0.78696853 0.10693932
0.98337078 0.90252686 0.03322740
0.99780369 0.99075961 0.00071767
1.00000000 1.00000000 0.05457591
1.00000000 1.00000000 0.15476792
1.00000000 1.00000000 0.28355092
1.00000000 1.00000000 0.42915070
1.00000000 1.00000000 0.57979292
1.00000000 1.00000000 0.72370344
0.99721372 0.98810673 0.00107463
1.00000000 1.00000000 0.05158764
1.00000000 1.00000000 0.15050325
1.00000000 1.00000000 0.27844304
1.00000000 1.00000000 0.42363274
1.00000000 1.00000000 0.57429808
1.00000000 1.00000000 0.71866482
1.00000000 1.00000000 0.84495872
1.00000000 1.00000000 0.94140542
0.11678690 0.80707562 1.00000000
0.20488885 0.66236454 1.00000000
0.30685011 0.50229853 1.00000000
0.41659740 0.34183335 1.00000000
0.52805740 0.19592476 1.00000000
0.63515687 0.07952859 1.00000000
0.73182249 0.00760065 1.00000000
0.79876888 0.02571470 0.92689204
0.84846348 0.09493259 0.81124902
0.30292389 0.50828594 1.00000000
0.41249233 0.34757042 1.00000000
0.52399695 0.20086130 1.00000000
0.63136446 0.08311442 1.00000000
0.72852153 0.00928554 1.00000000
0.79669350 0.02390964 0.93066972
0.84685236 0.09175283 0.81589085
0.88541120 0.19243385 0.68215072
0.91448659 0.31654918 0.53885281
0.51993090 0.20583706 1.00000000
0.62755817 0.08675969 1.00000000
0.72519851 0.01105011 1.00000000
0.79459959 0.02216176 0.93440896
0.84522551 0.08861753 0.82050699
0.88417363 0.18825707 0.68729788
0.91356039 0.31167689 0.54418498
0.93550241 0.44947347 0.40057185
0.95211625 0.59224337 0.26586202
0.72185379 0.01289361 1.00000000
0.79248697 0.02047151 0.93810940
0.84358293 0.08552714 0.82509702
0.88292313 0.18411249 0.69243157
0.91262412 0.30682406 0.54951644
0.93480253 0.44425833 0.40575513
0.95157492 0.58701187 0.27055112
0.96505779 0.72568119 0.15330790
0.97736770 0.85086274 0.06342896
0.84192437 0.08248214 0.82966048
0.88165957 0.18000056 0.69755143
0.91167772 0.30199113 0.55484676
0.93409538 0.43905041 0.41094995
0.95102912 0.58177489 0.27526453
0.96459550 0.72076100 0.15719393
0.97691107 0.84660542 0.06614168
0.99009240 0.94990450 0.01151125
1.00000000 1.00000000 0.01837830
0.91072100 0.29717863 0.56017548
0.93338078 0.43385014 0.41615590
0.95047873 0.57653278 0.28000179
0.96413153 0.71582311 0.16111654
0.97645557 0.84231758 0.06890368
0.98956758 0.94661272 0.01276671
1.00000000 1.00000000 0.01620497
1.00000000 1.00000000 0.09585160
1.00000000 1.00000000 0.21050799
0.94992375 0.57128614 0.28476241
0.96366572 0.71086782 0.16507524
0.97600120 0.83799964 0.07171452
0.98904669 0.94327813 0.01408373
1.00000000 1.00000000 0.01409497
1.00000000 1.00000000 0.09222905
1.00000000 1.00000000 0.20580608
1.00000000 1.00000000 0.34305176
1.00000000 1.00000000 0.49219185
0.97554779 0.83365220 0.07457372
0.98852962 0.93990123 0.01546184
1.00000000 1.00000000 0.01204887
1.00000000 1.00000000 0.08865449
1.00000000 1.00000000 0.20113620
1.00000000 1.00000000 0.33771974
1.00000000 1.00000000 0.48663086
1.00000000 1.00000000 0.63609529
1.00000000 1.00000000 0.77433872
1.00000000 1.00000000 0.01006727
1.00000000 1.00000000 0.08512847
1.00000000 1.00000000 0.19649895
1.00000000 1.00000000 0.33240443
1.00000000 1.00000000 0.48107064
1.00000000 1.00000000 0.63072330
1.00000000 1.00000000 0.76958817
1.00000000 1.00000000 0.88589096
1.00000000 1.00000000 0.96785748
0.14835635 0.75466448 1.00000000
0.24245881 0.60233498 1.00000000
0.34810501 0.44035271 1.00000000
0.45922166 0.28367344 1.00000000
0.56973547 0.14725302 1.00000000
0.67357320 0.04604724 1.00000000
0.76132619 0.00326934 0.98501110
0.81920975 0.04767452 0.88559490
0.86426163 0.13038976 0.76174521
0.34408423 0.44630954 1.00000000
0.45510724 0.28917021 1.00000000
0.56575084 0.15173949 1.00000000
0.66994178 0.04897320 1.00000000
0.75892454 0.00248809 0.98808080
0.81732059 0.04530453 0.88974285
0.86280698 0.12677698 0.76662546
0.89750040 0.23750198 0.62813210
0.92351741 0.36807603 0.48366621
0.56175750 0.15627286 1.00000000
0.66629338 0.05196631 1.00000000
0.75650257 0.00177189 0.99110425
0.81541389 0.04298685 0.89385724
0.86133778 0.12320379 0.77148485
0.89639080 0.23301922 0.63339055
0.92268944 0.36302963 0.48897779
0.94235033 0.50383157 0.34765008
0.95749003 0.64602149 0.21881089
0.75406021 0.00112120 0.99408096
0.81348968 0.04072197 0.89793766
0.85985386 0.11967067 0.77632302
0.89526927 0.22856379 0.63864046
0.92185247 0.35799786 0.49429354
0.94172007 0.49856937 0.35268572
0.95698857 0.64087486 0.22322050
0.96977460 0.77551085 0.11530133
0.98219460 0.89307380 0.03833172
0.85835510 0.11617807 0.78113937
0.89413577 0.22413617 0.64388138
0.92100644 0.35298115 0.49961302
0.94108361 0.49330956 0.35773781
0.95648384 0.63571787 0.22765926
0.96932364 0.77080262 0.11878081
0.98171967 0.88916028 0.04050599
0.99578840 0.98138744 0.00223825
1.00000000 1.00000000 0.04448812
0.92015123 0.34797999 0.50493574
0.94044083 0.48805255 0.36280587
0.95597559 0.63055092 0.23212671
0.96887213 0.76607174 0.12230173
0.98124695 0.88521141 0.04273440
0.99521661 0.97856647 0.00282822
1.00000000 1.00000000 0.04169309
1.00000000 1.00000000 0.13607672
1.00000000 1.00000000 0.26098090
0.95546377 0.62537456 0.23662239
0.96841985 0.76131868 0.12586358
0.98077637 0.88122761 0.04501649
0.99464989 0.97569788 0.00348460
1.00000000 1.00000000 0.03895531
1.00000000 1.00000000 0.13199155
1.00000000 1.00000000 0.25598153
1.00000000 1.00000000 0.39915100
1.00000000 1.00000000 0.54972571
0.98030788 0.87720937 0.04735180
0.99408805 0.97278214 0.00420691
1.00000000 1.00000000 0.03627536
1.00000000 1.00000000 0.12794828
1.00000000 1.00000000 0.25100812
1.00000000 1.00000000 0.39368060
1.00000000 1.00000000 0.54419148
1.00000000 1.00000000 0.69076645
1.00000000 1.00000000 0.82163125
1.00000000 1.00000000 0.03365382
1.00000000 1.00000000 0.12394749
1.00000000 1.00000000 0.24606124
1.00000000 1.00000000 0.38822082
1.00000000 1.00000000 0.53865194
1.00000000 1.00000000 0.68558031
1.00000000 1.00000000 0.81723171
1.00000000 1.00000000 0.92183185
1.00000000 1.00000000 0.98760653
0.18248674 0.69867611 1.00000000
0.28170687 0.54090220 1.00000000
0.39015514 0.37917775 1.00000000
0.50175828 0.22845854 1.00000000
0.61044306 0.10370036 1.00000000
0.71013618 0.01985904 1.00000000
0.78504372 0.01508253 0.95058703
0.83778530 0.07520337 0.84074593
0.87850213 0.17004903 0.71005660
0.38607231 0.38502407 1.00000000
0.49766701 0.23363499 1.00000000
0.60656673 0.10765675 1.00000000
0.70669824 0.02204514 1.00000000
0.78284669 0.01365473 0.95410866
0.83607095 0.07231874 0.84521389
0.87719268 0.16605350 0.71512491
0.90832841 0.28545550 0.57324523
0.93159461 0.42112130 0.42897832
0.60267860 0.11166777 1.00000000
0.70324028 0.02430611 1.00000000
0.78063035 0.01228713 0.95758885
0.83434027 0.06948157 0.84965312
0.87586975 0.16209272 0.72017729
0.90733534 0.28071705 0.57856476
0.93085355 0.41595110 0.43421909
0.94854099 0.55839139 0.29654372
0.96251416 0.69863445 0.17494217
0.77839470 0.01098019 0.96102720
0.83259308 0.06669234 0.85406321
0.87453318 0.15816714 0.72521323
0.90633148 0.27600107 0.58388060
0.93010461 0.41079068 0.43946886
0.94796902 0.55313247 0.30138150
0.96204138 0.69362295 0.17902198
0.97443819 0.82285869 0.08179382
0.98727608 0.93143606 0.01910050
0.87318289 0.15427724 0.73023224
0.90531683 0.27130806 0.58919227
0.92934763 0.40564048 0.44472718
0.94739199 0.54787105 0.30624053
0.96156633 0.68859625 0.18313581
0.97398728 0.81841260 0.08481647
0.98677140 0.92791665 0.02068602
1.00000000 1.00000000 0.00548044
1.00000000 1.00000000 0.07668327
0.92858261 0.40050098 0.44999361
0.94680965 0.54260761 0.31112042
0.96108890 0.68355477 0.18728317
0.97353685 0.81393909 0.08788539
0.98627013 0.92435700 0.02233055
1.00000000 1.00000000 0.00372614
1.00000000 1.00000000 0.07332951
1.00000000 1.00000000 0.18073854
1.00000000 1.00000000 0.31417894
0.96060896 0.67849898 0.19146362
0.97308683 0.80943853 0.09100012
0.98577207 0.92075759 0.02403361
1.00000000 1.00000000 0.00203894
1.00000000 1.00000000 0.07002691
1.00000000 1.00000000 0.17625371
1.00000000 1.00000000 0.30894506
1.00000000 1.00000000 0.45632672
1.00000000 1.00000000 0.60662442
0.98527718 0.91711891 0.02579474
1.00000000 1.00000000 0.00041944
1.00000000 1.00000000 0.06677607
1.00000000 1.00000000 0.17180471
1.00000000 1.00000000 0.30373108
1.00000000 1.00000000 0.45078090
1.00000000 1.00000000 0.60117990
1.00000000 1.00000000 0.74315387
1.00000000 1.00000000 0.86492848
1.00000000 1.00000000 0.06357758
1.00000000 1.00000000 0.16739210
1.00000000 1.00000000 0.29853755
1.00000000 1.00000000 0.44523960
1.00000000 1.00000000 0.59572405
1.00000000 1.00000000 0.73821652
1.00000000 1.00000000 0.86094290
1.00000000 1.00000000 0.95212883
1.00000000 1.00000000 1.00000000
