YBMCW_Sphere/YBMCW Sphere (Gradient Map Only).cube
# VEGAS Pro LUT
TITLE "YBMCW Sphere (Gradient Map Only)"
LUT_3D_SIZE 33
0.00000000 1.00000000 1.00000000
0.00545578 0.99212885 1.00000000
0.01293079 0.98045856 1.00000000
0.02233013 0.96522295 1.00000000
0.03355892 0.94665563 1.00000000
0.04652224 0.92499024 1.00000000
0.06112522 0.90046060 1.00000000
0.07727294 0.87330025 1.00000000
0.09487054 0.84374297 1.00000000
0.11382309 0.81202239 1.00000000
0.13403571 0.77837223 1.00000000
0.15541349 0.74302620 1.00000000
0.17786157 0.70621789 1.00000000
0.20128502 0.66818106 1.00000000
0.22558898 0.62914932 1.00000000
0.25067851 0.58935648 1.00000000
0.27645874 0.54903615 1.00000000
0.30283478 0.50842196 1.00000000
0.32971174 0.46774772 1.00000000
0.35699469 0.42724699 1.00000000
0.38458878 0.38715354 1.00000000
0.41239905 0.34770101 1.00000000
0.44033068 0.30912313 1.00000000
0.46828875 0.27165350 1.00000000
0.49617836 0.23552591 1.00000000
0.52390462 0.20097396 1.00000000
0.55137259 0.16823138 1.00000000
0.57848740 0.13753183 1.00000000
0.60515422 0.10910901 1.00000000
0.63127810 0.08319661 1.00000000
0.65676409 0.06002829 1.00000000
0.68151742 0.03983776 1.00000000
0.70544308 0.02285868 1.00000000
0.01262111 0.98095250 1.00000000
0.02195134 0.96584392 1.00000000
0.03311450 0.94739503 1.00000000
0.04601570 0.92583948 1.00000000
0.06056003 0.90141106 1.00000000
0.07665262 0.87434334 1.00000000
0.09419854 0.84487009 1.00000000
0.11310293 0.81322497 1.00000000
0.13327087 0.77964169 1.00000000
0.15460747 0.74435389 1.00000000
0.17701785 0.70759523 1.00000000
0.20040712 0.66959941 1.00000000
0.22468035 0.63060021 1.00000000
0.24974266 0.59083122 1.00000000
0.27549917 0.55052614 1.00000000
0.30185497 0.50991863 1.00000000
0.32871518 0.46924242 1.00000000
0.35598487 0.42873120 1.00000000
0.38356918 0.38861862 1.00000000
0.41137320 0.34913838 1.00000000
0.43930206 0.31052417 1.00000000
0.46726084 0.27300966 1.00000000
0.49515462 0.23682852 1.00000000
0.52288854 0.20221448 1.00000000
0.55036771 0.16940118 1.00000000
0.57749724 0.13862234 1.00000000
0.60418218 0.11011162 1.00000000
0.63032770 0.08410272 1.00000000
0.65583891 0.06082931 1.00000000
0.68062085 0.04052508 1.00000000
0.70457864 0.02342372 1.00000000
0.72761744 0.00975891 1.00000000
0.74951017 0.00009622 0.99943703
0.03267244 0.94813019 1.00000000
0.04551138 0.92668486 1.00000000
0.05999694 0.90235794 1.00000000
0.07603425 0.87538320 1.00000000
0.09352839 0.84599435 1.00000000
0.11238448 0.81442499 1.00000000
0.13250762 0.78090882 1.00000000
0.15380292 0.74567956 1.00000000
0.17617548 0.70897090 1.00000000
0.19953039 0.67101651 1.00000000
0.22377279 0.63205004 1.00000000
0.24880776 0.59230518 1.00000000
0.27454039 0.55201572 1.00000000
0.30087584 0.51141518 1.00000000
0.32771915 0.47073740 1.00000000
0.35497549 0.43021595 1.00000000
0.38254991 0.39008456 1.00000000
0.41034752 0.35057691 1.00000000
0.43827346 0.31192669 1.00000000
0.46623281 0.27436760 1.00000000
0.49413067 0.23813327 1.00000000
0.52187216 0.20345743 1.00000000
0.54936242 0.17057376 1.00000000
0.57650650 0.13971592 1.00000000
0.60320950 0.11111762 1.00000000
0.62937653 0.08501253 1.00000000
0.65491271 0.06163435 1.00000000
0.67972314 0.04121675 1.00000000
0.70371294 0.02399341 1.00000000
0.72678721 0.01019803 1.00000000
0.74885106 0.00006429 1.00000000
0.76537329 0.00474962 0.97967333
0.78093374 0.01247006 0.95711672
0.05943596 0.90330124 1.00000000
0.07541785 0.87641978 1.00000000
0.09286008 0.84711558 1.00000000
0.11166774 0.81562233 1.00000000
0.13174595 0.78217363 1.00000000
0.15299980 0.74700326 1.00000000
0.17533441 0.71034491 1.00000000
0.19865488 0.67243218 1.00000000
0.22286630 0.63349879 1.00000000
0.24787380 0.59377849 1.00000000
0.27358246 0.55350488 1.00000000
0.29989740 0.51291168 1.00000000
0.32672372 0.47223255 1.00000000
0.35396653 0.43170121 1.00000000
0.38153091 0.39155135 1.00000000
0.40932202 0.35201663 1.00000000
0.43724492 0.31333071 1.00000000
0.46520472 0.27572733 1.00000000
0.49310654 0.23944013 1.00000000
0.52085549 0.20470281 1.00000000
0.54835659 0.17174906 1.00000000
0.57551509 0.14081255 1.00000000
0.60223597 0.11212698 1.00000000
0.62842447 0.08592603 1.00000000
0.65398550 0.06244339 1.00000000
0.67882437 0.04191273 1.00000000
0.70284605 0.02456774 1.00000000
0.72595567 0.01064211 1.00000000
0.74805838 0.00036952 1.00000000
0.76478332 0.00452086 0.98046440
0.78037727 0.01213555 0.95798171
0.79507709 0.02255396 0.93356252
0.80891585 0.03562915 0.90735388
0.09219362 0.84823388 1.00000000
0.11095273 0.81681699 1.00000000
0.13098589 0.78343612 1.00000000
0.15219817 0.74832493 1.00000000
0.17449470 0.71171719 1.00000000
0.19778056 0.67384648 1.00000000
0.22196090 0.63494653 1.00000000
0.24694078 0.59525102 1.00000000
0.27262533 0.55499363 1.00000000
0.29891965 0.51440799 1.00000000
0.32572883 0.47372794 1.00000000
0.35295799 0.43318701 1.00000000
0.38051224 0.39301896 1.00000000
0.40829667 0.35345745 1.00000000
0.43621641 0.31473619 1.00000000
0.46417654 0.27708882 1.00000000
0.49208218 0.24074908 1.00000000
0.51983839 0.20595060 1.00000000
0.54735035 0.17292708 1.00000000
0.57452309 0.14191224 1.00000000
0.60126179 0.11313972 1.00000000
0.62747151 0.08684321 1.00000000
0.65305734 0.06325643 1.00000000
0.67792445 0.04261303 1.00000000
0.70197785 0.02514670 1.00000000
0.72512275 0.01109113 1.00000000
0.74726415 0.00068001 1.00000000
0.76419216 0.00429610 0.98125273
0.77981967 0.01180484 0.95884401
0.79455179 0.02212270 0.93449348
0.80842161 0.03510276 0.90834808
0.82146233 0.05059808 0.88055468
0.83370686 0.06846174 0.85126019
0.13022740 0.78469628 1.00000000
0.15139799 0.74964464 1.00000000
0.17365631 0.71308774 1.00000000
0.19690746 0.67525935 1.00000000
0.22105657 0.63639313 1.00000000
0.24600872 0.59672272 1.00000000
0.27166903 0.55648190 1.00000000
0.29794261 0.51590425 1.00000000
0.32473451 0.47522348 1.00000000
0.35194993 0.43467331 1.00000000
0.37949389 0.39448741 1.00000000
0.40727153 0.35489944 1.00000000
0.43518797 0.31614313 1.00000000
0.46314830 0.27845213 1.00000000
0.49105760 0.24206011 1.00000000
0.51882100 0.20720080 1.00000000
0.54634362 0.17410783 1.00000000
0.57353055 0.14301495 1.00000000
0.60028690 0.11415580 1.00000000
0.62651777 0.08776407 1.00000000
0.65212822 0.06407345 1.00000000
0.67702347 0.04331762 1.00000000
0.70110846 0.02573027 1.00000000
0.72428846 0.01154508 1.00000000
0.74646848 0.00099574 1.00000000
0.76359975 0.00407533 0.98203820
0.77926075 0.01147792 0.95970374
0.79402524 0.02169504 0.93542206
0.80792624 0.03457977 0.90934002
0.82099688 0.04998516 0.88160467
0.83327013 0.06776429 0.85236281
0.84477913 0.08777023 0.82176143
0.85555691 0.10985605 0.78994751
0.17281927 0.71445662 1.00000000
0.19603558 0.67667085 1.00000000
0.22015333 0.63783866 1.00000000
0.24507762 0.59819376 1.00000000
0.27071357 0.55796975 1.00000000
0.29696625 0.51740032 1.00000000
0.32374078 0.47671923 1.00000000
0.35094228 0.43616012 1.00000000
0.37847584 0.39595667 1.00000000
0.40624657 0.35634255 1.00000000
0.43415958 0.31755149 1.00000000
0.46211997 0.27981716 1.00000000
0.49003285 0.24337322 1.00000000
0.51780331 0.20845337 1.00000000
0.54533648 0.17529130 1.00000000
0.57253742 0.14412069 1.00000000
0.59931129 0.11517522 1.00000000
0.62556314 0.08868857 1.00000000
0.65119815 0.06489445 1.00000000
0.67612135 0.04402651 1.00000000
0.70023787 0.02631845 1.00000000
0.72345281 0.01200396 1.00000000
0.74567133 0.00131672 1.00000000
0.76300609 0.00385858 0.98282081
0.77870071 0.01115482 0.96056080
0.79349756 0.02127100 0.93634814
0.80742979 0.03406018 0.91032976
0.82053035 0.04937544 0.88265264
0.83283234 0.06706985 0.85346359
0.84436888 0.08699647 0.82290965
0.85517299 0.10900839 0.79113770
0.86527777 0.13295865 0.75829464
0.87471628 0.15870035 0.72452748
0.21925119 0.63928312 1.00000000
0.24414748 0.59966391 1.00000000
0.26975891 0.55945706 1.00000000
0.29599059 0.51889628 1.00000000
0.32274762 0.47821513 1.00000000
0.34993508 0.43764737 1.00000000
0.37745813 0.39742669 1.00000000
0.40522182 0.35778677 1.00000000
0.43313128 0.31896129 1.00000000
0.46109161 0.28118393 1.00000000
0.48900789 0.24468839 1.00000000
0.51678526 0.20970833 1.00000000
0.54432887 0.17647746 1.00000000
0.57154369 0.14522944 1.00000000
0.59833497 0.11619797 1.00000000
0.62460774 0.08961672 1.00000000
0.65026706 0.06571940 1.00000000
0.67521816 0.04473967 1.00000000
0.69936603 0.02691122 1.00000000
0.72261584 0.01246774 1.00000000
0.74487269 0.00164291 1.00000000
0.76241112 0.00364583 0.98360062
0.77813941 0.01083553 0.96141523
0.79296875 0.02085057 0.93727183
0.80693215 0.03354402 0.91131729
0.82006270 0.04876895 0.88369852
0.83239353 0.06637844 0.85456252
0.84395760 0.08622554 0.82405621
0.85478806 0.10816333 0.79232645
0.86491799 0.13204490 0.75952017
0.87438047 0.15772329 0.72578442
0.88320845 0.18505159 0.69126600
0.89143515 0.21388286 0.65611196
0.26880512 0.56094396 1.00000000
0.29501566 0.52039200 1.00000000
0.32175505 0.47971117 1.00000000
0.34892836 0.43913510 1.00000000
0.37644073 0.39889753 1.00000000
0.40419725 0.35923210 1.00000000
0.43210301 0.32037252 1.00000000
0.46006316 0.28255245 1.00000000
0.48798275 0.24600562 1.00000000
0.51576692 0.21096566 1.00000000
0.54332078 0.17766629 1.00000000
0.57054943 0.14634119 1.00000000
0.59735793 0.11722403 1.00000000
0.62365144 0.09054851 1.00000000
0.64933503 0.06654830 1.00000000
0.67431384 0.04545709 1.00000000
0.69849300 0.02750857 1.00000000
0.72177750 0.01293642 1.00000000
0.74407256 0.00197433 1.00000000
0.76181489 0.00343712 0.98437750
0.77757692 0.01052007 0.96226698
0.79243875 0.02043377 0.93819302
0.80643344 0.03303129 0.91230249
0.81959403 0.04816569 0.88474238
0.83195364 0.06569005 0.85565960
0.84354538 0.08545744 0.82520103
0.85440224 0.10732092 0.79351372
0.86455739 0.13113357 0.76074451
0.87404376 0.15674847 0.72704029
0.88289452 0.18401867 0.69254810
0.89114273 0.21279725 0.65741479
0.89882147 0.24293728 0.62178731
0.90596378 0.27429184 0.58581263
0.32076305 0.48120737 1.00000000
0.34792209 0.44062331 1.00000000
0.37542367 0.40036914 1.00000000
0.40317288 0.36067852 1.00000000
0.43107483 0.32178515 1.00000000
0.45903465 0.28392270 1.00000000
0.48695743 0.24732488 1.00000000
0.51474828 0.21222535 1.00000000
0.54231226 0.17885780 1.00000000
0.56955457 0.14745593 1.00000000
0.59638023 0.11825340 1.00000000
0.62269437 0.09148391 1.00000000
0.64840209 0.06738114 1.00000000
0.67340851 0.04617877 1.00000000
0.69761872 0.02811049 1.00000000
0.72093785 0.01340999 1.00000000
0.74327093 0.00231094 1.00000000
0.76121747 0.00323243 0.98515159
0.77701318 0.01020844 0.96311611
0.79190755 0.02002060 0.93911177
0.80593354 0.03252199 0.91328549
0.81912428 0.04756566 0.88578421
0.83151275 0.06500470 0.85675478
0.84313214 0.08469217 0.82634431
0.85401547 0.10648114 0.79469955
0.86419582 0.13022469 0.76196748
0.87370622 0.15577589 0.72829515
0.88257980 0.18298779 0.69382930
0.89084959 0.21171349 0.65871698
0.89854866 0.24180605 0.62310511
0.90571016 0.27311853 0.58714056
0.91236705 0.30550399 0.55097032
0.91855246 0.33881554 0.51474124
0.37440693 0.40184149 1.00000000
0.40214872 0.36212602 1.00000000
0.43004674 0.32319918 1.00000000
0.45800611 0.28529468 1.00000000
0.48593193 0.24864617 1.00000000
0.51372927 0.21348739 1.00000000
0.54130334 0.18005198 1.00000000
0.56855911 0.14857365 1.00000000
0.59540182 0.11928607 1.00000000
0.62173641 0.09242292 1.00000000
0.64746815 0.06821790 1.00000000
0.67250204 0.04690469 1.00000000
0.69674325 0.02871698 1.00000000
0.72009683 0.01388843 1.00000000
0.74246788 0.00265275 1.00000000
0.76061869 0.00303178 0.98592281
0.77644825 0.00990065 0.96396255
0.79137516 0.01961107 0.94002807
0.80543256 0.03201612 0.91426617
0.81865340 0.04696887 0.88682389
0.83107084 0.06432239 0.85784817
0.84271795 0.08392975 0.82748586
0.85362774 0.10564401 0.79588389
0.86383337 0.12931825 0.76318926
0.87336785 0.15480556 0.72954887
0.88226426 0.18195897 0.69510961
0.89055568 0.21063158 0.66001850
0.89827520 0.24067645 0.62442237
0.90545583 0.27194664 0.58846819
0.91213071 0.30429524 0.55230290
0.91833287 0.33757532 0.51607347
0.92409539 0.37163994 0.47992671
0.92945135 0.40634218 0.44400966
0.42901874 0.32461458 1.00000000
0.45697752 0.28666833 1.00000000
0.48490626 0.24996948 1.00000000
0.51271003 0.21475175 1.00000000
0.54029399 0.18124880 1.00000000
0.56756318 0.14969432 1.00000000
0.59442270 0.12032201 1.00000000
0.62077773 0.09336554 1.00000000
0.64653331 0.06905858 1.00000000
0.67159456 0.04763485 1.00000000
0.69586658 0.02932800 1.00000000
0.71925449 0.01437174 1.00000000
0.74166340 0.00299974 1.00000000
0.76001871 0.00283517 0.98669118
0.77588212 0.00959670 0.96480638
0.79084164 0.01920519 0.94094187
0.80493039 0.03151371 0.91524464
0.81818146 0.04637534 0.88786155
0.83062786 0.06364314 0.85893959
0.84230268 0.08317018 0.82862568
0.85323906 0.10480954 0.79706675
0.86347002 0.12841427 0.76440972
0.87302858 0.15383747 0.73080152
0.88194788 0.18093219 0.69638908
0.89026099 0.20955151 0.66131932
0.89800090 0.23954850 0.62573916
0.90520084 0.27077621 0.58979559
0.91189373 0.30308777 0.55363542
0.91811270 0.33633617 0.51740575
0.92389077 0.37037453 0.48125336
0.92926115 0.40505591 0.44532523
0.93425673 0.44023338 0.40976831
0.93891072 0.47576001 0.37472951
0.48388040 0.25129479 1.00000000
0.51169044 0.21601844 1.00000000
0.53928417 0.18244825 1.00000000
0.56656659 0.15081796 1.00000000
0.59344292 0.12136123 1.00000000
0.61981815 0.09431173 1.00000000
0.64559746 0.06990317 1.00000000
0.67068595 0.04836922 1.00000000
0.69498873 0.02994356 1.00000000
0.71841085 0.01485989 1.00000000
0.74085742 0.00335189 1.00000000
0.75941741 0.00264262 0.98745662
0.77531469 0.00929661 0.96564746
0.79030693 0.01880296 0.94185317
0.80442715 0.03101476 0.91622078
0.81770843 0.04578505 0.88889712
0.83018386 0.06296694 0.86002922
0.84188646 0.08241346 0.82976389
0.85284942 0.10397772 0.79824817
0.86310571 0.12751275 0.76562893
0.87268847 0.15287165 0.73205310
0.88163066 0.17990749 0.69766760
0.88996547 0.20847332 0.66261947
0.89772594 0.23842223 0.62705547
0.90494514 0.26960728 0.59112263
0.91165608 0.30188155 0.55496788
0.91789192 0.33509809 0.51873815
0.92368567 0.36910999 0.48258030
0.92907041 0.40377030 0.44664133
0.93407923 0.43893212 0.41106814
0.93874520 0.47444853 0.37600771
0.94310135 0.51017255 0.34160689
0.94718081 0.54595727 0.30801266
0.53827393 0.18365034 1.00000000
0.56556952 0.15194453 1.00000000
0.59246242 0.12240370 1.00000000
0.61885780 0.09526150 1.00000000
0.64466071 0.07075164 1.00000000
0.66977632 0.04910779 1.00000000
0.69410962 0.03056365 1.00000000
0.71756583 0.01535289 1.00000000
0.74005002 0.00370920 1.00000000
0.75881493 0.00245412 0.98821920
0.77474612 0.00900037 0.96648586
0.78977102 0.01840439 0.94276202
0.80392271 0.03051926 0.91719466
0.81723428 0.04519804 0.88993061
0.82973880 0.06229380 0.86111689
0.84146929 0.08165962 0.83090037
0.85245883 0.10314856 0.79942805
0.86274052 0.12661371 0.76684678
0.87234747 0.15190811 0.73330355
0.88131267 0.17888485 0.69894528
0.88966924 0.20739700 0.66391885
0.89745027 0.23729762 0.62837130
0.90468872 0.26843980 0.59244943
0.91141778 0.30067658 0.55630022
0.91767049 0.33386108 0.52007061
0.92347991 0.36784631 0.48390755
0.92887914 0.40248540 0.44795793
0.93390119 0.43763137 0.41236869
0.93857920 0.47313732 0.37728676
0.94294620 0.50885630 0.34285906
0.94703525 0.54464144 0.30923256
0.95087945 0.58034569 0.27655417
0.95451188 0.61582220 0.24497078
0.59148133 0.12344941 1.00000000
0.61789668 0.09621484 1.00000000
0.64372307 0.07160399 1.00000000
0.66886562 0.04985056 1.00000000
0.69322938 0.03118824 1.00000000
0.71671957 0.01585071 1.00000000
0.73924118 0.00407165 1.00000000
0.75821108 0.00226969 0.98897892
0.77417624 0.00870801 0.96732157
0.78923392 0.01800950 0.94366837
0.80341715 0.03002723 0.91816622
0.81675905 0.04461429 0.89096200
0.82929265 0.06162374 0.86220264
0.84105104 0.08090865 0.83203518
0.85206729 0.10232209 0.80060643
0.86237442 0.12571713 0.76806337
0.87200558 0.15094684 0.73455292
0.88099384 0.17786430 0.70022202
0.88937223 0.20632255 0.66521764
0.89717382 0.23617470 0.62968659
0.90443164 0.26727381 0.59377587
0.91117889 0.29947293 0.55763245
0.91744852 0.33262515 0.52140319
0.92327368 0.36658356 0.48523507
0.92868739 0.40120116 0.44927499
0.93372273 0.43633109 0.41366988
0.93841285 0.47182640 0.37856671
0.94279069 0.50754017 0.34411234
0.94688940 0.54332542 0.31045377
0.95074201 0.57903528 0.27773786
0.95438164 0.61452281 0.24611160
0.95784134 0.64964104 0.21572189
0.96115416 0.68424308 0.18671566
0.64278448 0.07246021 1.00000000
0.66795385 0.05059752 1.00000000
0.69234794 0.03181734 1.00000000
0.71587193 0.01635335 1.00000000
0.73843086 0.00443923 1.00000000
0.75760603 0.00208934 0.98973572
0.77360523 0.00841952 0.96815461
0.78869569 0.01761828 0.94457221
0.80291051 0.02953869 0.91913545
0.81628275 0.04403383 0.89199126
0.82884550 0.06095676 0.86328655
0.84063178 0.08016056 0.83316827
0.85167474 0.10149829 0.80178332
0.86200744 0.12482303 0.76927865
0.87166286 0.14998785 0.73580122
0.88067418 0.17684582 0.70149785
0.88907439 0.20524999 0.66651565
0.89689660 0.23505348 0.63100135
0.90417391 0.26610932 0.59510201
0.91093934 0.29827055 0.55896455
0.91722596 0.33139032 0.52273589
0.92306685 0.36532167 0.48656288
0.92849517 0.39991763 0.45059255
0.93354386 0.43503132 0.41497180
0.93824601 0.47051579 0.37984753
0.94263476 0.50622410 0.34536669
0.94674313 0.54200935 0.31167623
0.95060426 0.57772458 0.27892306
0.95425111 0.61322290 0.24725410
0.95771682 0.64835733 0.21681629
0.96103448 0.68298095 0.18775657
0.96423709 0.71694690 0.16022184
0.96735781 0.75010812 0.13435908
0.69146538 0.03245093 1.00000000
0.71502304 0.01686079 1.00000000
0.73761916 0.00481194 1.00000000
0.75699967 0.00191307 0.99048960
0.77303290 0.00813491 0.96898490
0.78815621 0.01723074 0.94547355
0.80240268 0.02905363 0.92010242
0.81580532 0.04345664 0.89301842
0.82839727 0.06029287 0.86436856
0.84021157 0.07941536 0.83429962
0.85128129 0.10067718 0.80295867
0.86163950 0.12393143 0.77049261
0.87131929 0.14903116 0.73704833
0.88035369 0.17582944 0.70277280
0.88877583 0.20417933 0.66781294
0.89661872 0.23393394 0.63231564
0.90391546 0.26494631 0.59642786
0.91069913 0.29706949 0.56029654
0.91700280 0.33015659 0.52406859
0.92285949 0.36406067 0.48789099
0.92830235 0.39863479 0.45191059
0.93336445 0.43373203 0.41627437
0.93807876 0.46920547 0.38112924
0.94247848 0.50490814 0.34662211
0.94659656 0.54069316 0.31289998
0.95046622 0.57641357 0.28010970
0.95412034 0.61192250 0.24839826
0.95759219 0.64707291 0.21791257
0.96091467 0.68171793 0.18879953
0.96412092 0.71571064 0.16120611
0.96724409 0.74890411 0.13527922
0.97031713 0.78115141 0.11116578
0.97337317 0.81230563 0.08901275
0.73680598 0.00518976 1.00000000
0.75639200 0.00174088 0.99124056
0.77245939 0.00785419 0.96981251
0.78761560 0.01684689 0.94637239
0.80189371 0.02857206 0.92106706
0.81532681 0.04288276 0.89404351
0.82794803 0.05963206 0.86544859
0.83979034 0.07867305 0.83542931
0.85088682 0.09985878 0.80413252
0.86127067 0.12304232 0.77170527
0.87097478 0.14807676 0.73829436
0.88003236 0.17481515 0.70404679
0.88847643 0.20311058 0.66910952
0.89634007 0.23281610 0.63362938
0.90365630 0.26378480 0.59775335
0.91045827 0.29586974 0.56162840
0.91677898 0.32892397 0.52540141
0.92265159 0.36280060 0.48921934
0.92810911 0.39735267 0.45322907
0.93318456 0.43243328 0.41757759
0.93791109 0.46789548 0.38241178
0.94232178 0.50359231 0.34787861
0.94644970 0.53937691 0.31412497
0.95032787 0.57510233 0.28129783
0.95398939 0.61062157 0.24954408
0.95746726 0.64578778 0.21901070
0.96079469 0.68045402 0.18984456
0.96400470 0.71447337 0.16219263
0.96713024 0.74769884 0.13620181
0.97020459 0.77998352 0.11201907
0.97326064 0.81118053 0.08979131
0.97633159 0.84114289 0.06966545
0.97945040 0.86972374 0.05178845
0.77188462 0.00757737 0.97063738
0.78707373 0.01646674 0.94726866
0.80138361 0.02809399 0.92202938
0.81484723 0.04231217 0.89506638
0.82749766 0.05897437 0.86652672
0.83936805 0.07793365 0.83655721
0.85049146 0.09904307 0.80530483
0.86090088 0.12215573 0.77291656
0.87062943 0.14712468 0.73953927
0.87971020 0.17380299 0.70531988
0.88817626 0.20204373 0.67040533
0.89606065 0.23169997 0.63494259
0.90339643 0.26262480 0.59907854
0.91021675 0.29467127 0.56296015
0.91655463 0.32769245 0.52673429
0.92244309 0.36154142 0.49054796
0.92791528 0.39607126 0.45454803
0.93300426 0.43113503 0.41888148
0.93774301 0.46658579 0.38369521
0.94216478 0.50227660 0.34913614
0.94630247 0.53806055 0.31535125
0.95018923 0.57379073 0.28248739
0.95385814 0.60932022 0.25069156
0.95734221 0.64450204 0.22011067
0.96067458 0.67918926 0.19089162
0.96388829 0.71323496 0.16318139
0.96701640 0.74649227 0.13712686
0.97009200 0.77881420 0.11287499
0.97314817 0.81005383 0.09057271
0.97621793 0.84006417 0.07036693
0.97933441 0.86869842 0.05240459
0.98253071 0.89580959 0.03683262
0.98583978 0.92125076 0.02379795
0.80087233 0.02761942 0.92298937
0.81436652 0.04174489 0.89608717
0.82704633 0.05831978 0.86760288
0.83894479 0.07719715 0.83768338
0.85009509 0.09823008 0.80647564
0.86053020 0.12127164 0.77412653
0.87028325 0.14617489 0.74078298
0.87938726 0.17279293 0.70659196
0.88787532 0.20097879 0.67170042
0.89578050 0.23058556 0.63625526
0.90313590 0.26146632 0.60040337
0.90997458 0.29347414 0.56429172
0.91632962 0.32646206 0.52806723
0.92223406 0.36028320 0.49187681
0.92772096 0.39479059 0.45586744
0.93282342 0.42983729 0.42018601
0.93757451 0.46527642 0.38497946
0.94200730 0.50096101 0.35039473
0.94615489 0.53674418 0.31657875
0.95005029 0.57247895 0.28367841
0.95372659 0.60801834 0.25184068
0.95721692 0.64321560 0.22121249
0.96055430 0.67792362 0.19194074
0.96377176 0.71199554 0.16417240
0.96690243 0.74528444 0.13805436
0.96997941 0.77764332 0.11373356
0.97303569 0.80892539 0.09135695
0.97610438 0.83898360 0.07107143
0.97921854 0.86767107 0.05302396
0.98241132 0.89484090 0.03736144
0.98571569 0.92034608 0.02423082
0.98916471 0.94403970 0.01377903
0.99279153 0.96577489 0.00615298
0.82659388 0.05766830 0.86867714
0.83852053 0.07646357 0.83880782
0.84969771 0.09741981 0.80764484
0.86015856 0.12039007 0.77533513
0.86993611 0.14522745 0.74202561
0.87906343 0.17178498 0.70786315
0.88757354 0.19991578 0.67299479
0.89549965 0.22947288 0.63756734
0.90287465 0.26030937 0.60172784
0.90973175 0.29227832 0.56562310
0.91610402 0.32523280 0.52940017
0.92202443 0.35902587 0.49320593
0.92752612 0.39351061 0.45718729
0.93264210 0.42854011 0.42149121
0.93740559 0.46396738 0.38626456
0.94184947 0.49964556 0.35165435
0.94600695 0.53542769 0.31780747
0.94991106 0.57116681 0.28487086
0.95359486 0.60671604 0.25299144
0.95709145 0.64192843 0.22231615
0.96043384 0.67665708 0.19299190
0.96365511 0.71075499 0.16516563
0.96678841 0.74407530 0.13898428
0.96986675 0.77647108 0.11459476
0.97292322 0.80779535 0.09214401
0.97599089 0.83790118 0.07177897
0.97910279 0.86664170 0.05364655
0.98229206 0.89386994 0.03789370
0.98559177 0.91943896 0.02466733
0.98903489 0.94320184 0.01411438
0.99265456 0.96501166 0.00638177
0.99648392 0.98472154 0.00161644
1.00000000 1.00000000 0.00144217
0.84929943 0.09661225 0.80881256
0.85978603 0.11951103 0.77654243
0.86958814 0.14428231 0.74326706
0.87873876 0.17077918 0.70913339
0.88727105 0.19885468 0.67428833
0.89521801 0.22836193 0.63887888
0.90261275 0.25915396 0.60305190
0.90948832 0.29108384 0.56695437
0.91587776 0.32400468 0.53073317
0.92181420 0.35776949 0.49453527
0.92733073 0.39223140 0.45850757
0.93246037 0.42724344 0.42279699
0.93723619 0.46265870 0.38755050
0.94169128 0.49833024 0.35291502
0.94585872 0.53411114 0.31903747
0.94977152 0.56985450 0.28606474
0.95346284 0.60541332 0.25414383
0.95696574 0.64064068 0.22342163
0.96031320 0.67538971 0.19404507
0.96353841 0.70951343 0.16616109
0.96667433 0.74286497 0.13991661
0.96975410 0.77529734 0.11545858
0.97281080 0.80666363 0.09293391
0.97587746 0.83681691 0.07248953
0.97898716 0.86561024 0.05427237
0.98217297 0.89289671 0.03842937
0.98546803 0.91852939 0.02510745
0.98890531 0.94236135 0.01445354
0.99251789 0.96424562 0.00661457
0.99633896 0.98403531 0.00173748
1.00000000 1.00000000 0.00103709
1.00000000 1.00000000 0.01353058
