CTKLset/CTKLset.cube
# VEGAS Pro LUT
TITLE "CTKLset"
LUT_3D_SIZE 33
0.00000000 0.00000000 0.00000000
0.02292424 0.00130834 0.00000000
0.04553240 0.00313255 0.00000000
0.06770066 0.00550587 0.00000000
0.08931246 0.00847128 0.00000000
0.11025847 0.01207975 0.00000000
0.13043658 0.01638843 0.00000000
0.14975195 0.02145903 0.00000000
0.16811693 0.02735624 0.00000000
0.18545112 0.03414618 0.00000000
0.20168138 0.04189503 0.00000000
0.21674171 0.05066767 0.00000000
0.23057351 0.06052640 0.00000000
0.24312526 0.07152974 0.00000000
0.25435275 0.08373139 0.00000000
0.26421896 0.09717913 0.00000000
0.27269417 0.11191392 0.00000000
0.27975583 0.12796901 0.00000000
0.28538865 0.14536916 0.00000000
0.28958458 0.16412994 0.00000000
0.29234278 0.18425708 0.00000000
0.29366967 0.20574592 0.00000000
0.29357889 0.22858101 0.00000000
0.29209131 0.25273558 0.00000000
0.28923503 0.27817142 0.00000000
0.28504544 0.30483839 0.00000000
0.27956507 0.33267456 0.00000000
0.27284378 0.36160594 0.00000000
0.26493859 0.39154649 0.00000000
0.25591373 0.42239845 0.00000000
0.24584077 0.45405203 0.00000000
0.23479843 0.48638618 0.00000000
0.22287273 0.51926857 0.00000000
0.00000000 0.02582870 0.00000000
0.02257493 0.02798328 0.00000000
0.04467516 0.03068870 0.00000000
0.06618753 0.03399746 0.00000000
0.08700614 0.03796834 0.00000000
0.10703228 0.04266470 0.00000000
0.12617455 0.04815296 0.00000000
0.14434870 0.05450103 0.00000000
0.16147774 0.06177693 0.00000000
0.17749196 0.07004739 0.00000000
0.19232884 0.07937665 0.00000000
0.20593306 0.08982520 0.00000000
0.21825662 0.10144874 0.00000000
0.22925872 0.11429711 0.00000000
0.23890573 0.12841330 0.00000000
0.24717131 0.14383273 0.00000000
0.25403643 0.16058224 0.00000000
0.25948912 0.17867960 0.00000000
0.26352480 0.19813271 0.00000000
0.26614603 0.21893908 0.00000000
0.26736265 0.24108547 0.00000000
0.26719174 0.26454741 0.00000000
0.26565754 0.28928882 0.00000000
0.26279160 0.31526193 0.00000000
0.25863272 0.34240696 0.00000000
0.25322688 0.37065217 0.00000000
0.24662726 0.39991391 0.00000000
0.23889440 0.43009642 0.00000000
0.23009591 0.46109241 0.00000000
0.22030677 0.49278289 0.00000000
0.20960915 0.52503771 0.00000000
0.19809248 0.55771613 0.00000000
0.18585330 0.59066695 0.00000000
0.00000000 0.05292581 0.00000000
0.02207328 0.05593766 0.00000000
0.04352718 0.05957338 0.00000000
0.06425922 0.06389804 0.00000000
0.08417410 0.06897976 0.00000000
0.10318383 0.07488823 0.00000000
0.12120759 0.08169331 0.00000000
0.13817182 0.08946358 0.00000000
0.15401021 0.09826524 0.00000000
0.16866364 0.10816072 0.00000000
0.18208025 0.11920772 0.00000000
0.19421542 0.13145815 0.00000000
0.20503177 0.14495707 0.00000000
0.21449913 0.15974197 0.00000000
0.22259453 0.17584187 0.00000000
0.22930236 0.19327666 0.00000000
0.23461413 0.21205637 0.00000000
0.23852859 0.23218086 0.00000000
0.24105176 0.25363898 0.00000000
0.24219692 0.27640855 0.00000000
0.24198446 0.30045566 0.00000000
0.24044219 0.32573485 0.00000000
0.23760501 0.35218856 0.00000000
0.23351513 0.37974730 0.00000000
0.22822188 0.40832970 0.00000000
0.22178200 0.43784219 0.00000000
0.21425931 0.46817973 0.00000000
0.20572500 0.49922556 0.00000000
0.19625731 0.53085184 0.00000000
0.18594187 0.56291991 0.00000000
0.17487153 0.59528077 0.00000000
0.16314632 0.62777561 0.00000000
0.15087354 0.66023648 0.00000000
0.00000000 0.08120343 0.00000000
0.02143297 0.08515892 0.00000000
0.04211584 0.08983651 0.00000000
0.06195675 0.09530765 0.00000000
0.08087110 0.10164403 0.00000000
0.09878150 0.10891614 0.00000000
0.11561781 0.11719204 0.00000000
0.13131712 0.12653619 0.00000000
0.14582376 0.13700828 0.00000000
0.15908928 0.14866218 0.00000000
0.17107245 0.16154511 0.00000000
0.18173932 0.17569664 0.00000000
0.19106314 0.19114792 0.00000000
0.19902439 0.20792098 0.00000000
0.20561080 0.22602811 0.00000000
0.21081735 0.24547124 0.00000000
0.21464622 0.26624155 0.00000000
0.21710683 0.28831896 0.00000000
0.21821584 0.31167197 0.00000000
0.21799716 0.33625716 0.00000000
0.21648191 0.36201939 0.00000000
0.21370843 0.38889137 0.00000000
0.20972234 0.41679391 0.00000000
0.20457649 0.44563580 0.00000000
0.19833089 0.47531411 0.00000000
0.19105291 0.50571442 0.00000000
0.18281703 0.53671104 0.00000000
0.17370500 0.56816757 0.00000000
0.16380584 0.59993708 0.00000000
0.15321586 0.63186294 0.00000000
0.14203839 0.66377950 0.00000000
0.13038421 0.69551253 0.00000000
0.11837125 0.72688007 0.00000000
0.00000000 0.11072306 0.00000000
0.02066769 0.11575918 0.00000000
0.04046850 0.12162902 0.00000000
0.05932121 0.12840497 0.00000000
0.07715186 0.13615701 0.00000000
0.09389374 0.14495155 0.00000000
0.10948734 0.15485027 0.00000000
0.12388040 0.16590914 0.00000000
0.13702790 0.17817739 0.00000000
0.14889205 0.19169672 0.00000000
0.15944228 0.20650040 0.00000000
0.16865528 0.22261262 0.00000000
0.17651495 0.24004784 0.00000000
0.18301241 0.25881022 0.00000000
0.18814607 0.27889311 0.00000000
0.19192156 0.30027869 0.00000000
0.19435164 0.32293767 0.00000000
0.19545648 0.34682891 0.00000000
0.19526334 0.37189949 0.00000000
0.19380678 0.39808437 0.00000000
0.19112858 0.42530659 0.00000000
0.18727778 0.45347723 0.00000000
0.18231058 0.48249561 0.00000000
0.17629048 0.51224947 0.00000000
0.16928820 0.54261535 0.00000000
0.16138168 0.57345915 0.00000000
0.15265611 0.60463589 0.00000000
0.14320396 0.63599133 0.00000000
0.13312477 0.66736192 0.00000000
0.12252551 0.69857538 0.00000000
0.11152022 0.72945201 0.00000000
0.10023035 0.75980538 0.00000000
0.08878440 0.78944290 0.00000000
0.00000000 0.14164814 0.00000000
0.01979114 0.14792994 0.00000000
0.03861253 0.15515999 0.00000000
0.05639363 0.16340667 0.00000000
0.07307113 0.17273365 0.00000000
0.08858895 0.18319893 0.00000000
0.10289825 0.19485383 0.00000000
0.11595742 0.20774212 0.00000000
0.12773210 0.22189924 0.00000000
0.13819513 0.23735151 0.00000000
0.14732657 0.25411555 0.00000000
0.15511382 0.27219775 0.00000000
0.16155139 0.29159367 0.00000000
0.16664109 0.31228769 0.00000000
0.17039192 0.33425280 0.00000000
0.17282021 0.35745007 0.00000000
0.17394936 0.38182881 0.00000000
0.17381018 0.40732628 0.00000000
0.17244059 0.43386778 0.00000000
0.16988584 0.46136653 0.00000000
0.16619828 0.48972419 0.00000000
0.16143762 0.51883072 0.00000000
0.15567075 0.54856485 0.00000000
0.14897183 0.57879460 0.00000000
0.14142220 0.60937738 0.00000000
0.13311045 0.64016098 0.00000000
0.12413244 0.67098385 0.00000000
0.11459121 0.70167601 0.00000000
0.10459711 0.73205990 0.00000000
0.09426764 0.76195079 0.00000000
0.08372755 0.79115838 0.00000000
0.07310888 0.81948745 0.00000000
0.06255084 0.84673882 0.00000000
0.00000000 0.17420094 0.00000000
0.01881697 0.18190148 0.00000000
0.03657530 0.19065833 0.00000000
0.05321506 0.20053148 0.00000000
0.06868363 0.21157435 0.00000000
0.08293556 0.22383279 0.00000000
0.09593267 0.23734435 0.00000000
0.10764399 0.25213754 0.00000000
0.11804581 0.26823118 0.00000000
0.12712163 0.28563380 0.00000000
0.13486218 0.30434319 0.00000000
0.14126545 0.32434601 0.00000000
0.14633667 0.34561732 0.00000000
0.15008828 0.36812061 0.00000000
0.15253994 0.39180738 0.00000000
0.15371858 0.41661716 0.00000000
0.15365830 0.44247746 0.00000000
0.15240054 0.46930379 0.00000000
0.14999393 0.49699995 0.00000000
0.14649422 0.52545828 0.00000000
0.14196458 0.55455959 0.00000000
0.13647532 0.58417410 0.00000000
0.13010396 0.61416149 0.00000000
0.12293526 0.64437175 0.00000000
0.11506131 0.67464536 0.00000000
0.10658130 0.70481449 0.00000000
0.09760176 0.73470354 0.00000000
0.08823635 0.76413012 0.00000000
0.07860608 0.79290563 0.00000000
0.06883916 0.82083684 0.00000000
0.05907090 0.84772670 0.00000000
0.04944407 0.87337542 0.00000000
0.04010850 0.89758188 0.00000000
0.00000000 0.20862424 0.00000000
0.01775890 0.21790674 0.00000000
0.03438417 0.22833890 0.00000000
0.04982658 0.23996869 0.00000000
0.06404410 0.25283575 0.00000000
0.07700199 0.26697078 0.00000000
0.08867268 0.28239474 0.00000000
0.09903587 0.29911837 0.00000000
0.10807851 0.31714165 0.00000000
0.11579472 0.33645350 0.00000000
0.12218593 0.35703123 0.00000000
0.12726074 0.37884060 0.00000000
0.13103503 0.40183526 0.00000000
0.13353191 0.42595702 0.00000000
0.13478167 0.45113567 0.00000000
0.13482191 0.47728896 0.00000000
0.13369742 0.50432289 0.00000000
0.13146022 0.53213209 0.00000000
0.12816960 0.56059957 0.00000000
0.12389202 0.58959770 0.00000000
0.11870123 0.61898857 0.00000000
0.11267824 0.64862382 0.00000000
0.10591117 0.67834663 0.00000000
0.09849554 0.70799088 0.00000000
0.09053394 0.73738331 0.00000000
0.08213632 0.76634330 0.00000000
0.07341981 0.79468459 0.00000000
0.06450880 0.82221580 0.00000000
0.05553485 0.84874165 0.00000000
0.04663684 0.87406427 0.00000000
0.03796080 0.89798462 0.00000000
0.02966010 0.92030317 0.00000000
0.02189517 0.94082212 0.00000000
0.00000000 0.24514741 0.00000000
0.01663058 0.25614971 0.00000000
0.03206652 0.26837331 0.00000000
0.04626921 0.28185108 0.00000000
0.05920729 0.29660612 0.00000000
0.07085665 0.31265140 0.00000000
0.08120041 0.32998908 0.00000000
0.09022888 0.34861028 0.00000000
0.09793967 0.36849460 0.00000000
0.10433758 0.38960999 0.00000000
0.10943465 0.41191241 0.00000000
0.11325017 0.43534589 0.00000000
0.11581066 0.45984244 0.00000000
0.11714983 0.48532209 0.00000000
0.11730873 0.51169312 0.00000000
0.11633551 0.53885227 0.00000000
0.11428565 0.56668496 0.00000000
0.11122181 0.59506553 0.00000000
0.10721393 0.62385833 0.00000000
0.10233918 0.65291727 0.00000000
0.09668190 0.68208754 0.00000000
0.09033372 0.71120530 0.00000000
0.08339349 0.74009907 0.00000000
0.07596730 0.76859063 0.00000000
0.06816852 0.79649544 0.00000000
0.06011762 0.82362419 0.00000000
0.05194248 0.84978366 0.00000000
0.04377802 0.87477773 0.00000000
0.03576653 0.89840925 0.00000000
0.02805758 0.92048031 0.00000000
0.02080774 0.94079494 0.00000000
0.01418115 0.95915973 0.00000000
0.00834882 0.97538543 0.00000000
0.00000000 0.28395706 0.00000000
0.01544572 0.29677844 0.00000000
0.02964970 0.31086534 0.00000000
0.04258401 0.32623285 0.00000000
0.05422792 0.34288538 0.00000000
0.06456798 0.36081627 0.00000000
0.07359792 0.38000736 0.00000000
0.08131879 0.40042880 0.00000000
0.08773877 0.42203885 0.00000000
0.09287335 0.44478375 0.00000000
0.09674519 0.46859777 0.00000000
0.09938427 0.49340326 0.00000000
0.10082775 0.51911062 0.00000000
0.10111998 0.54561895 0.00000000
0.10031266 0.57281566 0.00000000
0.09846459 0.60057759 0.00000000
0.09564191 0.62877101 0.00000000
0.09191795 0.65725219 0.00000000
0.08737326 0.68586832 0.00000000
0.08209567 0.71445781 0.00000000
0.07618021 0.74285114 0.00000000
0.06972913 0.77087212 0.00000000
0.06285194 0.79833835 0.00000000
0.05566541 0.82506233 0.00000000
0.04829344 0.85085291 0.00000000
0.04086732 0.87551582 0.00000000
0.03352540 0.89885569 0.00000000
0.02641346 0.92067653 0.00000000
0.01968430 0.94078404 0.00000000
0.01349813 0.95898628 0.00000000
0.00802232 0.97509599 0.00000000
0.00343143 0.98893148 0.00000000
0.00037907 0.99999505 0.00076209
0.00000000 0.32517233 0.00000000
0.01421800 0.33986270 0.00000000
0.02716110 0.35583058 0.00000000
0.03881203 0.37307149 0.00000000
0.04916073 0.39156950 0.00000000
0.05820438 0.41129702 0.00000000
0.06594737 0.43221462 0.00000000
0.07240138 0.45427063 0.00000000
0.07758528 0.47740173 0.00000000
0.08152518 0.50153244 0.00000000
0.08425441 0.52657551 0.00000000
0.08581358 0.55243206 0.00000000
0.08625050 0.57899183 0.00000000
0.08562023 0.60613394 0.00000000
0.08398502 0.63372672 0.00000000
0.08141443 0.66162872 0.00000000
0.07798517 0.68968916 0.00000000
0.07378127 0.71774846 0.00000000
0.06889391 0.74563950 0.00000000
0.06342153 0.77318794 0.00000000
0.05746990 0.80021334 0.00000000
0.05115187 0.82653040 0.00000000
0.04458759 0.85194951 0.00000000
0.03790446 0.87627882 0.00000000
0.03123714 0.89932424 0.00000000
0.02472745 0.92089200 0.00000000
0.01852449 0.94078934 0.00000000
0.01278458 0.95882612 0.00000000
0.00767129 0.97481650 0.00000000
0.00335541 0.98858052 0.00000000
0.00001492 0.99994588 0.00000000
0.01241225 0.99537754 0.02585458
0.02574511 0.98193270 0.05528502
0.00000000 0.36882460 0.00000000
0.01296109 0.38537586 0.00000000
0.02462808 0.40318102 0.00000000
0.03499434 0.42221469 0.00000000
0.04406045 0.44243962 0.00000000
0.05183427 0.46380663 0.00000000
0.05833084 0.48625439 0.00000000
0.06357245 0.50970978 0.00000000
0.06758866 0.53408766 0.00000000
0.07041622 0.55929160 0.00000000
0.07209912 0.58521360 0.00000000
0.07268862 0.61173463 0.00000000
0.07224315 0.63872552 0.00000000
0.07082846 0.66604680 0.00000000
0.06851745 0.69354993 0.00000000
0.06539027 0.72107756 0.00000000
0.06153437 0.74846429 0.00000000
0.05704438 0.77553821 0.00000000
0.05202215 0.80212069 0.00000000
0.04657676 0.82802838 0.00000000
0.04082464 0.85307378 0.00000000
0.03488923 0.87706673 0.00000000
0.02890147 0.89981514 0.00000000
0.02299928 0.92112702 0.00000000
0.01732805 0.94081110 0.00000000
0.01204018 0.95867926 0.00000000
0.00729546 0.97454721 0.00000000
0.00326090 0.98823643 0.00000000
0.00011067 0.99957615 0.00000000
0.01193790 0.99570864 0.02483578
0.02523977 0.98257476 0.05414465
0.03937008 0.96135634 0.08661572
0.05430001 0.93281955 0.12195382
0.00000000 0.41484195 0.00000000
0.01168868 0.43318176 0.00000000
0.02207800 0.45271403 0.00000000
0.03117197 0.47339165 0.00000000
0.03898183 0.49515569 0.00000000
0.04552607 0.51793516 0.00000000
0.05083041 0.54164732 0.00000000
0.05492779 0.56619781 0.00000000
0.05785839 0.59148079 0.00000000
0.05966964 0.61737972 0.00000000
0.06041618 0.64376742 0.00000000
0.06015990 0.67050660 0.00000000
0.05896991 0.69745088 0.00000000
0.05692258 0.72444493 0.00000000
0.05410147 0.75132567 0.00000000
0.05059741 0.77792287 0.00000000
0.04650849 0.80406022 0.00000000
0.04193993 0.82955641 0.00000000
0.03700429 0.85422564 0.00000000
0.03182136 0.87787974 0.00000000
0.02651807 0.90032846 0.00000000
0.02122867 0.92138147 0.00000000
0.01609460 0.94084954 0.00000000
0.01126457 0.95854604 0.00000000
0.00689453 0.97428823 0.00000000
0.00314759 0.98789930 0.00000000
0.00019415 0.99921000 0.00000000
0.01146470 0.99602771 0.02382165
0.02473555 0.98320585 0.05300856
0.03883589 0.96227133 0.08536853
0.05373692 0.93399018 0.12060639
0.06940984 0.89912856 0.15842697
0.08582585 0.85845262 0.19853510
0.00000000 0.46303770 0.00000000
0.01041446 0.48302573 0.00000000
0.01953823 0.50410563 0.00000000
0.02738598 0.52620876 0.00000000
0.03397960 0.54925442 0.00000000
0.03934822 0.57315058 0.00000000
0.04352822 0.59779370 0.00000000
0.04656317 0.62306941 0.00000000
0.04850395 0.64885247 0.00000000
0.04940858 0.67500824 0.00000000
0.04934242 0.70139199 0.00000000
0.04837793 0.72785074 0.00000000
0.04659496 0.75422353 0.00000000
0.04408045 0.78034222 0.00000000
0.04092866 0.80603242 0.00000000
0.03724108 0.83111465 0.00000000
0.03312638 0.85540533 0.00000000
0.02870052 0.87871790 0.00000000
0.02408671 0.90086424 0.00000000
0.01941527 0.92165577 0.00000000
0.01482390 0.94090480 0.00000000
0.01045746 0.95842648 0.00000000
0.00646808 0.97403973 0.00000000
0.00301505 0.98756939 0.00000000
0.00026500 0.99884760 0.00000000
0.01099267 0.99633473 0.02281222
0.02423245 0.98382604 0.05187677
0.03830278 0.96317637 0.08412523
0.05317487 0.93515193 0.11926244
0.06881990 0.90051883 0.15699324
0.08520909 0.86004323 0.19702244
0.10231362 0.81449121 0.23905490
0.12010470 0.76462901 0.28279543
0.00000000 0.51310432 0.00000000
0.00915211 0.53453040 0.00000000
0.01703615 0.55690897 0.00000000
0.02367742 0.58015001 0.00000000
0.02910849 0.60415232 0.00000000
0.03336912 0.62880355 0.00000000
0.03650634 0.65398091 0.00000000
0.03857441 0.67955160 0.00000000
0.03963479 0.70537341 0.00000000
0.03975624 0.73129523 0.00000000
0.03901467 0.75715828 0.00000000
0.03749328 0.78279632 0.00000000
0.03528251 0.80803710 0.00000000
0.03247999 0.83270323 0.00000000
0.02919063 0.85661292 0.00000000
0.02552653 0.87958151 0.00000000
0.02160707 0.90142280 0.00000000
0.01755883 0.92194992 0.00000000
0.01351562 0.94097710 0.00000000
0.00961854 0.95832086 0.00000000
0.00601582 0.97380203 0.00000000
0.00286302 0.98724687 0.00000000
0.00032291 0.99848914 0.00000000
0.01052180 0.99662977 0.02180750
0.02373048 0.98443514 0.05074928
0.03777077 0.96407139 0.08288584
0.05261386 0.93630469 0.11792201
0.06823097 0.90190113 0.15556261
0.08459329 0.86162692 0.19551249
0.10167202 0.81624812 0.23747648
0.11943835 0.76653093 0.28115940
0.13786349 0.71324140 0.32626611
0.15691863 0.65714580 0.37250140
0.00000000 0.56461108 0.00000000
0.00791532 0.58719617 0.00000000
0.01459911 0.61055666 0.00000000
0.02008735 0.63458228 0.00000000
0.02442323 0.65915263 0.00000000
0.02765720 0.68413693 0.00000000
0.02984691 0.70939517 0.00000000
0.03105726 0.73477840 0.00000000
0.03136040 0.76012981 0.00000000
0.03083571 0.78528523 0.00000000
0.02956977 0.81007463 0.00000000
0.02765645 0.83432227 0.00000000
0.02519678 0.85784853 0.00000000
0.02229910 0.88047063 0.00000000
0.01907892 0.90200424 0.00000000
0.01565904 0.92226404 0.00000000
0.01216948 0.94106632 0.00000000
0.00874745 0.95822918 0.00000000
0.00553742 0.97357512 0.00000000
0.00269111 0.98693192 0.00000000
0.00036750 0.99813473 0.00000000
0.01005210 0.99691266 0.02080751
0.02322963 0.98503321 0.04962612
0.03723983 0.96495640 0.08165038
0.05205391 0.93744850 0.11658510
0.06764305 0.90327555 0.15413512
0.08397846 0.86320370 0.19400528
0.10103134 0.81799912 0.23590039
0.11877289 0.76842797 0.27952531
0.13717431 0.71525633 0.32458484
0.15620679 0.65925032 0.37078387
0.17584153 0.60117620 0.41782716
0.19604973 0.54179996 0.46541959
0.00000000 0.61700672 0.00000000
0.00671776 0.64040577 0.00000000
0.01225450 0.66436779 0.00000000
0.01665681 0.68876433 0.00000000
0.01997858 0.71345747 0.00000000
0.02228087 0.73830032 0.00000000
0.02363199 0.76313829 0.00000000
0.02410754 0.78780919 0.00000000
0.02379026 0.81214488 0.00000000
0.02277019 0.83597195 0.00000000
0.02114458 0.85911238 0.00000000
0.01901794 0.88138551 0.00000000
0.01650198 0.90260857 0.00000000
0.01371563 0.92259848 0.00000000
0.01078512 0.94117284 0.00000000
0.00784387 0.95815194 0.00000000
0.00503251 0.97335935 0.00000000
0.00249897 0.98662472 0.00000000
0.00039838 0.99778473 0.00000000
0.00958356 0.99718344 0.01981225
0.02272991 0.98562014 0.04850730
0.03670999 0.96583140 0.08041885
0.05149500 0.93858325 0.11525173
0.06705613 0.90464193 0.15271077
0.08336461 0.86477357 0.19250080
0.10039160 0.81974423 0.23432665
0.11810832 0.77032012 0.27789316
0.13648596 0.71726739 0.32290515
0.15549575 0.66135210 0.36906746
0.17510885 0.60334045 0.41608495
0.19529647 0.54399860 0.46366239
0.21602981 0.48409259 0.51150465
0.23728009 0.42438868 0.55931658
0.00000000 0.66962647 0.00000000
0.00557313 0.69343382 0.00000000
0.01002966 0.71756023 0.00000000
0.01342687 0.74186110 0.00000000
0.01582925 0.76618373 0.00000000
0.01730855 0.79036814 0.00000000
0.01794373 0.81424820 0.00000000
0.01782100 0.83765233 0.00000000
0.01703382 0.86040449 0.00000000
0.01568281 0.88232613 0.00000000
0.01387592 0.90323615 0.00000000
0.01172831 0.92295331 0.00000000
0.00936230 0.94129694 0.00000000
0.00690752 0.95808893 0.00000000
0.00450082 0.97315472 0.00000000
0.00228625 0.98632538 0.00000000
0.00041518 0.99743921 0.00000000
0.00911619 0.99744207 0.01882174
0.02223131 0.98619598 0.04739283
0.03618123 0.96669626 0.07919128
0.05093714 0.93970901 0.11392192
0.06647024 0.90600032 0.15128957
0.08275172 0.86633641 0.19099908
0.09975279 0.82148337 0.23275526
0.11744465 0.77220738 0.27626294
0.13579850 0.71927458 0.32122701
0.15478553 0.66345102 0.36735222
0.17437693 0.60550290 0.41434348
0.19454393 0.54619640 0.46190554
0.21525772 0.48629761 0.50974333
0.23648947 0.42657268 0.55756158
0.25821042 0.36778772 0.60506517
0.28039175 0.31070891 0.65195900
0.00000000 0.72170371 0.00000000
0.00449510 0.74546087 0.00000000
0.00795198 0.76926637 0.00000000
0.01043856 0.79296237 0.00000000
0.01202999 0.81638455 0.00000000
0.01280867 0.83936346 0.00000000
0.01286421 0.86172515 0.00000000
0.01229347 0.88329262 0.00000000
0.01120055 0.90388691 0.00000000
0.00969676 0.92332846 0.00000000
0.00790065 0.94143862 0.00000000
0.00593805 0.95804048 0.00000000
0.00394195 0.97296143 0.00000000
0.00205261 0.98603427 0.00000000
0.00041755 0.99709845 0.00000000
0.00864998 0.99768847 0.01783600
0.02173385 0.98676068 0.04628273
0.03565357 0.96755099 0.07796768
0.05038033 0.94082558 0.11259567
0.06588535 0.90735066 0.14987154
0.08213981 0.86789227 0.18950011
0.09911492 0.82321656 0.23118623
0.11678188 0.77408969 0.27463472
0.13511187 0.72127783 0.31955042
0.15407611 0.66554707 0.36563817
0.17364581 0.60766357 0.41260278
0.19379213 0.54839343 0.46014908
0.21448632 0.48850286 0.50798196
0.23569953 0.42875794 0.55580616
0.25740299 0.36992484 0.60332656
0.27956790 0.31276968 0.65024799
0.30216542 0.25805861 0.69627535
0.32516682 0.20655777 0.74111336
0.00000000 0.77238619 0.00000000
0.00349736 0.79559171 0.00000000
0.00604882 0.81855410 0.00000000
0.00773294 0.84110564 0.00000000
0.00863553 0.86307436 0.00000000
0.00884963 0.88428527 0.00000000
0.00847552 0.90456116 0.00000000
0.00762071 0.92372447 0.00000000
0.00639993 0.94159794 0.00000000
0.00493515 0.95800680 0.00000000
0.00335559 0.97277987 0.00000000
0.00179769 0.98575139 0.00000000
0.00040515 0.99676251 0.00000000
0.00818495 0.99792266 0.01685505
0.02123752 0.98731411 0.04517702
0.03512700 0.96839559 0.07674806
0.04982458 0.94193310 0.11127301
0.06530148 0.90869290 0.14845669
0.08152887 0.86944103 0.18800394
0.09847798 0.82494372 0.22961959
0.11612000 0.77596700 0.27300850
0.13442612 0.72327715 0.31787544
0.15336753 0.66764021 0.36392528
0.17291546 0.60982233 0.41086286
0.19304109 0.55058962 0.45839301
0.21371561 0.49070829 0.50622052
0.23491025 0.43094447 0.55405033
0.25659618 0.37206423 0.60158712
0.27874461 0.31483379 0.64853585
0.30132675 0.26001921 0.69460130
0.32431379 0.20838669 0.73948830
0.34767690 0.16070235 0.78290164
0.37138733 0.11773231 0.82454628
0.00000000 0.82075685 0.00000000
0.00259360 0.84287882 0.00000000
0.00434754 0.86445224 0.00000000
0.00535106 0.88530409 0.00000000
0.00570061 0.90525907 0.00000000
0.00549988 0.92414123 0.00000000
0.00485979 0.94177526 0.00000000
0.00389852 0.95798802 0.00000000
0.00274143 0.97261000 0.00000000
0.00152116 0.98547697 0.00000000
0.00037760 0.99643171 0.00000000
0.00772109 0.99814451 0.01587889
0.02074232 0.98785633 0.04407570
0.03460152 0.96922994 0.07553244
0.04926988 0.94303143 0.10995395
0.06471862 0.91002697 0.14704505
0.08091892 0.87098271 0.18651058
0.09784199 0.82666481 0.22805536
0.11545901 0.77783930 0.27138424
0.13374121 0.72527248 0.31620204
0.15265977 0.66973037 0.36221361
0.17218590 0.61197913 0.40912375
0.19229078 0.55278492 0.45663732
0.21294563 0.49291390 0.50445914
0.23412164 0.43313217 0.55229408
0.25579000 0.37420586 0.59984690
0.27792194 0.31690112 0.64682245
0.30048862 0.26198411 0.69292563
0.32346126 0.21022095 0.73786122
0.34681109 0.16237777 0.78133404
0.37050924 0.11922073 0.82304895
0.39452696 0.08151596 0.86271077
0.41883543 0.05002959 0.90002435
0.00000000 0.86585903 0.00000000
0.00179749 0.88634920 0.00000000
0.00287553 0.90598065 0.00000000
0.00333398 0.92457891 0.00000000
0.00327996 0.94197065 0.00000000
0.00282781 0.95798433 0.00000000
0.00209912 0.97245204 0.00000000
0.00122267 0.98521119 0.00000000
0.00033453 0.99610615 0.00000000
0.00725840 0.99835408 0.01490754
0.02024825 0.98838723 0.04297879
0.03407713 0.97005403 0.07432083
0.04871624 0.94412053 0.10863850
0.06413677 0.91135287 0.14563662
0.08030993 0.87251723 0.18502001
0.09720692 0.82837975 0.22649354
0.11479893 0.77970654 0.26976201
0.13305716 0.72726375 0.31453028
0.15195283 0.67181754 0.36050314
0.17145711 0.61413401 0.40738547
0.19154121 0.55497932 0.45488206
0.21217634 0.49511963 0.50269777
0.23333368 0.43532103 0.55053747
0.25498444 0.37634969 0.59810591
0.27709985 0.31897172 0.64510792
0.29965103 0.26395330 0.69124842
0.32260928 0.21206053 0.73623216
0.34594572 0.16405956 0.77976406
0.36963156 0.12071654 0.82154888
0.39363804 0.08279760 0.86129147
0.41793633 0.05106889 0.89869666
0.44249761 0.02629653 0.93346924
