CTKLset/CTKLset.cube
# VEGAS Pro LUT
TITLE "CTKLset"
LUT_3D_SIZE 5
0.00000000 0.00000000 0.00000000
0.16811693 0.02735624 0.00000000
0.27269417 0.11191392 0.00000000
0.28923503 0.27817142 0.00000000
0.22287273 0.51926857 0.00000000
0.00000000 0.24514741 0.00000000
0.09793967 0.36849460 0.00000000
0.11428565 0.56668496 0.00000000
0.06816852 0.79649544 0.00000000
0.00834882 0.97538543 0.00000000
0.00000000 0.61700672 0.00000000
0.02379026 0.81214488 0.00000000
0.00503251 0.97335935 0.00000000
0.08336461 0.86477357 0.19250080
0.23728009 0.42438868 0.55931658
0.00000000 0.97205132 0.00000000
0.07848888 0.87707764 0.18056537
0.23097384 0.44189417 0.54526544
0.41524112 0.05424313 0.89469218
0.58980948 0.08908763 1.00000000
0.22471061 0.45946401 0.53119361
0.40806994 0.06311420 0.88385987
0.58391881 0.08140928 1.00000000
0.74247396 0.35663915 1.00000000
0.88154674 0.68572682 1.00000000
0.00000000 0.00564013 0.18044665
0.15743859 0.05113588 0.15743859
0.24336347 0.16510710 0.12168173
0.24175072 0.36308467 0.08058357
0.16620630 0.62140989 0.04155158
0.00000000 0.28256071 0.12313721
0.08210430 0.43655011 0.08210430
0.08573008 0.65437937 0.04286504
0.03848071 0.87599742 0.01282690
0.01401630 0.99417657 0.02931561
0.00000000 0.68999720 0.04419096
0.01368307 0.88247681 0.01368307
0.01022276 0.99681121 0.02117059
0.13742481 0.71452409 0.32519603
0.30499044 0.25149599 0.70189434
0.00650381 0.99867028 0.01332848
0.13193969 0.73051351 0.31179816
0.29828164 0.26718467 0.68850052
0.49078372 0.00094669 0.99230963
0.65098292 0.18166144 1.00000000
0.29160824 0.28314009 0.67500800
0.48340917 0.00270119 0.98417652
0.64509028 0.17179911 1.00000000
0.79914367 0.48275065 1.00000000
0.92425561 0.79846817 1.00000000
0.00000000 0.01686174 0.34729907
0.14490700 0.08502368 0.28981400
0.21247986 0.23094554 0.21247986
0.19516745 0.45726764 0.13011163
0.11504847 0.72263932 0.05752423
0.00000000 0.33179975 0.21550485
0.06652966 0.51438439 0.13305932
0.05984959 0.74297899 0.05984959
0.01603594 0.94272876 0.01069063
0.05754507 0.92594534 0.12973759
0.00000000 0.76562387 0.06220752
0.00595063 0.94295144 0.01190126
0.05302176 0.93546718 0.11889652
0.19735259 0.53800070 0.46845555
0.37642479 0.10935174 0.83306754
0.04856543 0.94441593 0.10828037
0.19133691 0.55557764 0.45440343
0.36939228 0.12112577 0.82113928
0.55194718 0.04404579 1.00000000
0.71142298 0.29295677 1.00000000
0.36238757 0.13336897 0.80903435
0.54612482 0.03807561 1.00000000
0.70566106 0.28159904 1.00000000
0.85160625 0.60955501 1.00000000
0.95915079 0.89318502 1.00000000
0.00000000 0.03524948 0.49299869
0.13093272 0.13050127 0.39279816
0.18086448 0.30895469 0.27129674
0.15071690 0.55759168 0.15071690
0.07104146 0.81763130 0.05328110
0.00000000 0.39289191 0.27588639
0.05162632 0.59937602 0.15487897
0.03746533 0.82762796 0.05619800
0.00206593 0.99116957 0.00206593
0.10818883 0.79825670 0.25350836
0.00000000 0.83950287 0.05917516
0.00100347 0.98844278 0.00301042
0.10301461 0.81256801 0.24077944
0.26233062 0.35694447 0.61390328
0.45076579 0.01969682 0.94446021
0.09789976 0.82650858 0.22819747
0.25586328 0.37401107 0.60000515
0.44348845 0.02545839 0.93480569
0.61288244 0.12135338 1.00000000
0.76975471 0.41583723 1.00000000
0.43623129 0.03189155 0.92489654
0.60697544 0.11277036 1.00000000
0.76425618 0.40367272 1.00000000
0.89848661 0.72991574 1.00000000
0.98485726 0.96274114 1.00000000
0.00000000 0.06264082 0.61162925
0.11592627 0.18846034 0.46370506
0.14933839 0.39766780 0.29867679
0.10963073 0.65997380 0.14617431
0.03582758 0.90058440 0.03582758
0.00000000 0.46487933 0.30470753
0.03780483 0.68794018 0.15121931
0.01939836 0.90296954 0.03879672
0.02954740 0.97680539 0.06391935
0.16513029 0.63285160 0.39225182
0.00000000 0.90672469 0.04186153
0.02546933 0.98228425 0.05466247
0.15938403 0.64985448 0.37844330
0.33154163 0.19309619 0.75316316
0.52039051 0.01507632 1.00000000
0.15368952 0.66668916 0.36470371
0.32470146 0.20755470 0.74022722
0.51466596 0.01075791 1.00000000
0.67394078 0.22182705 1.00000000
0.82460302 0.54316646 1.00000000
0.50896335 0.00676301 1.00000000
0.66808182 0.21131979 1.00000000
0.81950051 0.53088379 1.00000000
0.93840975 0.83669662 1.00000000
1.00000000 1.00000000 1.00000000
