CTKLset/CTKLset.cube
# VEGAS Pro LUT
TITLE "CTKLset"
LUT_3D_SIZE 9
0.00000000 0.00000000 0.00000000
0.08931246 0.00847128 0.00000000
0.16811693 0.02735624 0.00000000
0.23057351 0.06052640 0.00000000
0.27269417 0.11191392 0.00000000
0.29234278 0.18425708 0.00000000
0.28923503 0.27817142 0.00000000
0.26493859 0.39154649 0.00000000
0.22287273 0.51926857 0.00000000
0.00000000 0.11072306 0.00000000
0.07715186 0.13615701 0.00000000
0.13702790 0.17817739 0.00000000
0.17651495 0.24004784 0.00000000
0.19435164 0.32293767 0.00000000
0.19112858 0.42530659 0.00000000
0.16928820 0.54261535 0.00000000
0.13312477 0.66736192 0.00000000
0.08878440 0.78944290 0.00000000
0.00000000 0.24514741 0.00000000
0.05920729 0.29660612 0.00000000
0.09793967 0.36849460 0.00000000
0.11581066 0.45984244 0.00000000
0.11428565 0.56668496 0.00000000
0.09668190 0.68208754 0.00000000
0.06816852 0.79649544 0.00000000
0.03576653 0.89840925 0.00000000
0.00834882 0.97538543 0.00000000
0.00000000 0.41484195 0.00000000
0.03898183 0.49515569 0.00000000
0.05785839 0.59148079 0.00000000
0.05896991 0.69745088 0.00000000
0.04650849 0.80406022 0.00000000
0.02651807 0.90032846 0.00000000
0.00689453 0.97428823 0.00000000
0.02473555 0.98320585 0.05300856
0.08582585 0.85845262 0.19853510
0.00000000 0.61700672 0.00000000
0.01997858 0.71345747 0.00000000
0.02379026 0.81214488 0.00000000
0.01650198 0.90260857 0.00000000
0.00503251 0.97335935 0.00000000
0.02272991 0.98562014 0.04850730
0.08336461 0.86477357 0.19250080
0.15549575 0.66135210 0.36906746
0.23728009 0.42438868 0.55931658
0.00000000 0.82075685 0.00000000
0.00570061 0.90525907 0.00000000
0.00274143 0.97261000 0.00000000
0.02074232 0.98785633 0.04407570
0.08091892 0.87098271 0.18651058
0.15265977 0.66973037 0.36221361
0.23412164 0.43313217 0.55229408
0.32346126 0.21022095 0.73786122
0.41883543 0.05002959 0.90002435
0.00000000 0.97205132 0.00000000
0.01877288 0.98991191 0.03971469
0.07848888 0.87707764 0.18056537
0.14983696 0.67806077 0.35537919
0.23097384 0.44189417 0.54526544
0.32005632 0.21761067 0.73133332
0.41524112 0.05424313 0.89469218
0.51077533 0.00799863 1.00000000
0.58980948 0.08908763 1.00000000
0.07607459 0.88305598 0.17466615
0.14702737 0.68634093 0.34856519
0.22783680 0.45067227 0.53823161
0.31665963 0.22508284 0.72477472
0.41165259 0.05860548 0.88930374
0.50792897 0.00607192 1.00000000
0.58686334 0.08521795 1.00000000
0.66701543 0.20942591 1.00000000
0.74528408 0.36260098 1.00000000
0.22471061 0.45946401 0.53119361
0.31327128 0.23263502 0.71818632
0.40806994 0.06311420 0.88385987
0.50508839 0.00422799 1.00000000
0.58391881 0.08140928 1.00000000
0.66408104 0.20424460 1.00000000
0.74247396 0.35663915 1.00000000
0.81599623 0.52249813 1.00000000
0.88154674 0.68572682 1.00000000
0.00000000 0.00220003 0.09138605
0.08756834 0.01425103 0.08756834
0.16303508 0.03809125 0.08151754
0.22108988 0.07778403 0.07369663
0.25827426 0.13693662 0.06456856
0.27298164 0.21756981 0.05459633
0.26545724 0.31931332 0.04424287
0.23779823 0.43892664 0.03397118
0.19395357 0.57014579 0.02424420
0.00000000 0.11873275 0.08177434
0.07401034 0.15000781 0.07401034
0.12984434 0.19930799 0.06492217
0.16491835 0.26919162 0.05497278
0.17850062 0.35984984 0.04462516
0.17171122 0.46861547 0.03434224
0.14752217 0.58979756 0.02458703
0.11075724 0.71484190 0.01582246
0.06809223 0.83281690 0.00851153
0.00000000 0.26241356 0.06527461
0.05534871 0.32159430 0.05534871
0.09001505 0.40117589 0.04500753
0.10414208 0.49906424 0.03471403
0.09972480 0.61014175 0.02493120
0.08060992 0.72641605 0.01612198
0.05249619 0.83749336 0.00874937
0.02293418 0.93137860 0.00327631
0.00132620 0.99560046 0.00016578
0.00000000 0.44329184 0.04538996
0.03508651 0.53027546 0.03508651
0.05055337 0.63118297 0.02527668
0.04927037 0.73858428 0.01642346
0.03595912 0.84262478 0.00898978
0.01719318 0.93181342 0.00343864
0.00139792 0.99413556 0.00023299
0.04656217 0.94828880 0.10353123
0.11222728 0.78695643 0.26344019
0.00000000 0.65292555 0.02562347
0.01672684 0.75135303 0.01672684
0.01846547 0.84821963 0.00923274
0.01081241 0.93253958 0.00360414
0.00121596 0.99275720 0.00030399
0.04437482 0.95240533 0.09836349
0.10961019 0.79429185 0.25700438
0.18563922 0.57229829 0.44101596
0.27061868 0.33545759 0.63150752
0.00000000 0.85428596 0.00947823
0.00377279 0.93356717 0.00377279
0.00075756 0.99147719 0.00037878
0.04220457 0.95636910 0.09325565
0.10700770 0.80154079 0.25060290
0.18267229 0.58102858 0.43401581
0.26735514 0.34386533 0.62460369
0.35921299 0.13908386 0.80347574
0.45640257 0.01571705 0.95174134
0.00000000 0.99030739 0.00045732
0.04005152 0.96017754 0.08820867
0.10441990 0.80870086 0.24423671
0.17971759 0.58973634 0.42702541
0.26410130 0.35231692 0.61768401
0.35572785 0.14547537 0.79732180
0.45275393 0.01824461 0.94704807
0.54058123 0.03264588 1.00000000
0.62040192 0.13258833 1.00000000
0.10184690 0.81576955 0.23790672
0.17677516 0.59841913 0.42004561
0.26085728 0.36080986 0.61074942
0.35225001 0.15197463 0.79112732
0.44911012 0.02094628 0.94228876
0.53768331 0.02990854 1.00000000
0.61744779 0.12813377 1.00000000
0.69724756 0.26528445 1.00000000
0.77398145 0.42526579 1.00000000
0.25762314 0.36934176 0.60380083
0.34877959 0.15857920 0.78489333
0.44547120 0.02381963 0.93746430
0.53478968 0.02724566 1.00000000
0.61449367 0.12373191 1.00000000
0.69434708 0.25973570 1.00000000
0.77124876 0.41916227 1.00000000
0.84209740 0.58591682 1.00000000
0.90379190 0.74390453 1.00000000
0.00000000 0.00564013 0.18044665
0.08549960 0.02173464 0.17099920
0.15743859 0.05113588 0.15743859
0.21103621 0.09788736 0.14069080
0.24336347 0.16510710 0.12168173
0.25334340 0.25398147 0.10133736
0.24175072 0.36308467 0.08058357
0.21121217 0.48802385 0.06034634
0.16620630 0.62140989 0.04155158
0.00000000 0.12877004 0.15799962
0.07067633 0.16649541 0.14135267
0.12241040 0.22345570 0.12241040
0.15314810 0.30138540 0.10209873
0.16268721 0.39942598 0.08134361
0.15267742 0.51375937 0.06107096
0.12662016 0.63756627 0.04220672
0.08986891 0.76131088 0.02567683
0.04962891 0.87335128 0.01240723
0.00000000 0.28256071 0.12313721
0.05142976 0.34957796 0.10285951
0.08210430 0.43655011 0.08210430
0.09269623 0.54023355 0.06179748
0.08573008 0.65437937 0.04286504
0.06558217 0.77000606 0.02623287
0.03848071 0.87599742 0.01282690
0.01250581 0.96002626 0.00357309
0.01401630 0.99417657 0.02931561
0.00000000 0.47445813 0.08286560
0.03126294 0.56744963 0.06252588
0.04352646 0.67185467 0.04352646
0.04018988 0.77924651 0.02679326
0.02650440 0.87903619 0.01325220
0.00957306 0.95938385 0.00382923
0.01211026 0.99558961 0.02520571
0.07021593 0.89722013 0.16038704
0.14018792 0.70643640 0.33193234
0.00000000 0.68999720 0.04419096
0.01367898 0.78903949 0.02735797
0.01368307 0.88247681 0.01368307
0.00613830 0.95895839 0.00409220
0.01022276 0.99681121 0.02117059
0.06785672 0.90277666 0.15465385
0.13742481 0.71452409 0.32519603
0.21708381 0.48108622 0.51390642
0.30499044 0.25149599 0.70189434
0.00000000 0.88632804 0.01411948
0.00218097 0.95876086 0.00436194
0.00835392 0.99783891 0.01721120
0.06551368 0.90820575 0.14897081
0.13467538 0.72255057 0.31848434
0.21399578 0.48990631 0.50686103
0.30163166 0.25930578 0.69521022
0.39573976 0.07978183 0.86464113
0.49447682 0.00036733 0.99626303
0.00650381 0.99867028 0.01332848
0.06318687 0.91350484 0.14333887
0.13193969 0.73051351 0.31179816
0.21091902 0.49872914 0.49981561
0.29828164 0.26718467 0.68850052
0.39218429 0.08491290 0.85896212
0.49078372 0.00094669 0.99230963
0.57082647 0.06520521 1.00000000
0.65098292 0.18166144 1.00000000
0.12921785 0.73841035 0.30513847
0.20785362 0.50755233 0.49277109
0.29494047 0.27513027 0.68176609
0.38863516 0.09017702 0.85323286
0.48709446 0.00172545 0.98828053
0.56789362 0.06174330 1.00000000
0.64803737 0.17670809 1.00000000
0.72703403 0.32446185 1.00000000
0.80178237 0.48890975 1.00000000
0.29160824 0.28314009 0.67500800
0.38509250 0.09557175 0.84745431
0.48340917 0.00270119 0.98417652
0.56496352 0.05834756 1.00000000
0.64509028 0.17179911 1.00000000
0.72418404 0.31863174 1.00000000
0.79914367 0.48275065 1.00000000
0.86686790 0.64806104 1.00000000
0.92425561 0.79846817 1.00000000
0.00000000 0.01046495 0.26608306
0.08313189 0.03114883 0.24939568
0.15137880 0.06671267 0.22706819
0.20048945 0.12098653 0.20048945
0.22806448 0.19645293 0.17104836
0.23355636 0.29336488 0.14013383
0.21826945 0.40918952 0.10913473
0.18536003 0.53837734 0.07944001
0.13983613 0.67245728 0.05243855
0.00000000 0.14108463 0.22797343
0.06717549 0.18579921 0.20152648
0.11477739 0.25067896 0.17216608
0.14128113 0.33653373 0.14128113
0.14701408 0.44140208 0.11026056
0.13415542 0.56030893 0.08049325
0.10673618 0.68534803 0.05336809
0.07063939 0.80609101 0.03027403
0.03359973 0.91032135 0.01259990
0.00000000 0.30567816 0.17328174
0.04747610 0.38049340 0.14242829
0.07425873 0.47438508 0.11138809
0.08155006 0.58295244 0.08155006
0.07240412 0.69885480 0.05430309
0.05172685 0.81220841 0.03103611
0.02627599 0.91130888 0.01313800
0.00466117 0.98367870 0.00199764
0.03484023 0.96885192 0.07608450
0.00000000 0.50814056 0.11251724
0.02753679 0.60631186 0.08261038
0.03682898 0.71298343 0.05524347
0.03180546 0.81881714 0.03180546
0.01824695 0.91262192 0.01368521
0.00378609 0.98238939 0.00227165
0.03274729 0.97210526 0.07125495
0.09559465 0.83271736 0.22252899
0.16960557 0.61961013 0.40296450
0.00000000 0.72773981 0.05618917
0.01086067 0.82592487 0.03258202
0.00949435 0.91427016 0.01424152
0.00255661 0.98123813 0.00255661
0.03067195 0.97519243 0.06649043
0.09307346 0.83945173 0.21633138
0.16670634 0.62818784 0.39602876
0.24972732 0.39043346 0.58669186
0.34029320 0.17522150 0.76942998
0.00000000 0.91626334 0.01480684
0.00095082 0.98023647 0.00285246
0.02861431 0.97811097 0.06179189
0.09056747 0.84608394 0.21017416
0.16381980 0.63672966 0.38910785
0.24652807 0.39908111 0.57970226
0.33684903 0.18217108 0.76306665
0.43293944 0.03503245 0.92031026
0.52482826 0.01863080 1.00000000
0.02657445 0.98085856 0.05716027
0.08807678 0.85261142 0.20405830
0.16094609 0.64523321 0.38220274
0.24333914 0.40775684 0.57270288
0.33341268 0.18921508 0.75666791
0.42932349 0.03864085 0.91520721
0.52195537 0.01630938 1.00000000
0.60133916 0.10478458 1.00000000
0.68138057 0.23541494 1.00000000
0.15808524 0.65369606 0.37531435
0.24016058 0.41645816 0.56569463
0.32998422 0.19635108 0.75023478
0.42571294 0.04240761 0.91004419
0.51908761 0.01406679 1.00000000
0.59838802 0.10068418 1.00000000
0.67846018 0.23004885 1.00000000
0.75620288 0.38606602 1.00000000
0.82851493 0.55264086 1.00000000
0.32656378 0.20357662 0.74376822
0.42210791 0.04633028 0.90482211
0.51622510 0.01190384 1.00000000
0.59543794 0.09664164 1.00000000
0.67553669 0.22471884 1.00000000
0.75342005 0.38004065 1.00000000
0.82598680 0.54651225 1.00000000
0.89013582 0.70803887 1.00000000
0.94276583 0.84852570 1.00000000
0.00000000 0.01686174 0.34729907
0.08049090 0.04272797 0.32196361
0.14490700 0.08502368 0.28981400
0.18952659 0.14718993 0.25270212
0.21247986 0.23094554 0.21247986
0.21374884 0.33552927 0.17099908
0.19516745 0.45726764 0.13011163
0.16042142 0.58946836 0.09166938
0.11504847 0.72263932 0.05752423
0.00000000 0.15590662 0.29109603
0.06353348 0.20805764 0.25413391
0.10699663 0.28098044 0.21399325
0.12939446 0.37447762 0.17252594
0.13158387 0.48544967 0.13158387
0.11627357 0.60777646 0.09301886
0.08802420 0.73252428 0.05868280
0.05324820 0.84847867 0.03042755
0.02021003 0.94300282 0.01010501
0.00000000 0.33179975 0.21550485
0.04351339 0.41421357 0.17405355
0.06652966 0.51438439 0.13305932
0.07078055 0.62676436 0.09437406
0.05984959 0.74297899 0.05984959
0.03917228 0.85234725 0.03133783
0.01603594 0.94272876 0.01069063
0.00204266 0.99986327 0.00412911
0.05754507 0.92594534 0.12973759
0.00000000 0.54407442 0.13453791
0.02393372 0.64643675 0.09573486
0.03051227 0.75400996 0.06102455
0.02419406 0.85664797 0.03225875
0.01128942 0.94270819 0.01128942
0.00025799 0.99999768 0.00051847
0.05527509 0.93077666 0.12428941
0.12259620 0.75749826 0.28891006
0.20037809 0.52919519 0.47548974
0.00000000 0.76562387 0.06220752
0.00829756 0.86138928 0.03319022
0.00595063 0.94295144 0.01190126
0.00014433 0.99878228 0.00019243
0.05302176 0.93546718 0.11889652
0.11992288 0.76514822 0.28234905
0.19735259 0.53800070 0.46845555
0.28346762 0.30305761 0.65832531
0.37642479 0.10935174 0.83306754
0.00000000 0.94346899 0.01252607
0.00010800 0.99741948 0.00043198
0.05078518 0.94001442 0.11355986
0.11726380 0.77272123 0.27581871
0.19433883 0.54679567 0.46142647
0.28016701 0.31127062 0.65149248
0.37290511 0.11517888 0.82712597
0.47070986 0.00755335 0.96943617
0.55486363 0.04713707 1.00000000
0.04856543 0.94441593 0.10828037
0.11461907 0.78021491 0.26931995
0.19133691 0.55557764 0.45440343
0.27687573 0.31953698 0.64464015
0.36939228 0.12112577 0.82113928
0.46704328 0.00937686 0.96501017
0.55194718 0.04404579 1.00000000
0.63194746 0.15049194 1.00000000
0.71142298 0.29295677 1.00000000
0.18834694 0.56434417 0.44738737
0.27359390 0.32785428 0.63776916
0.36588639 0.12718993 0.81510842
0.46338117 0.01138402 0.96051437
0.54903418 0.04102503 1.00000000
0.62899464 0.14583912 1.00000000
0.70854443 0.28726402 1.00000000
0.78458232 0.44920492 1.00000000
0.85400724 0.61556703 1.00000000
0.36238757 0.13336897 0.80903435
0.45972362 0.01357241 0.95594984
0.54612482 0.03807561 1.00000000
0.62604123 0.14123587 1.00000000
0.70566106 0.28159904 1.00000000
0.78188312 0.44307035 1.00000000
0.85160625 0.60955501 1.00000000
0.91172922 0.76495814 1.00000000
0.95915079 0.89318502 1.00000000
0.00000000 0.02504624 0.42320126
0.07760227 0.05670247 0.38801134
0.13807453 0.10624149 0.34518632
0.17822465 0.17655782 0.29704109
0.19671232 0.26849645 0.24589039
0.19404915 0.38021907 0.19404915
0.17259859 0.50689602 0.14383215
0.13657595 0.64072412 0.09755425
0.09204847 0.77126962 0.05753029
0.00000000 0.17343745 0.34687027
0.05977595 0.23336147 0.29887974
0.09911944 0.31430322 0.24779859
0.11756507 0.41499349 0.19594178
0.11649919 0.53117746 0.14562398
0.09916015 0.65562004 0.09916015
0.07063812 0.77843750 0.05886510
0.03787512 0.88775402 0.02705365
0.00966501 0.97068471 0.00604063
0.00000000 0.36090013 0.24970576
0.03956729 0.45054674 0.19783646
0.05896841 0.55618817 0.14742103
0.06046466 0.67115808 0.10077443
0.04816911 0.78612345 0.06021138
0.02804682 0.88972938 0.02804682
0.00791462 0.96956992 0.00659551
0.02164352 0.98686212 0.04608137
0.08202866 0.86817437 0.18922788
0.00000000 0.58193159 0.14922321
0.02047938 0.68734366 0.10239691
0.02462763 0.79433489 0.06156906
0.01743268 0.89207280 0.02905447
0.00573441 0.96863180 0.00716802
0.01966582 0.98900008 0.04168816
0.07959150 0.87432152 0.18326209
0.15111841 0.67428035 0.35848328
0.23240332 0.43790931 0.54846096
0.00000000 0.80307943 0.06293796
0.00601531 0.89479339 0.03007654
0.00310323 0.96788132 0.00775807
0.01770632 0.99095619 0.03736605
0.07717004 0.88035315 0.17734186
0.14830281 0.68258363 0.35165989
0.22926140 0.44668040 0.54142940
0.31820256 0.22167633 0.72775966
0.41328302 0.05660430 0.89175993
0.00000000 0.96732980 0.00836551
0.01576510 0.99272794 0.03311599
0.07476437 0.88626683 0.17146811
0.14550051 0.69083530 0.34485739
0.22613026 0.45546624 0.53439319
0.31481040 0.22919245 0.72118467
0.40969768 0.06104679 0.88634115
0.50637883 0.00505583 1.00000000
0.58525699 0.08313288 1.00000000
0.07237459 0.89206010 0.16564177
0.14271159 0.69903296 0.33807677
0.22301003 0.46426439 0.52735323
0.31142667 0.23678723 0.71458042
0.40611824 0.06563433 0.88086754
0.50354153 0.00325738 1.00000000
0.58231348 0.07935780 1.00000000
0.66247946 0.20143524 1.00000000
0.74093837 0.35339487 1.00000000
0.21990079 0.47307241 0.52031052
0.30805141 0.24445826 0.70794779
0.40254480 0.07036445 0.87533998
0.50071025 0.00154294 1.00000000
0.57937181 0.07564496 1.00000000
0.65954149 0.19631609 1.00000000
0.73811811 0.34746155 1.00000000
0.81200045 0.51298654 1.00000000
0.87808740 0.67679626 1.00000000
0.39897746 0.07523473 0.86975950
0.49783748 0.00001575 0.99979037
0.57643223 0.07199513 1.00000000
0.65660137 0.19123818 1.00000000
0.73529154 0.34154770 1.00000000
0.80940151 0.50682884 1.00000000
0.87583017 0.67098683 1.00000000
0.93147624 0.81792688 1.00000000
0.97323859 0.93155420 1.00000000
0.00000000 0.03524948 0.49299869
0.07449165 0.07328826 0.44694990
0.13093272 0.13050127 0.39279816
0.16666055 0.20909710 0.33332109
0.18086448 0.30895469 0.27129674
0.17458558 0.42711395 0.20950270
0.15071690 0.55759168 0.15071690
0.11400331 0.69152343 0.09771712
0.07104146 0.81763130 0.05328110
0.00000000 0.19384190 0.39490172
0.05592857 0.26174864 0.33557141
0.09119716 0.35052812 0.27359149
0.10586987 0.45779300 0.21173975
0.10186273 0.57813358 0.15279409
0.08294351 0.70324838 0.09953222
0.05473195 0.82239890 0.05473195
0.02469959 0.92319107 0.02117108
0.00216997 0.99268180 0.00162748
0.00000000 0.39289191 0.27588639
0.03566346 0.48923641 0.21398078
0.05162632 0.59937602 0.15487897
0.05067938 0.71557242 0.10135876
0.03746533 0.82762796 0.05619800
0.01847871 0.92365479 0.02217445
0.00206593 0.99116957 0.00206593
0.04318892 0.95458651 0.09556991
0.10818883 0.79825670 0.25350836
0.00000000 0.62132311 0.15697137
0.01719943 0.72850186 0.10319661
0.01922636 0.83332658 0.05767907
0.01159830 0.92441738 0.02319659
0.00168464 0.98975271 0.00252695
0.04102804 0.95846581 0.09049515
0.10559434 0.80545747 0.24712600
0.18105912 0.58578122 0.43020159
0.26557910 0.34847000 0.62083119
0.00000000 0.83950287 0.05917516
0.00403958 0.92548883 0.02423747
0.00100347 0.98844278 0.00301042
0.03888441 0.96218854 0.08548175
0.10301461 0.81256801 0.24077944
0.17811109 0.59447569 0.42321685
0.26233062 0.35694447 0.61390328
0.35382992 0.14900723 0.79394794
0.45076579 0.01969682 0.94446021
0.00000000 0.98725170 0.00351620
0.03675811 0.96575224 0.08053064
0.10044972 0.81958586 0.23446962
0.17517541 0.60314375 0.41624328
0.25909197 0.36545897 0.60696095
0.35035613 0.15556423 0.78773183
0.44712463 0.02249243 0.93966526
0.53610444 0.02844677 1.00000000
0.61583644 0.12572618 1.00000000
0.09789976 0.82650858 0.22819747
0.17225218 0.61178315 0.40928182
0.25586328 0.37401107 0.60000515
0.34688976 0.16222520 0.78147668
0.44348845 0.02545839 0.93480569
0.53321314 0.02582485 1.00000000
0.61288244 0.12135338 1.00000000
0.69276333 0.25672245 1.00000000
0.76975471 0.41583723 1.00000000
0.25264460 0.38259837 0.59303683
0.34343094 0.16898772 0.77518338
0.43985730 0.02859224 0.92988247
0.53032637 0.02327864 1.00000000
0.60992873 0.11703451 1.00000000
0.68985677 0.25122303 1.00000000
0.76700944 0.40974939 1.00000000
0.83828539 0.57651883 1.00000000
0.90058351 0.73543650 1.00000000
0.43623129 0.03189155 0.92489654
0.52744424 0.02080893 1.00000000
0.60697544 0.11277036 1.00000000
0.68694651 0.24575655 1.00000000
0.76425618 0.40367272 1.00000000
0.83580327 0.57042408 1.00000000
0.89848661 0.72991574 1.00000000
0.94920504 0.86605304 1.00000000
0.98485726 0.96274114 1.00000000
0.00000000 0.04770563 0.55600321
0.07118472 0.09267727 0.49829307
0.12353285 0.15789400 0.43236497
0.15491131 0.24475700 0.36145973
0.16503894 0.35210517 0.28881815
0.15548643 0.47582975 0.21768099
0.12967631 0.60881478 0.15128903
0.09288300 0.74120265 0.09288300
0.05223274 0.86098611 0.04570365
0.00000000 0.21724109 0.43489844
0.05201699 0.29319969 0.36411893
0.08328108 0.38947198 0.29148379
0.09438593 0.50252360 0.22023383
0.08777708 0.62580943 0.15360989
0.06775185 0.75002730 0.09485260
0.04045960 0.86369777 0.04720287
0.01390141 0.95406914 0.01390141
0.01107841 0.99627984 0.02299541
0.00000000 0.42762369 0.29415128
0.03182757 0.52996188 0.22279298
0.04455468 0.64347029 0.15594138
0.04150171 0.75940281 0.09683732
0.02784085 0.86680901 0.04872149
0.01059625 0.95342726 0.01483475
0.00920107 0.99739599 0.01900148
0.06657669 0.90575397 0.15154773
0.13592343 0.71890992 0.32153201
0.00000000 0.66180229 0.15828335
0.01411955 0.76933604 0.09883685
0.01435982 0.87032890 0.05025936
0.00676788 0.95301044 0.01579173
0.00734244 0.99831688 0.01508379
0.06424249 0.91111243 0.14589246
0.13318148 0.72690201 0.31483412
0.21231616 0.49471858 0.50301802
0.29980329 0.26359493 0.69155347
0.00000000 0.87426603 0.05181637
0.00239602 0.95282936 0.01677217
0.00550259 0.99904019 0.01124328
0.06192458 0.91633958 0.14028879
0.13045332 0.73482925 0.30816224
0.20924558 0.50354189 0.49597296
0.29645807 0.27151051 0.68483019
0.39024761 0.08776790 0.85584319
0.48877090 0.00134690 0.99012130
0.00368163 0.99956334 0.00748089
0.05962307 0.92143303 0.13473767
0.12773907 0.74268901 0.30151740
0.20618638 0.51236421 0.48892933
0.29312178 0.27949145 0.67808276
0.38670200 0.09310357 0.85008693
0.48508382 0.00223341 0.98605120
0.56629503 0.05988283 1.00000000
0.64643002 0.17402491 1.00000000
0.12503879 0.75047904 0.29490045
0.20313868 0.52118313 0.48188806
0.28979447 0.28753531 0.67131209
0.38316289 0.09856851 0.84428191
0.48140070 0.00331557 0.98190671
0.56336641 0.05652351 1.00000000
0.64348215 0.16914047 1.00000000
0.72262716 0.31546149 1.00000000
0.79770023 0.47939178 1.00000000
0.28647622 0.29563963 0.66451919
0.37963036 0.10416029 0.83842903
0.47772172 0.00459092 0.97768891
0.56044066 0.05323159 1.00000000
0.64053297 0.16430166 1.00000000
0.71976864 0.30966792 1.00000000
0.79504645 0.47323552 1.00000000
0.86326522 0.63890970 1.00000000
0.92132372 0.79059565 1.00000000
0.47404689 0.00605703 0.97339857
0.55751789 0.05000787 1.00000000
0.63758260 0.15950926 1.00000000
0.71690476 0.30389893 1.00000000
0.79238313 0.46708211 1.00000000
0.86091655 0.63296396 1.00000000
0.91940379 0.78544968 1.00000000
0.96474367 0.90844458 1.00000000
0.99383503 0.98585373 1.00000000
0.00000000 0.06264082 0.61162925
0.06770713 0.11502887 0.54165703
0.11592627 0.18846034 0.46370506
0.14305389 0.28342572 0.38147706
0.14933839 0.39766780 0.29867679
0.13687998 0.52592057 0.21900797
0.10963073 0.65997380 0.14617431
0.07339464 0.78906280 0.08387959
0.03582758 0.90058440 0.03582758
0.00000000 0.24370649 0.46667129
0.04806687 0.32763457 0.38453496
0.07542254 0.43088654 0.30169016
0.08319019 0.54877090 0.22184050
0.07434487 0.67364377 0.14868975
0.05371358 0.79528666 0.08594173
0.02797508 0.90161055 0.03730011
0.00566002 0.97968549 0.00646859
0.03161310 0.97380990 0.06864800
0.00000000 0.46487933 0.30470753
0.02808526 0.57234031 0.22468209
0.03780483 0.68794018 0.15121931
0.03300861 0.80200773 0.08802295
0.01939836 0.90296954 0.03879672
0.00452772 0.97836745 0.00724435
0.02954740 0.97680539 0.06391935
0.09170467 0.84308213 0.21296783
0.16513029 0.63285160 0.39225182
0.00000000 0.70286882 0.15376270
0.01126538 0.80923384 0.09012306
0.01007931 0.90467113 0.04031724
0.00301840 0.97719598 0.00804907
0.02749945 0.97963101 0.05925719
0.08920701 0.84965748 0.20683305
0.16225073 0.64137286 0.38533941
0.24478737 0.40380999 0.57588553
0.33497369 0.18600172 0.75958073
0.00000000 0.90672469 0.04186153
0.00111032 0.97618234 0.00888252
0.02546933 0.98228425 0.05466247
0.08672469 0.85612690 0.20074014
0.15938403 0.64985448 0.37844330
0.24160407 0.41249999 0.56888121
0.33154163 0.19309619 0.75316316
0.42735341 0.04067597 0.91239840
0.52039051 0.01507632 1.00000000
0.02345715 0.98476273 0.05013612
0.08425781 0.86248785 0.19469003
0.15653025 0.65829408 0.37156442
0.23843123 0.42121428 0.56186855
0.32811752 0.20028134 0.74671167
0.42374587 0.04452807 0.90720302
0.51752555 0.01287708 1.00000000
0.59677875 0.09847194 1.00000000
0.67686594 0.22713704 1.00000000
0.15368952 0.66668916 0.36470371
0.23526894 0.42995045 0.55484849
0.32470146 0.20755470 0.74022722
0.42014387 0.04853476 0.90194917
0.51466596 0.01075791 1.00000000
0.59382933 0.09446129 1.00000000
0.67394078 0.22182705 1.00000000
0.75189906 0.37676036 1.00000000
0.82460302 0.54316646 1.00000000
0.32129353 0.21491383 0.73371071
0.41654748 0.05269359 0.89663774
0.51181185 0.00871962 1.00000000
0.59088117 0.09050975 1.00000000
0.67101270 0.21655436 1.00000000
0.74910516 0.37075865 1.00000000
0.82205731 0.53702784 1.00000000
0.88676810 0.69926715 1.00000000
0.94013619 0.84138173 1.00000000
0.50896335 0.00676301 1.00000000
0.58793449 0.08661810 1.00000000
0.66808182 0.21131979 1.00000000
0.74630427 0.36477327 1.00000000
0.81950051 0.53088379 1.00000000
0.88456941 0.69355649 1.00000000
0.93840975 0.83669662 1.00000000
0.97792035 0.94420940 1.00000000
1.00000000 1.00000000 1.00000000
