Faded_Major/Faded Major (Gradient Map Only).cube
# VEGAS Pro LUT
TITLE "Faded Major (Gradient Only)"
LUT_3D_SIZE 9
0.12367491 0.00000000 0.00000000
0.22708386 0.00000000 0.00000000
0.42777929 0.00000000 0.00000000
0.66377717 0.00000000 0.00000000
0.87309349 0.00000000 0.00000000
0.99374408 0.00000000 0.00000000
0.92228812 0.00000000 0.00000000
0.74216276 0.00000000 0.00000000
0.51060134 0.00000000 0.00000000
0.41939083 0.00000000 0.00000000
0.65518820 0.00000000 0.00000000
0.86658430 0.00000000 0.00000000
0.99159509 0.00000000 0.00000000
0.92732096 0.00000000 0.00000000
0.74999064 0.00000000 0.00000000
0.51948285 0.00000000 0.00000000
0.28313100 0.00000000 0.00000000
0.08826839 0.00000000 0.00000000
0.85995817 0.00000000 0.00000000
0.98924530 0.00000000 0.00000000
0.93221778 0.00000000 0.00000000
0.75774652 0.00000000 0.00000000
0.52835643 0.00000000 0.00000000
0.29138094 0.00000000 0.00000000
0.09415333 0.00000000 0.00000000
0.00000000 0.00855181 0.00855181
0.01233194 0.05177101 0.05177101
0.93697619 0.00000000 0.00000000
0.76542807 0.00000000 0.00000000
0.53721976 0.00000000 0.00000000
0.29968470 0.00000000 0.00000000
0.10015614 0.00000000 0.00000000
0.00000000 0.00719455 0.00719455
0.01151603 0.04997548 0.04997548
0.04253789 0.10379659 0.10379659
0.09016952 0.16684540 0.16684540
0.54607052 0.00000000 0.00000000
0.30803987 0.00000000 0.00000000
0.10627444 0.00000000 0.00000000
0.00000000 0.00585469 0.00585469
0.01072623 0.04819489 0.04819489
0.04108592 0.10164195 0.10164195
0.08815397 0.16438340 0.16438340
0.14925042 0.23460673 0.23460673
0.22169527 0.31049949 0.31049949
0.11250589 0.00000000 0.00000000
0.00000000 0.00453231 0.00453231
0.00996268 0.04642934 0.04642934
0.03965656 0.09949990 0.09949990
0.08615740 0.16193151 0.16193151
0.14678524 0.23191172 0.23191172
0.21886007 0.30762801 0.30762801
0.29970196 0.38726792 0.38726792
0.38663086 0.46901897 0.46901897
0.00922549 0.04467891 0.04467891
0.03824995 0.09737051 0.09737051
0.08417996 0.15948986 0.15948986
0.14433555 0.22922446 0.22922446
0.21603675 0.30476183 0.30476183
0.29660356 0.38428950 0.38428950
0.38335603 0.46599501 0.46599501
0.47361416 0.54806584 0.54806584
0.56469798 0.62868953 0.62868953
0.08222177 0.15705851 0.15705851
0.14190149 0.22654507 0.22654507
0.21322542 0.30190107 0.30190107
0.29351357 0.38131407 0.38131407
0.38008595 0.46297154 0.46297154
0.47026259 0.54506105 0.54506105
0.56136352 0.62577009 0.62577009
0.65070873 0.70328617 0.70328617
0.73561829 0.77579683 0.77579683
0.21042623 0.29904580 0.29904580
0.29043207 0.37834165 0.37834165
0.37682074 0.45994866 0.45994866
0.46691227 0.54205441 0.54205441
0.55802667 0.62284631 0.62284631
0.64748400 0.70051199 0.70051199
0.73260421 0.77323896 0.77323896
0.81070739 0.83921462 0.83921462
0.87911350 0.89662665 0.89662665
0.14768171 0.00000000 0.00000000
0.29549429 0.00000000 0.00000000
0.51696068 0.00000000 0.00000000
0.75009674 0.00000000 0.00000000
0.93291849 0.00000000 0.00000000
0.98728788 0.00000000 0.00000000
0.86269099 0.00000000 0.00000000
0.65737152 0.00000000 0.00000000
0.41866282 0.00000000 0.00000000
0.50822675 0.00000000 0.00000000
0.74203175 0.00000000 0.00000000
0.92780280 0.00000000 0.00000000
0.98971939 0.00000000 0.00000000
0.86899489 0.00000000 0.00000000
0.66580653 0.00000000 0.00000000
0.42748752 0.00000000 0.00000000
0.20137127 0.00000000 0.00000000
0.03479106 0.00000000 0.00000000
0.92253816 0.00000000 0.00000000
0.99197519 0.00000000 0.00000000
0.87518722 0.00000000 0.00000000
0.67419392 0.00000000 0.00000000
0.43632874 0.00000000 0.00000000
0.20892490 0.00000000 0.00000000
0.03931576 0.00000000 0.00000000
0.00217029 0.02362034 0.02362034
0.02229267 0.07123720 0.07123720
0.88126552 0.00000000 0.00000000
0.68253148 0.00000000 0.00000000
0.44518411 0.00000000 0.00000000
0.21655676 0.00000000 0.00000000
0.04398275 0.00000000 0.00000000
0.00181122 0.02208811 0.02208811
0.02121405 0.06929213 0.06929213
0.05888484 0.12684527 0.12684527
0.11214361 0.19293506 0.19293506
0.45405129 0.00000000 0.00000000
0.22426449 0.00000000 0.00000000
0.04878966 0.00000000 0.00000000
0.00148050 0.02057235 0.02057235
0.02016015 0.06736106 0.06736106
0.05720636 0.12456559 0.12456559
0.10993914 0.19037344 0.19037344
0.17567851 0.26297215 0.26297215
0.25174451 0.34054920 0.34054920
0.05373415 0.00000000 0.00000000
0.00117826 0.01907314 0.01907314
0.01913111 0.06544410 0.06544410
0.05554911 0.12229754 0.12229754
0.10775228 0.18782100 0.18782100
0.17306063 0.26020199 0.26020199
0.24879418 0.33762801 0.33762801
0.33227298 0.41828662 0.41828662
0.42081702 0.50036532 0.50036532
0.01812707 0.06354132 0.06354132
0.05391323 0.12004123 0.12004123
0.10558315 0.18527783 0.18527783
0.17045686 0.25743866 0.25743866
0.24585436 0.33471119 0.33471119
0.32909569 0.41528299 0.41528299
0.41750088 0.49734157 0.49734157
0.50838995 0.57907444 0.57907444
0.59908289 0.65866911 0.65866911
0.10343190 0.18274404 0.18274404
0.16786733 0.25468224 0.25468224
0.24292515 0.33179885 0.33179885
0.32592541 0.41228136 0.41228136
0.41418809 0.49431735 0.49431735
0.50503325 0.57609433 0.57609433
0.59578091 0.65579975 0.65579975
0.68375105 0.73162121 0.73162121
0.76626372 0.80174619 0.80174619
0.24000670 0.32889104 0.32889104
0.32276222 0.40928185 0.40928185
0.41087881 0.49129280 0.49129280
0.50167644 0.57311141 0.57311141
0.59247512 0.65292519 0.65292519
0.68059498 0.72892165 0.72892165
0.76335591 0.79928827 0.79928827
0.83807796 0.86221272 0.86221272
0.90208119 0.91588235 0.91588235
0.19140586 0.00000000 0.00000000
0.37461162 0.00000000 0.00000000
0.60783839 0.00000000 0.00000000
0.82910222 0.00000000 0.00000000
0.97641903 0.00000000 0.00000000
0.95231658 0.00000000 0.00000000
0.79135948 0.00000000 0.00000000
0.56772661 0.00000000 0.00000000
0.32875133 0.00000000 0.00000000
0.59909058 0.00000000 0.00000000
0.82189274 0.00000000 0.00000000
0.97302818 0.00000000 0.00000000
0.95642990 0.00000000 0.00000000
0.79868126 0.00000000 0.00000000
0.57651556 0.00000000 0.00000000
0.33726609 0.00000000 0.00000000
0.12826614 0.00000000 0.00000000
0.00000000 0.00136118 0.00136118
0.96945649 0.00000000 0.00000000
0.96039194 0.00000000 0.00000000
0.80591589 0.00000000 0.00000000
0.58528143 0.00000000 0.00000000
0.34582177 0.00000000 0.00000000
0.13487032 0.00000000 0.00000000
0.00000000 0.00009991 0.00009991
0.00752870 0.04044707 0.04044707
0.03489463 0.09219813 0.09219813
0.81306100 0.00000000 0.00000000
0.59402180 0.00000000 0.00000000
0.35441604 0.00000000 0.00000000
0.14157715 0.00000000 0.00000000
0.00283843 0.00000000 0.00000000
0.00688365 0.03874958 0.03874958
0.03356763 0.09011320 0.09011320
0.07749777 0.15113491 0.15113491
0.13599409 0.22000222 0.22000222
0.36304656 0.00000000 0.00000000
0.14838429 0.00000000 0.00000000
0.00608081 0.00000000 0.00000000
0.00626558 0.03706761 0.03706761
0.03226397 0.08804135 0.08804135
0.07560712 0.14873986 0.14873986
0.13361505 0.21735065 0.21735065
0.20360775 0.29206124 0.29206124
0.28290528 0.37105918 0.37105918
0.00948519 0.00000000 0.00000000
0.00567460 0.03540125 0.03540125
0.03098379 0.08598267 0.08598267
0.07373632 0.14635551 0.14635551
0.13125221 0.21470733 0.21470733
0.20085150 0.28922564 0.28922564
0.27985421 0.36809793 0.36809793
0.36558035 0.44951177 0.44951177
0.45534992 0.53165466 0.53165466
0.02972721 0.08393723 0.08393723
0.07188550 0.14398198 0.14398198
0.12890574 0.21207236 0.21207236
0.19810797 0.28639591 0.28639591
0.27681223 0.36514017 0.36514017
0.36233848 0.44649261 0.44649261
0.45200679 0.52864075 0.52864075
0.54313719 0.60977221 0.60977221
0.63304967 0.68807435 0.68807435
0.12657575 0.20944582 0.20944582
0.19537731 0.28357217 0.28357217
0.27377945 0.36218590 0.36218590
0.35910222 0.44347450 0.44347450
0.44866565 0.52562553 0.52562553
0.53978974 0.60682642 0.60682642
0.62979448 0.68526483 0.68526483
0.71599996 0.75912815 0.75912815
0.79572618 0.82660401 0.82660401
0.27075607 0.35923526 0.35923526
0.35587171 0.44045758 0.44045758
0.44532660 0.52260900 0.52260900
0.53644073 0.60387695 0.60387695
0.62653416 0.68244910 0.68244910
0.71292692 0.75651288 0.75651288
0.79293895 0.82425582 0.82425582
0.86389035 0.88386542 0.88386542
0.92310113 0.93352926 0.93352926
0.25141189 0.00000000 0.00000000
0.46100035 0.00000000 0.00000000
0.69697714 0.00000000 0.00000000
0.89735824 0.00000000 0.00000000
0.99982786 0.00000000 0.00000000
0.90135348 0.00000000 0.00000000
0.71091688 0.00000000 0.00000000
0.47585139 0.00000000 0.00000000
0.24349026 0.00000000 0.00000000
0.68854684 0.00000000 0.00000000
0.89133573 0.00000000 0.00000000
0.99882519 0.00000000 0.00000000
0.90689552 0.00000000 0.00000000
0.71900350 0.00000000 0.00000000
0.48474118 0.00000000 0.00000000
0.25144193 0.00000000 0.00000000
0.06643904 0.00000000 0.00000000
0.00055802 0.01546399 0.01546399
0.99727792 0.00000000 0.00000000
0.91231072 0.00000000 0.00000000
0.72702736 0.00000000 0.00000000
0.49363232 0.00000000 0.00000000
0.25945896 0.00000000 0.00000000
0.07184064 0.00000000 0.00000000
0.00035522 0.01402265 0.01402265
0.01576938 0.05893157 0.05893157
0.04998930 0.11455332 0.11455332
0.73498607 0.00000000 0.00000000
0.50252235 0.00000000 0.00000000
0.26753902 0.00000000 0.00000000
0.07736931 0.00000000 0.00000000
0.00018149 0.01259826 0.01259826
0.01485270 0.05707849 0.05707849
0.04842824 0.11233824 0.11233824
0.09822815 0.17656504 0.17656504
0.16157244 0.24794640 0.24794640
0.27567971 0.00000000 0.00000000
0.08302270 0.00000000 0.00000000
0.00003698 0.01119091 0.01119091
0.01396160 0.05524001 0.05524001
0.04688915 0.11013530 0.11013530
0.09613966 0.17406432 0.17406432
0.15903315 0.24521458 0.24521458
0.23288962 0.32177359 0.32177359
0.31502911 0.40192887 0.40192887
0.00000000 0.00980069 0.00980069
0.01309622 0.05341620 0.05341620
0.04537215 0.10794459 0.10794459
0.09406963 0.17157337 0.17157337
0.15650868 0.24249008 0.24249008
0.23000933 0.31888223 0.31888223
0.31189159 0.39893731 0.39893731
0.39947549 0.48084289 0.48084289
0.49008104 0.56278646 0.56278646
0.04387738 0.10576619 0.10576619
0.09201820 0.16909228 0.16909228
0.15399919 0.23977299 0.23977299
0.22714038 0.31599581 0.31599581
0.30876178 0.39594826 0.39594826
0.39618337 0.47781789 0.47781789
0.48672524 0.55979216 0.55979216
0.57770741 0.64005870 0.64005870
0.66644984 0.71680486 0.71680486
0.15150481 0.23706341 0.23706341
0.22428291 0.31311443 0.31311443
0.30563980 0.39296180 0.39296180
0.39289552 0.47479302 0.47479302
0.48337007 0.55679554 0.55679554
0.57438350 0.63715702 0.63715702
0.66325581 0.71406484 0.71406484
0.74730706 0.78570658 0.78570658
0.82385719 0.85026979 0.85026979
0.30252582 0.38997802 0.38997802
0.38961199 0.47176835 0.47176835
0.48001561 0.55379671 0.55379671
0.57105672 0.63425064 0.63425064
0.66005528 0.71131766 0.71131766
0.74433136 0.78318524 0.78318524
0.82120496 0.84804100 0.84804100
0.88799608 0.90407234 0.90407234
0.94202477 0.94946688 0.94946688
0.32426441 0.00000000 0.00000000
0.55122507 0.00000000 0.00000000
0.78094143 0.00000000 0.00000000
0.95142931 0.00000000 0.00000000
0.97614205 0.00000000 0.00000000
0.83702213 0.00000000 0.00000000
0.62398672 0.00000000 0.00000000
0.38436928 0.00000000 0.00000000
0.16550305 0.00000000 0.00000000
0.77316016 0.00000000 0.00000000
0.94692528 0.00000000 0.00000000
0.97923762 0.00000000 0.00000000
0.84373969 0.00000000 0.00000000
0.63258499 0.00000000 0.00000000
0.39310682 0.00000000 0.00000000
0.17263851 0.00000000 0.00000000
0.01851339 0.00000000 0.00000000
0.00433978 0.03137788 0.03137788
0.98216671 0.00000000 0.00000000
0.85035485 0.00000000 0.00000000
0.64114487 0.00000000 0.00000000
0.40187007 0.00000000 0.00000000
0.17986375 0.00000000 0.00000000
0.02245926 0.00000000 0.00000000
0.00384346 0.02976616 0.02976616
0.02674382 0.07897336 0.07897336
0.06742812 0.13820235 0.13820235
0.64966410 0.00000000 0.00000000
0.41065669 0.00000000 0.00000000
0.18717642 0.00000000 0.00000000
0.02655664 0.00000000 0.00000000
0.00337483 0.02817046 0.02817046
0.02556982 0.07697440 0.07697440
0.06564736 0.13586681 0.13586681
0.12092745 0.20303521 0.20303521
0.18873012 0.27666712 0.27666712
0.19457419 0.00000000 0.00000000
0.03080316 0.00000000 0.00000000
0.00293404 0.02659087 0.02659087
0.02442003 0.07498909 0.07498909
0.06388716 0.13354246 0.13354246
0.11865544 0.20043851 0.20043851
0.18604492 0.27386475 0.27386475
0.26337558 0.35200870 0.35200870
0.34796745 0.43305790 0.43305790
0.00252121 0.02502747 0.02502747
0.02329458 0.07301753 0.07301753
0.06214768 0.13122942 0.13122942
0.11640052 0.19785066 0.19785066
0.18337315 0.27106878 0.27106878
0.26038557 0.34907129 0.34907129
0.34475780 0.43004569 0.43004569
0.43380988 0.51217955 0.51217955
0.52486181 0.59366035 0.59366035
0.06042904 0.12892775 0.12892775
0.11416283 0.19527173 0.19527173
0.18071498 0.26827925 0.26827925
0.25740552 0.34613788 0.34613788
0.34155449 0.42703506 0.42703506
0.43048188 0.50915837 0.50915837
0.52150768 0.59069532 0.59069532
0.61195201 0.66983342 0.66983342
0.69913483 0.74476022 0.74476022
0.17807053 0.26549631 0.26549631
0.25443557 0.34320858 0.34320858
0.33835763 0.42402610 0.42402610
0.42715669 0.50613642 0.50613642
0.51815283 0.58772707 0.58772707
0.60866600 0.66698551 0.66698551
0.69601631 0.74209934 0.74209934
0.77752370 0.81125599 0.81125599
0.85050821 0.87264311 0.87264311
0.33516738 0.42101887 0.42101887
0.42383450 0.50311375 0.50311375
0.51479727 0.58475560 0.58475560
0.60537571 0.66413200 0.66413200
0.69288987 0.73943037 0.73943037
0.77465969 0.80883837 0.80883837
0.84800524 0.87054342 0.87054342
0.91024655 0.92273301 0.92273301
0.95870364 0.96359479 0.96359479
0.40652797 0.00000000 0.00000000
0.64185041 0.00000000 0.00000000
0.85629576 0.00000000 0.00000000
0.98788005 0.00000000 0.00000000
0.93483061 0.00000000 0.00000000
0.76194578 0.00000000 0.00000000
0.53319240 0.00000000 0.00000000
0.29590374 0.00000000 0.00000000
0.09741313 0.00000000 0.00000000
0.84949505 0.00000000 0.00000000
0.98522592 0.00000000 0.00000000
0.93951255 0.00000000 0.00000000
0.76958585 0.00000000 0.00000000
0.54204917 0.00000000 0.00000000
0.30423585 0.00000000 0.00000000
0.10347922 0.00000000 0.00000000
0.00000000 0.00646155 0.00646155
0.01108199 0.04900239 0.04900239
0.94405240 0.00000000 0.00000000
0.77714789 0.00000000 0.00000000
0.55089200 0.00000000 0.00000000
0.31261811 0.00000000 0.00000000
0.10965954 0.00000000 0.00000000
0.00000000 0.00513122 0.00513122
0.01030649 0.04722999 0.04722999
0.04030345 0.10047200 0.10047200
0.08706257 0.16304475 0.16304475
0.55971855 0.00000000 0.00000000
0.32104814 0.00000000 0.00000000
0.11595171 0.00000000 0.00000000
0.00000000 0.00381842 0.00381842
0.00955730 0.04547268 0.04547268
0.03888649 0.09833684 0.09833684
0.08507642 0.16059843 0.16059843
0.14544712 0.23044497 0.23044497
0.21731861 0.30606398 0.30606398
0.12235339 0.00000000 0.00000000
0.00000000 0.00252324 0.00252324
0.00883455 0.04373053 0.04373053
0.03749234 0.09621441 0.09621441
0.08310946 0.15816239 0.15816239
0.14300594 0.22776198 0.22776198
0.21450180 0.30320075 0.30320075
0.29491708 0.38266617 0.38266617
0.38157177 0.46434578 0.46434578
0.00813839 0.04200365 0.04200365
0.03612114 0.09410477 0.09410477
0.08116183 0.15573668 0.15573668
0.14058046 0.22508691 0.22508691
0.21169707 0.30034298 0.30034298
0.29183170 0.37969235 0.37969235
0.37830430 0.46132264 0.46132264
0.46843499 0.54342127 0.54342127
0.55954373 0.62417585 0.62417585
0.07923365 0.15332144 0.15332144
0.13817082 0.22241983 0.22241983
0.20890456 0.29749072 0.29749072
0.28875488 0.37672165 0.37672165
0.37504181 0.45830011 0.45830011
0.46508539 0.54041362 0.54041362
0.55620563 0.62124974 0.62124974
0.64572251 0.69899601 0.69899601
0.73095614 0.77183986 0.77183986
0.20612438 0.29464412 0.29464412
0.28568679 0.37375408 0.37375408
0.37178442 0.45527831 0.45527831
0.46173728 0.53740430 0.53740430
0.55286539 0.61831951 0.61831951
0.64248878 0.69621152 0.69621152
0.72792739 0.76926786 0.76926786
0.80650139 0.83567601 0.83567601
0.87553072 0.89362353 0.89362353
0.36853224 0.45225734 0.45225734
0.45839074 0.53439325 0.53439325
0.54952312 0.61538517 0.61538517
0.63924932 0.69342053 0.69342053
0.72488940 0.76668686 0.76668686
0.80376339 0.83337170 0.83337170
0.87319136 0.89166260 0.89166260
0.93049324 0.93974698 0.93974698
0.97298908 0.97581249 0.97581249
0.49476716 0.00000000 0.00000000
0.72944093 0.00000000 0.00000000
0.91960484 0.00000000 0.00000000
0.99313068 0.00000000 0.00000000
0.87851691 0.00000000 0.00000000
0.67874801 0.00000000 0.00000000
0.44115734 0.00000000 0.00000000
0.21307819 0.00000000 0.00000000
0.04184390 0.00000000 0.00000000
0.91411614 0.00000000 0.00000000
0.99511033 0.00000000 0.00000000
0.88453209 0.00000000 0.00000000
0.68705732 0.00000000 0.00000000
0.45001945 0.00000000 0.00000000
0.22075172 0.00000000 0.00000000
0.04658750 0.00000000 0.00000000
0.00162730 0.02125929 0.02125929
0.02063612 0.06823707 0.06823707
0.89042962 0.00000000 0.00000000
0.69531310 0.00000000 0.00000000
0.45889208 0.00000000 0.00000000
0.22849983 0.00000000 0.00000000
0.05146975 0.00000000 0.00000000
0.00131210 0.01975254 0.01975254
0.01959577 0.06631369 0.06631369
0.05629976 0.12332702 0.12332702
0.10874411 0.18898004 0.18898004
0.46777284 0.00000000 0.00000000
0.23632017 0.00000000 0.00000000
0.05648828 0.00000000 0.00000000
0.00102546 0.01826239 0.01826239
0.01858035 0.06440445 0.06440445
0.05465415 0.12106536 0.12106536
0.10656691 0.18643266 0.18643266
0.17163862 0.25869384 0.25869384
0.24718934 0.33603647 0.33603647
0.06164074 0.00000000 0.00000000
0.00076751 0.01678894 0.01678894
0.01758999 0.06250945 0.06250945
0.05302998 0.11881549 0.11881549
0.10440751 0.18389460 0.18389460
0.16904262 0.25593430 0.25593430
0.24425529 0.33312207 0.33312207
0.32736558 0.41364548 0.41364548
0.41569349 0.49569204 0.49569204
0.01662483 0.06062877 0.06062877
0.05142738 0.11657749 0.11657749
0.10226607 0.18136595 0.18136595
0.16646090 0.25318170 0.25318170
0.24133193 0.33021221 0.33021221
0.32419914 0.41064501 0.41064501
0.41238260 0.49266765 0.49266765
0.50320226 0.57446760 0.57446760
0.59397823 0.65423244 0.65423244
0.10014270 0.17884684 0.17884684
0.16389365 0.25043613 0.25043613
0.23841938 0.32730693 0.32730693
0.32103992 0.40764666 0.40764666
0.40907526 0.48964292 0.48964292
0.49984545 0.57148319 0.57148319
0.59067047 0.65135503 0.65135503
0.67887038 0.72744590 0.72744590
0.76176518 0.79794335 0.79794335
0.23551781 0.32440633 0.32440633
0.31788802 0.40465057 0.40465057
0.40577164 0.48661801 0.48661801
0.49648869 0.56849611 0.56849611
0.58735919 0.64847249 0.64847249
0.67570317 0.72473460 0.72473460
0.75884062 0.79546994 0.79546994
0.83409160 0.85886610 0.85886610
0.89877611 0.91311049 0.91311049
0.40247184 0.48359296 0.48359296
0.49313214 0.56550652 0.56550652
0.58404446 0.64558494 0.64558494
0.67252886 0.72201580 0.72201580
0.75590539 0.79298657 0.79298657
0.83149397 0.85668480 0.85668480
0.89661473 0.91129810 0.91129810
0.94858760 0.95501381 0.95501381
0.98473269 0.98601955 0.98601955
0.58554655 0.00000000 0.00000000
0.81056112 0.00000000 0.00000000
0.96743315 0.00000000 0.00000000
0.96248847 0.00000000 0.00000000
0.80982447 0.00000000 0.00000000
0.59005219 0.00000000 0.00000000
0.35050493 0.00000000 0.00000000
0.13851602 0.00000000 0.00000000
0.00141880 0.00000000 0.00000000
0.96358800 0.00000000 0.00000000
0.96621215 0.00000000 0.00000000
0.81691974 0.00000000 0.00000000
0.59877765 0.00000000 0.00000000
0.35911927 0.00000000 0.00000000
0.14527786 0.00000000 0.00000000
0.00458678 0.00000000 0.00000000
0.00654317 0.03783021 0.03783021
0.03285364 0.08898147 0.08898147
0.82392180 0.00000000 0.00000000
0.60747403 0.00000000 0.00000000
0.36776853 0.00000000 0.00000000
0.15213870 0.00000000 0.00000000
0.00791782 0.00000000 0.00000000
0.00593986 0.03615675 0.03615675
0.03156277 0.08691679 0.08691679
0.07458421 0.14743797 0.14743797
0.13232420 0.21590781 0.21590781
0.37645039 0.00000000 0.00000000
0.15909618 0.00000000 0.00000000
0.01140957 0.00000000 0.00000000
0.00536372 0.03449894 0.03449894
0.03029544 0.08486532 0.08486532
0.07272429 0.14505951 0.14505951
0.12997028 0.21326904 0.21326904
0.19935344 0.28768140 0.28768140
0.27819380 0.36648417 0.36648417
0.01505967 0.00000000 0.00000000
0.00481490 0.03285690 0.03285690
0.02905180 0.08282715 0.08282715
0.07088442 0.14269190 0.14269190
0.12763278 0.21063866 0.21063866
0.19661692 0.28485495 0.28485495
0.27515683 0.36352831 0.36352831
0.36057255 0.44484621 0.44484621
0.45018411 0.52699625 0.52699625
0.02783197 0.08080237 0.08080237
0.06906474 0.14033522 0.14033522
0.12531185 0.20801675 0.20801675
0.19389331 0.28203452 0.28203452
0.27212918 0.36057600 0.36057600
0.35733941 0.44182876 0.44182876
0.44684407 0.52398026 0.52398026
0.53796321 0.60521811 0.60521811
0.62801677 0.68372971 0.68372971
0.12300761 0.20540345 0.20540345
0.19118279 0.27922019 0.27922019
0.26911095 0.35762739 0.35762739
0.35411209 0.43881249 0.43881249
0.44350627 0.52096307 0.52096307
0.53461343 0.60226661 0.60226661
0.62475371 0.68091065 0.68091065
0.71124709 0.75508273 0.75508273
0.79141349 0.82297033 0.82297033
0.26610228 0.35468253 0.35468253
0.35089073 0.43579754 0.43579754
0.44017074 0.51794469 0.51794469
0.53126240 0.59931153 0.59931153
0.62148571 0.67808557 0.67808557
0.70816070 0.75245422 0.75245422
0.78860742 0.82060516 0.82060516
0.86014581 0.88072580 0.88072580
0.92009598 0.93100369 0.93100369
0.43683767 0.51492530 0.51492530
0.52791017 0.59635293 0.59635293
0.61821294 0.67525446 0.67525446
0.70506597 0.74981731 0.74981731
0.78578925 0.81822908 0.81822908
0.85770285 0.87867731 0.87867731
0.91812682 0.92934942 0.92934942
0.96438116 0.96843302 0.96843302
0.99378580 0.99411559 0.99411559
0.67543066 0.00000000 0.00000000
0.88177562 0.00000000 0.00000000
0.99634534 0.00000000 0.00000000
0.91521013 0.00000000 0.00000000
0.73137665 0.00000000 0.00000000
0.49848172 0.00000000 0.00000000
0.26385862 0.00000000 0.00000000
0.07484067 0.00000000 0.00000000
0.00025685 0.01324360 0.01324360
0.99447513 0.00000000 0.00000000
0.92042470 0.00000000 0.00000000
0.73929888 0.00000000 0.00000000
0.50737023 0.00000000 0.00000000
0.27197203 0.00000000 0.00000000
0.08043767 0.00000000 0.00000000
0.00009904 0.01182849 0.01182849
0.01436346 0.05607387 0.05607387
0.04758601 0.11113513 0.11113513
0.74715233 0.00000000 0.00000000
0.51625401 0.00000000 0.00000000
0.28014481 0.00000000 0.00000000
0.08615810 0.00000000 0.00000000
0.00000000 0.01043048 0.01043048
0.01348638 0.05424338 0.05424338
0.04605895 0.10893885 0.10893885
0.09500825 0.17270440 0.17270440
0.15765432 0.24372756 0.24372756
0.28837463 0.00000000 0.00000000
0.09199959 0.00000000 0.00000000
0.00000000 0.00904965 0.00904965
0.01263508 0.05242762 0.05242762
0.04455405 0.10675484 0.10675484
0.09294835 0.17021883 0.17021883
0.15513802 0.24100710 0.24100710
0.22844303 0.31730720 0.31730720
0.31018344 0.39730662 0.39730662
0.00000000 0.00768609 0.00768609
0.01180972 0.05062668 0.05062668
0.04307146 0.10458320 0.10458320
0.09090713 0.16774316 0.16774316
0.15263674 0.23829409 0.23829409
0.22558032 0.31442353 0.31442353
0.30705789 0.39431897 0.39431897
0.39438945 0.47616792 0.47616792
0.48489508 0.55815792 0.55815792
0.04161130 0.10242401 0.10242401
0.08888470 0.16527750 0.16527750
0.15015066 0.23558864 0.23558864
0.22272916 0.31154495 0.31154495
0.30394027 0.39133394 0.39133394
0.39110395 0.47314316 0.47314316
0.48154026 0.55516011 0.55516011
0.57256925 0.63557231 0.63557231
0.66151088 0.71256727 0.71256727
0.14767988 0.23289083 0.23289083
0.21988969 0.30867156 0.30867156
0.30083069 0.38835168 0.38835168
0.38782287 0.47011867 0.47011867
0.47818628 0.55216008 0.55216008
0.56924093 0.63266343 0.63266343
0.65830684 0.70981622 0.70981622
0.74270403 0.78180599 0.78180599
0.81975251 0.84682024 0.84682024
0.29772928 0.38537222 0.38537222
0.38454634 0.46709457 0.46709457
0.47483319 0.54915798 0.54915798
0.56590992 0.62975001 0.62975001
0.65509647 0.70705819 0.70705819
0.73971289 0.77927005 0.77927005
0.81707919 0.84457302 0.84457302
0.88451546 0.90115470 0.90115470
0.93934166 0.94720256 0.94720256
0.47148120 0.54615390 0.54615390
0.56257635 0.62683219 0.62683219
0.65187991 0.70429331 0.70429331
0.73671198 0.77672470 0.77672470
0.81439251 0.84231400 0.84231400
0.88224155 0.89924866 0.89924866
0.93757915 0.94571620 0.94571620
0.97772527 0.97990412 0.97990412
1.00000000 1.00000000 1.00000000
