Faded_Major/Faded Major (Gradient Map Only).cube
# VEGAS Pro LUT
TITLE "Faded Major (Gradient Only)"
LUT_3D_SIZE 33
0.12367491 0.00000000 0.00000000
0.13701679 0.00000000 0.00000000
0.15934457 0.00000000 0.00000000
0.18968976 0.00000000 0.00000000
0.22708386 0.00000000 0.00000000
0.27055836 0.00000000 0.00000000
0.31914479 0.00000000 0.00000000
0.37187457 0.00000000 0.00000000
0.42777929 0.00000000 0.00000000
0.48589042 0.00000000 0.00000000
0.54523945 0.00000000 0.00000000
0.60485786 0.00000000 0.00000000
0.66377717 0.00000000 0.00000000
0.72102892 0.00000000 0.00000000
0.77564454 0.00000000 0.00000000
0.82665557 0.00000000 0.00000000
0.87309349 0.00000000 0.00000000
0.91398978 0.00000000 0.00000000
0.94837600 0.00000000 0.00000000
0.97528356 0.00000000 0.00000000
0.99374408 0.00000000 0.00000000
0.99515325 0.00000000 0.00000000
0.97827059 0.00000000 0.00000000
0.95373571 0.00000000 0.00000000
0.92228812 0.00000000 0.00000000
0.88466746 0.00000000 0.00000000
0.84161329 0.00000000 0.00000000
0.79386520 0.00000000 0.00000000
0.74216276 0.00000000 0.00000000
0.68724555 0.00000000 0.00000000
0.62985325 0.00000000 0.00000000
0.57072526 0.00000000 0.00000000
0.51060134 0.00000000 0.00000000
0.15837516 0.00000000 0.00000000
0.18844256 0.00000000 0.00000000
0.22559449 0.00000000 0.00000000
0.26886246 0.00000000 0.00000000
0.31727797 0.00000000 0.00000000
0.36987251 0.00000000 0.00000000
0.42567757 0.00000000 0.00000000
0.48372468 0.00000000 0.00000000
0.54304534 0.00000000 0.00000000
0.60267103 0.00000000 0.00000000
0.66163319 0.00000000 0.00000000
0.71896344 0.00000000 0.00000000
0.77369320 0.00000000 0.00000000
0.82485396 0.00000000 0.00000000
0.87147731 0.00000000 0.00000000
0.91259462 0.00000000 0.00000000
0.94723749 0.00000000 0.00000000
0.97443742 0.00000000 0.00000000
0.99322581 0.00000000 0.00000000
0.99561882 0.00000000 0.00000000
0.97903180 0.00000000 0.00000000
0.95476532 0.00000000 0.00000000
0.92355895 0.00000000 0.00000000
0.88615227 0.00000000 0.00000000
0.84328490 0.00000000 0.00000000
0.79569638 0.00000000 0.00000000
0.74412632 0.00000000 0.00000000
0.68931431 0.00000000 0.00000000
0.63199991 0.00000000 0.00000000
0.57292277 0.00000000 0.00000000
0.51282233 0.00000000 0.00000000
0.45243829 0.00000000 0.00000000
0.39251024 0.00000000 0.00000000
0.22411340 0.00000000 0.00000000
0.26717353 0.00000000 0.00000000
0.31541681 0.00000000 0.00000000
0.36787477 0.00000000 0.00000000
0.42357889 0.00000000 0.00000000
0.48156068 0.00000000 0.00000000
0.54085165 0.00000000 0.00000000
0.60048324 0.00000000 0.00000000
0.65948701 0.00000000 0.00000000
0.71689445 0.00000000 0.00000000
0.77173704 0.00000000 0.00000000
0.82304627 0.00000000 0.00000000
0.86985368 0.00000000 0.00000000
0.91119075 0.00000000 0.00000000
0.94608897 0.00000000 0.00000000
0.97357982 0.00000000 0.00000000
0.99269485 0.00000000 0.00000000
0.99607301 0.00000000 0.00000000
0.97978264 0.00000000 0.00000000
0.95578557 0.00000000 0.00000000
0.92482138 0.00000000 0.00000000
0.88762975 0.00000000 0.00000000
0.84495014 0.00000000 0.00000000
0.79752219 0.00000000 0.00000000
0.74608552 0.00000000 0.00000000
0.69137967 0.00000000 0.00000000
0.63414425 0.00000000 0.00000000
0.57511878 0.00000000 0.00000000
0.51504296 0.00000000 0.00000000
0.45465624 0.00000000 0.00000000
0.39469829 0.00000000 0.00000000
0.33590865 0.00000000 0.00000000
0.27902693 0.00000000 0.00000000
0.31356138 0.00000000 0.00000000
0.36588144 0.00000000 0.00000000
0.42148331 0.00000000 0.00000000
0.47939846 0.00000000 0.00000000
0.53865838 0.00000000 0.00000000
0.59829462 0.00000000 0.00000000
0.65733868 0.00000000 0.00000000
0.71482199 0.00000000 0.00000000
0.76977611 0.00000000 0.00000000
0.82123250 0.00000000 0.00000000
0.86822265 0.00000000 0.00000000
0.90977812 0.00000000 0.00000000
0.94493037 0.00000000 0.00000000
0.97271097 0.00000000 0.00000000
0.99215126 0.00000000 0.00000000
0.99651581 0.00000000 0.00000000
0.98052299 0.00000000 0.00000000
0.95679635 0.00000000 0.00000000
0.92607540 0.00000000 0.00000000
0.88909972 0.00000000 0.00000000
0.84660894 0.00000000 0.00000000
0.79934263 0.00000000 0.00000000
0.74804032 0.00000000 0.00000000
0.69344163 0.00000000 0.00000000
0.63628614 0.00000000 0.00000000
0.57731342 0.00000000 0.00000000
0.51726311 0.00000000 0.00000000
0.45687476 0.00000000 0.00000000
0.39688793 0.00000000 0.00000000
0.33804220 0.00000000 0.00000000
0.28107721 0.00000000 0.00000000
0.22673248 0.00000000 0.00000000
0.17574762 0.00000000 0.00000000
0.41939083 0.00000000 0.00000000
0.47723803 0.00000000 0.00000000
0.53646564 0.00000000 0.00000000
0.59610522 0.00000000 0.00000000
0.65518820 0.00000000 0.00000000
0.71274608 0.00000000 0.00000000
0.76781040 0.00000000 0.00000000
0.81941265 0.00000000 0.00000000
0.86658430 0.00000000 0.00000000
0.90835685 0.00000000 0.00000000
0.94376183 0.00000000 0.00000000
0.97183073 0.00000000 0.00000000
0.99159509 0.00000000 0.00000000
0.99694705 0.00000000 0.00000000
0.98125291 0.00000000 0.00000000
0.95779771 0.00000000 0.00000000
0.92732096 0.00000000 0.00000000
0.89056230 0.00000000 0.00000000
0.84826130 0.00000000 0.00000000
0.80115753 0.00000000 0.00000000
0.74999064 0.00000000 0.00000000
0.69550008 0.00000000 0.00000000
0.63842559 0.00000000 0.00000000
0.57950664 0.00000000 0.00000000
0.51948285 0.00000000 0.00000000
0.45909381 0.00000000 0.00000000
0.39907911 0.00000000 0.00000000
0.34017831 0.00000000 0.00000000
0.28313100 0.00000000 0.00000000
0.22867678 0.00000000 0.00000000
0.17755520 0.00000000 0.00000000
0.13050589 0.00000000 0.00000000
0.08826839 0.00000000 0.00000000
0.53427351 0.00000000 0.00000000
0.59391505 0.00000000 0.00000000
0.65303564 0.00000000 0.00000000
0.71066684 0.00000000 0.00000000
0.76584005 0.00000000 0.00000000
0.81758678 0.00000000 0.00000000
0.86493862 0.00000000 0.00000000
0.90692699 0.00000000 0.00000000
0.94258338 0.00000000 0.00000000
0.97093934 0.00000000 0.00000000
0.99102634 0.00000000 0.00000000
0.99736685 0.00000000 0.00000000
0.98197234 0.00000000 0.00000000
0.95878953 0.00000000 0.00000000
0.92855799 0.00000000 0.00000000
0.89201736 0.00000000 0.00000000
0.84990716 0.00000000 0.00000000
0.80296695 0.00000000 0.00000000
0.75193644 0.00000000 0.00000000
0.69755507 0.00000000 0.00000000
0.64056253 0.00000000 0.00000000
0.58169830 0.00000000 0.00000000
0.52170211 0.00000000 0.00000000
0.46131340 0.00000000 0.00000000
0.40127179 0.00000000 0.00000000
0.34231693 0.00000000 0.00000000
0.28518832 0.00000000 0.00000000
0.23062558 0.00000000 0.00000000
0.17936832 0.00000000 0.00000000
0.13215607 0.00000000 0.00000000
0.08972844 0.00000000 0.00000000
0.05282503 0.00000000 0.00000000
0.02218539 0.00000000 0.00000000
0.65088111 0.00000000 0.00000000
0.70858425 0.00000000 0.00000000
0.76386505 0.00000000 0.00000000
0.81575501 0.00000000 0.00000000
0.86328566 0.00000000 0.00000000
0.90548849 0.00000000 0.00000000
0.94139504 0.00000000 0.00000000
0.97003669 0.00000000 0.00000000
0.99044508 0.00000000 0.00000000
0.99777514 0.00000000 0.00000000
0.98268121 0.00000000 0.00000000
0.95977181 0.00000000 0.00000000
0.92978650 0.00000000 0.00000000
0.89346486 0.00000000 0.00000000
0.85154647 0.00000000 0.00000000
0.80477089 0.00000000 0.00000000
0.75387770 0.00000000 0.00000000
0.69960654 0.00000000 0.00000000
0.64269692 0.00000000 0.00000000
0.58388847 0.00000000 0.00000000
0.52392077 0.00000000 0.00000000
0.46353343 0.00000000 0.00000000
0.40346596 0.00000000 0.00000000
0.34445798 0.00000000 0.00000000
0.28724912 0.00000000 0.00000000
0.23257887 0.00000000 0.00000000
0.18118688 0.00000000 0.00000000
0.13381273 0.00000000 0.00000000
0.09119598 0.00000000 0.00000000
0.05407622 0.00000000 0.00000000
0.02319304 0.00000000 0.00000000
0.00000000 0.00029937 0.00029937
0.00000000 0.00923693 0.00923693
0.76188540 0.00000000 0.00000000
0.81391734 0.00000000 0.00000000
0.86162549 0.00000000 0.00000000
0.90404153 0.00000000 0.00000000
0.94019681 0.00000000 0.00000000
0.96912295 0.00000000 0.00000000
0.98985136 0.00000000 0.00000000
0.99817175 0.00000000 0.00000000
0.98337954 0.00000000 0.00000000
0.96074456 0.00000000 0.00000000
0.93100643 0.00000000 0.00000000
0.89490479 0.00000000 0.00000000
0.85317922 0.00000000 0.00000000
0.80656922 0.00000000 0.00000000
0.75581443 0.00000000 0.00000000
0.70165437 0.00000000 0.00000000
0.64482874 0.00000000 0.00000000
0.58607709 0.00000000 0.00000000
0.52613890 0.00000000 0.00000000
0.46575388 0.00000000 0.00000000
0.40566155 0.00000000 0.00000000
0.34660152 0.00000000 0.00000000
0.28931332 0.00000000 0.00000000
0.23453660 0.00000000 0.00000000
0.18301091 0.00000000 0.00000000
0.13547583 0.00000000 0.00000000
0.09267095 0.00000000 0.00000000
0.05533586 0.00000000 0.00000000
0.02421014 0.00000000 0.00000000
0.00003336 0.00000000 0.00000000
0.00000000 0.00889383 0.00889383
0.00108809 0.01859960 0.01859960
0.00363769 0.02907514 0.02907514
0.85995817 0.00000000 0.00000000
0.90258604 0.00000000 0.00000000
0.93898886 0.00000000 0.00000000
0.96819812 0.00000000 0.00000000
0.98924530 0.00000000 0.00000000
0.99855685 0.00000000 0.00000000
0.98406720 0.00000000 0.00000000
0.96170765 0.00000000 0.00000000
0.93221778 0.00000000 0.00000000
0.89633715 0.00000000 0.00000000
0.85480529 0.00000000 0.00000000
0.80836189 0.00000000 0.00000000
0.75774652 0.00000000 0.00000000
0.70369869 0.00000000 0.00000000
0.64695799 0.00000000 0.00000000
0.58826405 0.00000000 0.00000000
0.52835643 0.00000000 0.00000000
0.46797475 0.00000000 0.00000000
0.40785855 0.00000000 0.00000000
0.34874743 0.00000000 0.00000000
0.29138094 0.00000000 0.00000000
0.23649873 0.00000000 0.00000000
0.18484032 0.00000000 0.00000000
0.13714533 0.00000000 0.00000000
0.09415333 0.00000000 0.00000000
0.05660390 0.00000000 0.00000000
0.02523664 0.00000000 0.00000000
0.00079111 0.00000000 0.00000000
0.00000000 0.00855181 0.00855181
0.00101928 0.01822872 0.01822872
0.00352093 0.02867644 0.02867644
0.00730577 0.03986664 0.03986664
0.01233194 0.05177101 0.05177101
0.93777114 0.00000000 0.00000000
0.96726221 0.00000000 0.00000000
0.98862678 0.00000000 0.00000000
0.99893022 0.00000000 0.00000000
0.98474425 0.00000000 0.00000000
0.96266109 0.00000000 0.00000000
0.93342042 0.00000000 0.00000000
0.89776182 0.00000000 0.00000000
0.85642481 0.00000000 0.00000000
0.81014895 0.00000000 0.00000000
0.75967395 0.00000000 0.00000000
0.70573926 0.00000000 0.00000000
0.64908457 0.00000000 0.00000000
0.59044939 0.00000000 0.00000000
0.53057337 0.00000000 0.00000000
0.47019598 0.00000000 0.00000000
0.41005692 0.00000000 0.00000000
0.35089570 0.00000000 0.00000000
0.29345194 0.00000000 0.00000000
0.23846522 0.00000000 0.00000000
0.18667510 0.00000000 0.00000000
0.13882120 0.00000000 0.00000000
0.09564307 0.00000000 0.00000000
0.05788032 0.00000000 0.00000000
0.02627251 0.00000000 0.00000000
0.00155923 0.00000000 0.00000000
0.00000000 0.00821086 0.00821086
0.00095226 0.01785888 0.01785888
0.00340590 0.02827875 0.02827875
0.00714428 0.03944214 0.03944214
0.01212553 0.05132073 0.05132073
0.01830776 0.06388621 0.06388621
0.02564910 0.07711026 0.07711026
0.98799604 0.00000000 0.00000000
0.99929196 0.00000000 0.00000000
0.98541057 0.00000000 0.00000000
0.96360487 0.00000000 0.00000000
0.93461442 0.00000000 0.00000000
0.89917880 0.00000000 0.00000000
0.85803759 0.00000000 0.00000000
0.81193036 0.00000000 0.00000000
0.76159674 0.00000000 0.00000000
0.70777625 0.00000000 0.00000000
0.65120846 0.00000000 0.00000000
0.59263307 0.00000000 0.00000000
0.53278953 0.00000000 0.00000000
0.47241753 0.00000000 0.00000000
0.41225657 0.00000000 0.00000000
0.35304630 0.00000000 0.00000000
0.29552624 0.00000000 0.00000000
0.24043603 0.00000000 0.00000000
0.18851522 0.00000000 0.00000000
0.14050339 0.00000000 0.00000000
0.09714015 0.00000000 0.00000000
0.05916506 0.00000000 0.00000000
0.02731771 0.00000000 0.00000000
0.00233768 0.00000000 0.00000000
0.00000000 0.00787101 0.00787101
0.00088704 0.01749009 0.01749009
0.00329262 0.02788206 0.02788206
0.00698447 0.03901860 0.03901860
0.01192073 0.05087138 0.05087138
0.01805952 0.06341209 0.06341209
0.02535897 0.07661241 0.07661241
0.03377719 0.09044402 0.09044402
0.04327232 0.10487860 0.10487860
0.98606616 0.00000000 0.00000000
0.96453893 0.00000000 0.00000000
0.93579972 0.00000000 0.00000000
0.90058810 0.00000000 0.00000000
0.85964364 0.00000000 0.00000000
0.81370604 0.00000000 0.00000000
0.76351476 0.00000000 0.00000000
0.70980942 0.00000000 0.00000000
0.65332967 0.00000000 0.00000000
0.59481502 0.00000000 0.00000000
0.53500503 0.00000000 0.00000000
0.47463936 0.00000000 0.00000000
0.41445756 0.00000000 0.00000000
0.35519919 0.00000000 0.00000000
0.29760385 0.00000000 0.00000000
0.24241114 0.00000000 0.00000000
0.19036062 0.00000000 0.00000000
0.14219189 0.00000000 0.00000000
0.09864451 0.00000000 0.00000000
0.06045809 0.00000000 0.00000000
0.02837220 0.00000000 0.00000000
0.00312643 0.00000000 0.00000000
0.00000000 0.00753224 0.00753224
0.00082361 0.01712235 0.01712235
0.00318107 0.02748638 0.02748638
0.00682635 0.03859603 0.03859603
0.01171757 0.05042297 0.05042297
0.01781286 0.06293887 0.06293887
0.02507035 0.07611543 0.07611543
0.03344815 0.08992431 0.08992431
0.04290440 0.10433720 0.10433720
0.05339722 0.11932579 0.11932579
0.06488474 0.13486174 0.13486174
0.93697619 0.00000000 0.00000000
0.90198958 0.00000000 0.00000000
0.86124295 0.00000000 0.00000000
0.81547594 0.00000000 0.00000000
0.76542807 0.00000000 0.00000000
0.71183890 0.00000000 0.00000000
0.65544808 0.00000000 0.00000000
0.59699517 0.00000000 0.00000000
0.53721976 0.00000000 0.00000000
0.47686145 0.00000000 0.00000000
0.41665977 0.00000000 0.00000000
0.35735431 0.00000000 0.00000000
0.29968470 0.00000000 0.00000000
0.24439049 0.00000000 0.00000000
0.19221127 0.00000000 0.00000000
0.14388663 0.00000000 0.00000000
0.10015614 0.00000000 0.00000000
0.06175938 0.00000000 0.00000000
0.02943596 0.00000000 0.00000000
0.00392544 0.00000000 0.00000000
0.00000000 0.00719455 0.00719455
0.00076198 0.01675565 0.01675565
0.00307127 0.02709171 0.02709171
0.00666991 0.03817443 0.03817443
0.01151603 0.04997548 0.04997548
0.01756777 0.06246654 0.06246654
0.02478324 0.07561930 0.07561930
0.03312057 0.08940542 0.08940542
0.04253789 0.10379659 0.10379659
0.05299332 0.11876450 0.11876450
0.06444498 0.13428082 0.13428082
0.07685101 0.15031722 0.15031722
0.09016952 0.16684540 0.16684540
0.86283547 0.00000000 0.00000000
0.81724006 0.00000000 0.00000000
0.76733655 0.00000000 0.00000000
0.71386456 0.00000000 0.00000000
0.65756375 0.00000000 0.00000000
0.59917361 0.00000000 0.00000000
0.53943372 0.00000000 0.00000000
0.47908375 0.00000000 0.00000000
0.41886318 0.00000000 0.00000000
0.35951167 0.00000000 0.00000000
0.30176878 0.00000000 0.00000000
0.24637406 0.00000000 0.00000000
0.19406714 0.00000000 0.00000000
0.14558758 0.00000000 0.00000000
0.10167497 0.00000000 0.00000000
0.06306890 0.00000000 0.00000000
0.03050893 0.00000000 0.00000000
0.00473467 0.00000000 0.00000000
0.00000000 0.00685795 0.00685795
0.00070216 0.01639000 0.01639000
0.00296321 0.02669805 0.02669805
0.00651516 0.03775381 0.03775381
0.01131613 0.04952893 0.04952893
0.01732426 0.06199511 0.06199511
0.02449766 0.07512402 0.07512402
0.03279446 0.08888734 0.08888734
0.04217278 0.10325675 0.10325675
0.05259076 0.11820395 0.11820395
0.06400651 0.13370059 0.13370059
0.07637817 0.14971836 0.14971836
0.08966386 0.16622895 0.16622895
0.10382169 0.18320403 0.18320403
0.11880981 0.20061529 0.20061529
0.76924020 0.00000000 0.00000000
0.71588641 0.00000000 0.00000000
0.65967655 0.00000000 0.00000000
0.60135019 0.00000000 0.00000000
0.54164684 0.00000000 0.00000000
0.48130620 0.00000000 0.00000000
0.42106780 0.00000000 0.00000000
0.36167121 0.00000000 0.00000000
0.30385602 0.00000000 0.00000000
0.24836181 0.00000000 0.00000000
0.19592819 0.00000000 0.00000000
0.14729473 0.00000000 0.00000000
0.10320099 0.00000000 0.00000000
0.06438659 0.00000000 0.00000000
0.03159109 0.00000000 0.00000000
0.00555408 0.00000000 0.00000000
0.00000000 0.00652244 0.00652244
0.00064414 0.01602539 0.01602539
0.00285690 0.02630541 0.02630541
0.00636210 0.03733415 0.03733415
0.01111786 0.04908331 0.04908331
0.01708232 0.06152457 0.06152457
0.02421359 0.07462960 0.07462960
0.03246981 0.08837008 0.08837008
0.04180909 0.10271771 0.10271771
0.05218956 0.11764414 0.11764414
0.06356934 0.13312107 0.13312107
0.07590658 0.14912018 0.14912018
0.08915938 0.16561313 0.16561313
0.10328587 0.18257163 0.18257163
0.11824419 0.19996734 0.19996734
0.13399245 0.21777195 0.21777195
0.15048876 0.23595712 0.23595712
0.66178650 0.00000000 0.00000000
0.60352486 0.00000000 0.00000000
0.54385912 0.00000000 0.00000000
0.48352882 0.00000000 0.00000000
0.42327353 0.00000000 0.00000000
0.36383286 0.00000000 0.00000000
0.30594641 0.00000000 0.00000000
0.25035369 0.00000000 0.00000000
0.19779438 0.00000000 0.00000000
0.14900801 0.00000000 0.00000000
0.10473416 0.00000000 0.00000000
0.06571243 0.00000000 0.00000000
0.03268240 0.00000000 0.00000000
0.00638364 0.00000000 0.00000000
0.00000000 0.00618802 0.00618802
0.00058792 0.01566185 0.01566185
0.00275234 0.02591377 0.02591377
0.00621073 0.03691547 0.03691547
0.01092123 0.04863863 0.04863863
0.01684196 0.06105493 0.06105493
0.02393105 0.07413604 0.07413604
0.03214662 0.08785366 0.08785366
0.04144679 0.10217944 0.10217944
0.05178970 0.11708508 0.11708508
0.06313347 0.13254225 0.13254225
0.07543622 0.14852266 0.14852266
0.08865608 0.16499795 0.16499795
0.10275117 0.18193981 0.18193981
0.11767963 0.19931994 0.19931994
0.13339956 0.21711001 0.21711001
0.14986911 0.23528169 0.23528169
0.16704640 0.25380665 0.25380665
0.18488954 0.27265662 0.27265662
0.54607052 0.00000000 0.00000000
0.48575151 0.00000000 0.00000000
0.42548037 0.00000000 0.00000000
0.36599663 0.00000000 0.00000000
0.30803987 0.00000000 0.00000000
0.25234970 0.00000000 0.00000000
0.19966568 0.00000000 0.00000000
0.15072741 0.00000000 0.00000000
0.10627444 0.00000000 0.00000000
0.06704638 0.00000000 0.00000000
0.03378281 0.00000000 0.00000000
0.00722332 0.00000000 0.00000000
0.00000000 0.00585469 0.00585469
0.00053352 0.01529935 0.01529935
0.00264953 0.02552315 0.02552315
0.00606106 0.03649778 0.03649778
0.01072623 0.04819489 0.04819489
0.01660318 0.06058619 0.06058619
0.02365003 0.07364335 0.07364335
0.03182490 0.08733805 0.08733805
0.04108592 0.10164195 0.10164195
0.05139121 0.11652677 0.11652677
0.06269889 0.13196416 0.13196416
0.07496711 0.14792581 0.14792581
0.08815397 0.16438340 0.16438340
0.10221761 0.18130860 0.18130860
0.11711614 0.19867310 0.19867310
0.13280770 0.21644859 0.21644859
0.14925042 0.23460673 0.23460673
0.16640240 0.25311920 0.25311920
0.18422179 0.27195770 0.27195770
0.20266670 0.29109392 0.29109392
0.22169527 0.31049949 0.31049949
0.42768830 0.00000000 0.00000000
0.36816248 0.00000000 0.00000000
0.31013644 0.00000000 0.00000000
0.25434977 0.00000000 0.00000000
0.20154205 0.00000000 0.00000000
0.15245286 0.00000000 0.00000000
0.10782178 0.00000000 0.00000000
0.06838840 0.00000000 0.00000000
0.03489230 0.00000000 0.00000000
0.00807306 0.00000000 0.00000000
0.00000000 0.00552245 0.00552245
0.00048092 0.01493791 0.01493791
0.00254847 0.02513355 0.02513355
0.00591308 0.03608105 0.03608105
0.01053288 0.04775209 0.04775209
0.01636599 0.06011835 0.06011835
0.02337054 0.07315151 0.07315151
0.03150465 0.08682325 0.08682325
0.04072645 0.10110526 0.10110526
0.05099406 0.11596920 0.11596920
0.06226562 0.13138676 0.13138676
0.07449923 0.14732963 0.14732963
0.08765304 0.16376947 0.16376947
0.10168517 0.18067798 0.18067798
0.11655372 0.19802682 0.19802682
0.13221686 0.21578768 0.21578768
0.14863268 0.23393226 0.23393226
0.16575931 0.25243220 0.25243220
0.18355489 0.27125919 0.27125919
0.20197754 0.29038495 0.29038495
0.22098537 0.30978110 0.30978110
0.24053653 0.32941937 0.32941937
0.26058912 0.34927145 0.34927145
0.31223604 0.00000000 0.00000000
0.25635388 0.00000000 0.00000000
0.20342346 0.00000000 0.00000000
0.15418436 0.00000000 0.00000000
0.10937617 0.00000000 0.00000000
0.06973846 0.00000000 0.00000000
0.03601083 0.00000000 0.00000000
0.00893285 0.00000000 0.00000000
0.00000000 0.00519131 0.00519131
0.00043013 0.01457753 0.01457753
0.00244917 0.02474497 0.02474497
0.00576680 0.03566531 0.03566531
0.01034117 0.04731023 0.04731023
0.01613038 0.05965142 0.05965142
0.02309258 0.07266054 0.07266054
0.03118587 0.08630930 0.08630930
0.04036840 0.10056935 0.10056935
0.05059828 0.11541238 0.11541238
0.06183364 0.13081008 0.13081008
0.07403261 0.14673412 0.14673412
0.08715331 0.16315618 0.16315618
0.10115386 0.18004794 0.18004794
0.11599239 0.19738109 0.19738109
0.13162702 0.21512730 0.21512730
0.14801590 0.23325825 0.23325825
0.16511713 0.25174564 0.25174564
0.18288884 0.27056110 0.27056110
0.20128915 0.28967637 0.28967637
0.22027621 0.30906308 0.30906308
0.23980811 0.32869294 0.32869294
0.25984299 0.34853762 0.34853762
0.28033900 0.36856881 0.36856881
0.30125424 0.38875818 0.38875818
0.20530985 0.00000000 0.00000000
0.15592186 0.00000000 0.00000000
0.11093755 0.00000000 0.00000000
0.07109652 0.00000000 0.00000000
0.03713835 0.00000000 0.00000000
0.00980263 0.00000000 0.00000000
0.00000000 0.00486126 0.00486126
0.00038116 0.01421820 0.01421820
0.00235162 0.02435740 0.02435740
0.00562223 0.03525054 0.03525054
0.01015110 0.04686931 0.04686931
0.01589636 0.05918539 0.05918539
0.02281615 0.07217044 0.07217044
0.03086857 0.08579616 0.08579616
0.04001177 0.10003423 0.10003423
0.05020386 0.11485632 0.11485632
0.06140297 0.13023411 0.13023411
0.07356723 0.14613929 0.14613929
0.08665476 0.16254354 0.16254354
0.10062368 0.17941852 0.17941852
0.11543213 0.19673593 0.19673593
0.13103822 0.21446744 0.21446744
0.14740008 0.23258474 0.23258474
0.16447584 0.25105950 0.25105950
0.18222363 0.26986340 0.26986340
0.20060156 0.28896815 0.28896815
0.21956778 0.30834538 0.30834538
0.23908037 0.32796681 0.32796681
0.25909752 0.34780407 0.34780407
0.27957729 0.36782891 0.36782891
0.30047783 0.38801295 0.38801295
0.32175729 0.40832791 0.40832791
0.34337378 0.42874545 0.42874545
0.11250589 0.00000000 0.00000000
0.07246254 0.00000000 0.00000000
0.03827484 0.00000000 0.00000000
0.01068239 0.00000000 0.00000000
0.00000000 0.00453231 0.00453231
0.00033401 0.01385993 0.01385993
0.00225584 0.02397085 0.02397085
0.00547935 0.03483676 0.03483676
0.00996268 0.04642934 0.04642934
0.01566393 0.05872026 0.05872026
0.02254125 0.07168121 0.07168121
0.03055275 0.08528386 0.08528386
0.03965656 0.09949990 0.09949990
0.04981080 0.11430100 0.11430100
0.06097361 0.12965886 0.12965886
0.07310310 0.14554514 0.14554514
0.08615740 0.16193151 0.16193151
0.10009465 0.17878969 0.17878969
0.11487295 0.19609132 0.19609132
0.13045044 0.21380810 0.21380810
0.14678524 0.23191172 0.23191172
0.16383548 0.25037381 0.25037381
0.18155928 0.26916611 0.26916611
0.19991477 0.28826028 0.28826028
0.21886007 0.30762801 0.30762801
0.23835333 0.32724094 0.32724094
0.25835264 0.34707078 0.34707078
0.27881613 0.36708921 0.36708921
0.29970196 0.38726792 0.38726792
0.32096821 0.40757856 0.40757856
0.34257302 0.42799282 0.42799282
0.36447453 0.44848239 0.44848239
0.38663086 0.46901897 0.46901897
0.03942026 0.00000000 0.00000000
0.01157206 0.00000000 0.00000000
0.00000000 0.00420446 0.00420446
0.00028867 0.01350272 0.01350272
0.00216182 0.02358533 0.02358533
0.00533818 0.03442397 0.03442397
0.00977590 0.04599031 0.04599031
0.01543309 0.05825604 0.05825604
0.02226788 0.07119284 0.07119284
0.03023840 0.08477239 0.08477239
0.03930277 0.09896636 0.09896636
0.04941911 0.11374644 0.11374644
0.06054555 0.12908432 0.12908432
0.07264023 0.14495166 0.14495166
0.08566125 0.16132013 0.16132013
0.09956674 0.17816146 0.17816146
0.11431485 0.19544728 0.19544728
0.12986368 0.21314929 0.21314929
0.14617136 0.23123917 0.23123917
0.16319603 0.24968860 0.24968860
0.18089579 0.26846924 0.26846924
0.19922878 0.28755280 0.28755280
0.21815313 0.30691096 0.30691096
0.23762695 0.32651538 0.32651538
0.25760838 0.34633774 0.34633774
0.27805555 0.36634973 0.36634973
0.29892656 0.38652304 0.38652304
0.32017958 0.40682933 0.40682933
0.34177268 0.42724028 0.42724028
0.36366403 0.44772759 0.44772759
0.38581172 0.46826291 0.46826291
0.40817389 0.48881796 0.48881796
