Faded_Major/Faded Major (Gradient Map Only).cube
# VEGAS Pro LUT
TITLE "Faded Major (Gradient Only)"
LUT_3D_SIZE 5
0.12367491 0.00000000 0.00000000
0.42777929 0.00000000 0.00000000
0.87309349 0.00000000 0.00000000
0.92228812 0.00000000 0.00000000
0.51060134 0.00000000 0.00000000
0.85995817 0.00000000 0.00000000
0.93221778 0.00000000 0.00000000
0.52835643 0.00000000 0.00000000
0.09415333 0.00000000 0.00000000
0.01233194 0.05177101 0.05177101
0.54607052 0.00000000 0.00000000
0.10627444 0.00000000 0.00000000
0.01072623 0.04819489 0.04819489
0.08815397 0.16438340 0.16438340
0.22169527 0.31049949 0.31049949
0.00922549 0.04467891 0.04467891
0.08417996 0.15948986 0.15948986
0.21603675 0.30476183 0.30476183
0.38335603 0.46599501 0.46599501
0.56469798 0.62868953 0.62868953
0.21042623 0.29904580 0.29904580
0.37682074 0.45994866 0.45994866
0.55802667 0.62284631 0.62284631
0.73260421 0.77323896 0.77323896
0.87911350 0.89662665 0.89662665
0.19140586 0.00000000 0.00000000
0.60783839 0.00000000 0.00000000
0.97641903 0.00000000 0.00000000
0.79135948 0.00000000 0.00000000
0.32875133 0.00000000 0.00000000
0.96945649 0.00000000 0.00000000
0.80591589 0.00000000 0.00000000
0.34582177 0.00000000 0.00000000
0.00000000 0.00009991 0.00009991
0.03489463 0.09219813 0.09219813
0.36304656 0.00000000 0.00000000
0.00608081 0.00000000 0.00000000
0.03226397 0.08804135 0.08804135
0.13361505 0.21735065 0.21735065
0.28290528 0.37105918 0.37105918
0.02972721 0.08393723 0.08393723
0.12890574 0.21207236 0.21207236
0.27681223 0.36514017 0.36514017
0.45200679 0.52864075 0.52864075
0.63304967 0.68807435 0.68807435
0.27075607 0.35923526 0.35923526
0.44532660 0.52260900 0.52260900
0.62653416 0.68244910 0.68244910
0.79293895 0.82425582 0.82425582
0.92310113 0.93352926 0.93352926
0.32426441 0.00000000 0.00000000
0.78094143 0.00000000 0.00000000
0.97614205 0.00000000 0.00000000
0.62398672 0.00000000 0.00000000
0.16550305 0.00000000 0.00000000
0.98216671 0.00000000 0.00000000
0.64114487 0.00000000 0.00000000
0.17986375 0.00000000 0.00000000
0.00384346 0.02976616 0.02976616
0.06742812 0.13820235 0.13820235
0.19457419 0.00000000 0.00000000
0.00293404 0.02659087 0.02659087
0.06388716 0.13354246 0.13354246
0.18604492 0.27386475 0.27386475
0.34796745 0.43305790 0.43305790
0.06042904 0.12892775 0.12892775
0.18071498 0.26827925 0.26827925
0.34155449 0.42703506 0.42703506
0.52150768 0.59069532 0.59069532
0.69913483 0.74476022 0.74476022
0.33516738 0.42101887 0.42101887
0.51479727 0.58475560 0.58475560
0.69288987 0.73943037 0.73943037
0.84800524 0.87054342 0.87054342
0.95870364 0.96359479 0.96359479
0.49476716 0.00000000 0.00000000
0.91960484 0.00000000 0.00000000
0.87851691 0.00000000 0.00000000
0.44115734 0.00000000 0.00000000
0.04184390 0.00000000 0.00000000
0.89042962 0.00000000 0.00000000
0.45889208 0.00000000 0.00000000
0.05146975 0.00000000 0.00000000
0.01959577 0.06631369 0.06631369
0.10874411 0.18898004 0.18898004
0.06164074 0.00000000 0.00000000
0.01758999 0.06250945 0.06250945
0.10440751 0.18389460 0.18389460
0.24425529 0.33312207 0.33312207
0.41569349 0.49569204 0.49569204
0.10014270 0.17884684 0.17884684
0.23841938 0.32730693 0.32730693
0.40907526 0.48964292 0.48964292
0.59067047 0.65135503 0.65135503
0.76176518 0.79794335 0.79794335
0.40247184 0.48359296 0.48359296
0.58404446 0.64558494 0.64558494
0.75590539 0.79298657 0.79298657
0.89661473 0.91129810 0.91129810
0.98473269 0.98601955 0.98601955
0.67543066 0.00000000 0.00000000
0.99634534 0.00000000 0.00000000
0.73137665 0.00000000 0.00000000
0.26385862 0.00000000 0.00000000
0.00025685 0.01324360 0.01324360
0.74715233 0.00000000 0.00000000
0.28014481 0.00000000 0.00000000
0.00000000 0.01043048 0.01043048
0.04605895 0.10893885 0.10893885
0.15765432 0.24372756 0.24372756
0.00000000 0.00768609 0.00768609
0.04307146 0.10458320 0.10458320
0.15263674 0.23829409 0.23829409
0.30705789 0.39431897 0.39431897
0.48489508 0.55815792 0.55815792
0.14767988 0.23289083 0.23289083
0.30083069 0.38835168 0.38835168
0.47818628 0.55216008 0.55216008
0.65830684 0.70981622 0.70981622
0.81975251 0.84682024 0.84682024
0.47148120 0.54615390 0.54615390
0.65187991 0.70429331 0.70429331
0.81439251 0.84231400 0.84231400
0.93757915 0.94571620 0.94571620
1.00000000 1.00000000 1.00000000
