Splurged/Splurged (HSL Adjust + Gradient Map Only).cube
# VEGAS Pro LUT
TITLE "Splurged (HSL Adjust + Gradient Map Only)"
LUT_3D_SIZE 33
0.00000050 0.00000050 0.00000050
0.00000000 0.01250000 0.03125000
0.00000000 0.02499999 0.06250000
0.00000000 0.03749999 0.09375000
0.00000000 0.04999998 0.12500000
0.00000000 0.06249998 0.15625000
0.00000000 0.07499997 0.18750000
0.00000000 0.08749997 0.21875000
0.00000000 0.09999996 0.25000000
0.00000000 0.11249996 0.28125000
0.00000000 0.12499996 0.31250000
0.00000000 0.13749996 0.34375000
0.00000000 0.14999995 0.37500000
0.00000000 0.16249993 0.40625000
0.00000000 0.17499994 0.43750000
0.00000000 0.18749994 0.46875000
0.00000000 0.19999993 0.50000000
0.00000000 0.21249992 0.53125000
0.00000000 0.22499992 0.56250000
0.00000000 0.23749992 0.59375000
0.00000000 0.24999991 0.62500000
0.00000000 0.26249990 0.65625000
0.00000000 0.27499992 0.68750000
1.00000000 1.00000000 1.00000000
1.00000000 1.00000000 1.00000000
1.00000000 1.00000000 1.00000000
1.00000000 1.00000000 1.00000000
1.00000000 1.00000000 1.00000000
1.00000000 1.00000000 1.00000000
1.00000000 1.00000000 1.00000000
1.00000000 1.00000000 1.00000000
1.00000000 1.00000000 1.00000000
1.00000000 1.00000000 1.00000000
0.03125000 0.00000000 0.01249999
0.01875001 0.00000000 0.03125000
0.00625000 0.00000000 0.06250000
0.00000000 0.00624997 0.09375000
0.00000000 0.01874997 0.12500000
0.00000000 0.03125001 0.15625000
0.00000000 0.04374996 0.18750000
0.00000000 0.05625001 0.21875000
0.00000000 0.06874999 0.25000000
0.00000000 0.08124998 0.28125000
0.00000000 0.09374999 0.31250000
0.00000000 0.10624998 0.34375000
0.00000000 0.11874993 0.37500000
0.00000000 0.13125002 0.40625000
0.00000000 0.14374989 0.43750000
0.00000000 0.15625001 0.46875000
0.00000000 0.16874987 0.50000000
0.00000000 0.18125002 0.53125000
0.00000000 0.19375004 0.56250000
0.00000000 0.20625004 0.59375000
0.00000000 0.21874994 0.62500000
0.00000000 0.23125002 0.65625000
0.00000000 0.24374993 0.68750000
0.00000000 0.25624990 0.71875000
0.00000000 0.26875001 0.75000000
1.00000000 1.00000000 1.00000000
1.00000000 1.00000000 1.00000000
1.00000000 1.00000000 1.00000000
1.00000000 1.00000000 1.00000000
1.00000000 1.00000000 1.00000000
1.00000000 1.00000000 1.00000000
1.00000000 1.00000000 1.00000000
1.00000000 1.00000000 1.00000000
0.06250000 0.00000000 0.02499998
0.06250000 0.00000000 0.05624999
0.03750002 0.00000000 0.06250000
0.02500001 0.00000000 0.09375000
0.01250000 0.00000000 0.12500000
0.00000002 0.00000000 0.15625000
0.00000000 0.01249994 0.18750000
0.00000000 0.02499997 0.21875000
0.00000000 0.03749993 0.25000000
0.00000000 0.05000000 0.28125000
0.00000000 0.06250001 0.31250000
0.00000000 0.07500001 0.34375000
0.00000000 0.08749992 0.37500000
0.00000000 0.09999995 0.40625000
0.00000000 0.11250002 0.43750000
0.00000000 0.12499994 0.46875000
0.00000000 0.13749999 0.50000000
0.00000000 0.14999993 0.53125000
0.00000000 0.16249996 0.56250000
0.00000000 0.17499994 0.59375000
0.00000000 0.18749997 0.62500000
0.00000000 0.19999991 0.65625000
0.00000000 0.21249996 0.68750000
0.00000000 0.22499990 0.71875000
0.00000000 0.23749986 0.75000000
0.00000000 0.24999994 0.78125000
0.94167417 0.94944447 0.96572500
1.00000000 1.00000000 1.00000000
1.00000000 1.00000000 1.00000000
1.00000000 1.00000000 1.00000000
1.00000000 1.00000000 1.00000000
1.00000000 1.00000000 1.00000000
1.00000000 1.00000000 1.00000000
0.09375000 0.00000000 0.03749996
0.09375000 0.00000000 0.06874998
0.08750001 0.00000000 0.09375000
0.05625002 0.00000000 0.09375000
0.04375002 0.00000000 0.12500000
0.03125004 0.00000000 0.15625000
0.01875000 0.00000000 0.18750000
0.00624999 0.00000000 0.21875000
0.00000000 0.00624996 0.25000000
0.00000000 0.01874992 0.28125000
0.00000000 0.03124993 0.31250000
0.00000000 0.04374992 0.34375000
0.00000000 0.05624990 0.37500000
0.00000000 0.06874987 0.40625000
0.00000000 0.08124998 0.43750000
0.00000000 0.09375002 0.46875000
0.00000000 0.10624993 0.50000000
0.00000000 0.11874983 0.53125000
0.00000000 0.13124987 0.56250000
0.00000000 0.14374985 0.59375000
0.00000000 0.15625000 0.62500000
0.00000000 0.16874979 0.65625000
0.00000000 0.18124999 0.68750000
0.00000000 0.19374992 0.71875000
0.00000000 0.20624998 0.75000000
0.00000000 0.21874997 0.78125000
0.00000000 0.23124981 0.81250000
0.00000000 0.24374993 0.84375000
1.00000000 1.00000000 1.00000000
1.00000000 1.00000000 1.00000000
1.00000000 1.00000000 1.00000000
1.00000000 1.00000000 1.00000000
1.00000000 1.00000000 1.00000000
0.12500000 0.00000000 0.04999995
0.12500000 0.00000000 0.08124997
0.12500000 0.00000000 0.11249998
0.10625005 0.00000000 0.12500000
0.07500003 0.00000000 0.12500000
0.06250001 0.00000000 0.15625000
0.05000002 0.00000000 0.18750000
0.03750002 0.00000000 0.21875000
0.02500001 0.00000000 0.25000000
0.01250007 0.00000000 0.28125000
0.00000004 0.00000000 0.31250000
0.00000000 0.01249995 0.34375000
0.00000000 0.02499989 0.37500000
0.00000000 0.03749995 0.40625000
0.00000000 0.04999994 0.43750000
0.00000000 0.06249994 0.46875000
0.00000000 0.07499987 0.50000000
0.00000000 0.08749993 0.53125000
0.00000000 0.09999999 0.56250000
0.00000000 0.11249997 0.59375000
0.00000000 0.12500003 0.62500000
0.00000000 0.13749991 0.65625000
0.00000000 0.15000002 0.68750000
0.00000000 0.16249993 0.71875000
0.00000000 0.17499983 0.75000000
0.00000000 0.18750000 0.78125000
0.00000000 0.19999990 0.81250000
0.00000000 0.21249995 0.84375000
0.00000000 0.22500004 0.87500000
0.00000000 0.23749991 0.90625000
1.00000000 1.00000000 1.00000000
1.00000000 1.00000000 1.00000000
1.00000000 1.00000000 1.00000000
0.15625000 0.00000000 0.06249994
0.15625000 0.00000000 0.09374997
0.15625000 0.00000000 0.12499999
0.15625000 0.00000000 0.15624997
0.12500006 0.00000000 0.15625000
0.09375004 0.00000000 0.15625000
0.08125003 0.00000000 0.18750000
0.06875006 0.00000000 0.21875000
0.05625007 0.00000000 0.25000000
0.04375005 0.00000000 0.28125000
0.03125001 0.00000000 0.31250000
0.01875002 0.00000000 0.34375000
0.00624999 0.00000000 0.37500000
0.00000000 0.00625002 0.40625000
0.00000000 0.01874991 0.43750000
0.00000000 0.03124986 0.46875000
0.00000000 0.04374999 0.50000000
0.00000000 0.05625003 0.53125000
0.00000000 0.06874991 0.56250000
0.00000000 0.08124988 0.59375000
0.00000000 0.09374984 0.62500000
0.00000000 0.10625003 0.65625000
0.00000000 0.11875005 0.68750000
0.00000000 0.13124993 0.71875000
0.00000000 0.14374995 0.75000000
0.00000000 0.15624976 0.78125000
0.00000000 0.16874996 0.81250000
0.00000000 0.18124998 0.84375000
0.00000000 0.19374985 0.87500000
0.00000000 0.20624983 0.90625000
0.00000000 0.21874979 0.93750000
0.67599815 0.71711648 0.84825057
1.00000000 1.00000000 1.00000000
0.18750000 0.00000000 0.07499993
0.18750000 0.00000000 0.10624994
0.18750000 0.00000000 0.13749996
0.18750000 0.00000000 0.16874997
0.17500001 0.00000000 0.18750000
0.14375000 0.00000000 0.18750000
0.11250005 0.00000000 0.18750000
0.10000002 0.00000000 0.21875000
0.08750004 0.00000000 0.25000000
0.07500003 0.00000000 0.28125000
0.06250009 0.00000000 0.31250000
0.04999999 0.00000000 0.34375000
0.03750001 0.00000000 0.37500000
0.02500005 0.00000000 0.40625000
0.01249997 0.00000000 0.43750000
0.00000006 0.00000000 0.46875000
0.00000000 0.01249993 0.50000000
0.00000000 0.02499994 0.53125000
0.00000000 0.03749983 0.56250000
0.00000000 0.04999999 0.59375000
0.00000000 0.06249987 0.62500000
0.00000000 0.07499991 0.65625000
0.00000000 0.08749983 0.68750000
0.00000000 0.09999994 0.71875000
0.00000000 0.11249980 0.75000000
0.00000000 0.12499979 0.78125000
0.00000000 0.13749975 0.81250000
0.00000000 0.14999999 0.84375000
0.00000000 0.16249996 0.87500000
0.00000000 0.17499977 0.90625000
0.00000000 0.18750004 0.93750000
0.00000000 0.19999969 0.96875000
0.00000000 0.21249986 1.00000000
0.21875000 0.00000000 0.08749992
0.21875000 0.00000000 0.11874995
0.21875000 0.00000000 0.14999999
0.21875000 0.00000000 0.18124995
0.21875000 0.00000000 0.21249992
0.19375005 0.00000000 0.21875000
0.16250002 0.00000000 0.21875000
0.13125005 0.00000000 0.21875000
0.11875010 0.00000000 0.25000000
0.10625001 0.00000000 0.28125000
0.09375006 0.00000000 0.31250000
0.08125009 0.00000000 0.34375000
0.06875002 0.00000000 0.37500000
0.05625012 0.00000000 0.40625000
0.04375001 0.00000000 0.43750000
0.03124997 0.00000000 0.46875000
0.01875013 0.00000000 0.50000000
0.00625016 0.00000000 0.53125000
0.00000000 0.00624995 0.56250000
0.00000000 0.01874990 0.59375000
0.00000000 0.03124990 0.62500000
0.00000000 0.04374980 0.65625000
0.00000000 0.05624986 0.68750000
0.00000000 0.06874995 0.71875000
0.00000000 0.08124992 0.75000000
0.00000000 0.09374982 0.78125000
0.00000000 0.10624982 0.81250000
0.00000000 0.11875001 0.84375000
0.00000000 0.13125008 0.87500000
0.00000000 0.14374970 0.90625000
0.00000000 0.15624997 0.93750000
0.00000000 0.16874972 0.96875000
0.00000000 0.18124998 1.00000000
0.25000000 0.00000000 0.09999990
0.25000000 0.00000000 0.13124996
0.25000000 0.00000000 0.16249993
0.25000000 0.00000000 0.19374990
0.25000000 0.00000000 0.22499996
0.24375007 0.00000000 0.25000000
0.21250010 0.00000000 0.25000000
0.18125004 0.00000000 0.25000000
0.15000007 0.00000000 0.25000000
0.13750009 0.00000000 0.28125000
0.12500003 0.00000000 0.31250000
0.11250006 0.00000000 0.34375000
0.10000004 0.00000000 0.37500000
0.08750004 0.00000000 0.40625000
0.07500005 0.00000000 0.43750000
0.06250005 0.00000000 0.46875000
0.05000001 0.00000000 0.50000000
0.03750006 0.00000000 0.53125000
0.02500013 0.00000000 0.56250000
0.01249998 0.00000000 0.59375000
0.00000007 0.00000000 0.62500000
0.00000000 0.01249992 0.65625000
0.00000000 0.02499989 0.68750000
0.00000000 0.03749996 0.71875000
0.00000000 0.04999977 0.75000000
0.00000000 0.06249985 0.78125000
0.00000000 0.07499990 0.81250000
0.00000000 0.08750003 0.84375000
0.00000000 0.09999989 0.87500000
0.00000000 0.11249995 0.90625000
0.00000000 0.12499988 0.93750000
0.00000000 0.13749975 0.96875000
0.00000000 0.14999974 1.00000000
0.28125000 0.00000000 0.11249989
0.28125000 0.00000000 0.14374998
0.28125000 0.00000000 0.17499995
0.28125000 0.00000000 0.20624994
0.28125000 0.00000000 0.23749992
0.28125000 0.00000000 0.26874989
0.26250002 0.00000000 0.28125000
0.23125003 0.00000000 0.28125000
0.20000005 0.00000000 0.28125000
0.16875008 0.00000000 0.28125000
0.15625000 0.00000000 0.31250000
0.14375003 0.00000000 0.34375000
0.13125005 0.00000000 0.37500000
0.11875011 0.00000000 0.40625000
0.10625008 0.00000000 0.43750000
0.09375013 0.00000000 0.46875000
0.08125007 0.00000000 0.50000000
0.06875016 0.00000000 0.53125000
0.05625001 0.00000000 0.56250000
0.04375007 0.00000000 0.59375000
0.03125004 0.00000000 0.62500000
0.01874996 0.00000000 0.65625000
0.00625008 0.00000000 0.68750000
0.00000000 0.00624996 0.71875000
0.00000000 0.01874989 0.75000000
0.00000000 0.03124988 0.78125000
0.00000000 0.04374997 0.81250000
0.00000000 0.05624975 0.84375000
0.00000000 0.06875001 0.87500000
0.00000000 0.08124988 0.90625000
0.00000000 0.09374980 0.93750000
0.00000000 0.10624978 0.96875000
0.00000000 0.11874986 1.00000000
0.31250000 0.00000000 0.12499988
0.31250000 0.00000000 0.15624985
0.31250000 0.00000000 0.18749994
0.31250000 0.00000000 0.21874991
0.31250000 0.00000000 0.24999999
0.31250000 0.00000000 0.28124994
0.31250000 0.00000000 0.31249994
0.28125012 0.00000000 0.31250000
0.25000012 0.00000000 0.31250000
0.21875006 0.00000000 0.31250000
0.18750009 0.00000000 0.31250000
0.17500000 0.00000000 0.34375000
0.16250007 0.00000000 0.37500000
0.15000004 0.00000000 0.40625000
0.13750012 0.00000000 0.43750000
0.12500004 0.00000000 0.46875000
0.11250013 0.00000000 0.50000000
0.10000005 0.00000000 0.53125000
0.08750010 0.00000000 0.56250000
0.07500017 0.00000000 0.59375000
0.06250001 0.00000000 0.62500000
0.05000008 0.00000000 0.65625000
0.03750005 0.00000000 0.68750000
0.02500003 0.00000000 0.71875000
0.01249999 0.00000000 0.75000000
0.00000009 0.00000000 0.78125000
0.00000000 0.01250005 0.81250000
0.00000000 0.02499976 0.84375000
0.00000000 0.03749982 0.87500000
0.00000000 0.04999981 0.90625000
0.00000000 0.06249972 0.93750000
0.00000000 0.07499981 0.96875000
0.00000000 0.08749998 1.00000000
0.34375000 0.00000000 0.13749987
0.34375000 0.00000000 0.16874984
0.34375000 0.00000000 0.19999993
0.34375000 0.00000000 0.23124990
0.34375000 0.00000000 0.26249999
0.34375000 0.00000000 0.29374996
0.34375000 0.00000000 0.32499993
0.33125010 0.00000000 0.34375000
0.30000013 0.00000000 0.34375000
0.26875016 0.00000000 0.34375000
0.23750006 0.00000000 0.34375000
0.20625009 0.00000000 0.34375000
0.19375008 0.00000000 0.37500000
0.18125011 0.00000000 0.40625000
0.16875000 0.00000000 0.43750000
0.15625013 0.00000000 0.46875000
0.14375001 0.00000000 0.50000000
0.13125014 0.00000000 0.53125000
0.11874998 0.00000000 0.56250000
0.10625005 0.00000000 0.59375000
0.09374999 0.00000000 0.62500000
0.08125019 0.00000000 0.65625000
0.06875002 0.00000000 0.68750000
0.05625002 0.00000000 0.71875000
0.04375014 0.00000000 0.75000000
0.03125006 0.00000000 0.78125000
0.01875017 0.00000000 0.81250000
0.00625022 0.00000000 0.84375000
0.00000000 0.00624993 0.87500000
0.00000000 0.01874974 0.90625000
0.00000000 0.03124997 0.93750000
0.00000000 0.04374984 0.96875000
0.00000000 0.05624974 1.00000000
0.37500000 0.00000000 0.14999986
0.37500000 0.00000000 0.18124987
0.37500000 0.00000000 0.21249989
0.37500000 0.00000000 0.24374990
0.37500000 0.00000000 0.27499992
0.37500000 0.00000000 0.30624992
0.37500000 0.00000000 0.33749995
0.37500000 0.00000000 0.36874983
0.35000002 0.00000000 0.37500000
0.31875014 0.00000000 0.37500000
0.28749999 0.00000000 0.37500000
0.25625011 0.00000000 0.37500000
0.22500010 0.00000000 0.37500000
0.21250004 0.00000000 0.40625000
0.20000005 0.00000000 0.43750000
0.18750004 0.00000000 0.46875000
0.17500007 0.00000000 0.50000000
0.16250005 0.00000000 0.53125000
0.15000007 0.00000000 0.56250000
0.13750014 0.00000000 0.59375000
0.12500018 0.00000000 0.62500000
0.11250007 0.00000000 0.65625000
0.09999999 0.00000000 0.68750000
0.08750001 0.00000000 0.71875000
0.07500002 0.00000000 0.75000000
0.06250003 0.00000000 0.78125000
0.05000009 0.00000000 0.81250000
0.03750020 0.00000000 0.84375000
0.02499995 0.00000000 0.87500000
0.01250001 0.00000000 0.90625000
0.00000011 0.00000000 0.93750000
0.00000000 0.01249987 0.96875000
0.00000000 0.02499986 1.00000000
0.40625000 0.00000000 0.16249985
0.40625000 0.00000000 0.19374992
0.40625000 0.00000000 0.22499999
0.40625000 0.00000000 0.25624990
0.40625000 0.00000000 0.28749985
0.40625000 0.00000000 0.31874990
0.40625000 0.00000000 0.34999996
0.40625000 0.00000000 0.38124990
0.40000015 0.00000000 0.40625000
0.36875010 0.00000000 0.40625000
0.33750004 0.00000000 0.40625000
0.30625010 0.00000000 0.40625000
0.27500018 0.00000000 0.40625000
0.24375011 0.00000000 0.40625000
0.23125008 0.00000000 0.43750000
0.21875012 0.00000000 0.46875000
0.20625013 0.00000000 0.50000000
0.19375014 0.00000000 0.53125000
0.18125014 0.00000000 0.56250000
0.16875002 0.00000000 0.59375000
0.15625015 0.00000000 0.62500000
0.14375019 0.00000000 0.65625000
0.13125020 0.00000000 0.68750000
0.11875001 0.00000000 0.71875000
0.10625017 0.00000000 0.75000000
0.09375000 0.00000000 0.78125000
0.08125002 0.00000000 0.81250000
0.06875018 0.00000000 0.84375000
0.05625014 0.00000000 0.87500000
0.04375008 0.00000000 0.90625000
0.03125019 0.00000000 0.93750000
0.01875010 0.00000000 0.96875000
0.00625002 0.00000000 1.00000000
0.43750000 0.00000000 0.17499983
0.43750000 0.00000000 0.20624986
0.43750000 0.00000000 0.23749991
0.43750000 0.00000000 0.26874977
0.43750000 0.00000000 0.29999998
0.43750000 0.00000000 0.33124986
0.43750000 0.00000000 0.36249989
0.43750000 0.00000000 0.39374995
0.43750000 0.00000000 0.42499983
0.41875014 0.00000000 0.43750000
0.38750011 0.00000000 0.43750000
0.35625008 0.00000000 0.43750000
0.32500005 0.00000000 0.43750000
0.29375017 0.00000000 0.43750000
0.26250011 0.00000000 0.43750000
0.25000003 0.00000000 0.46875000
0.23750019 0.00000000 0.50000000
0.22500005 0.00000000 0.53125000
0.21250002 0.00000000 0.56250000
0.20000011 0.00000000 0.59375000
0.18750012 0.00000000 0.62500000
0.17500007 0.00000000 0.65625000
0.16250017 0.00000000 0.68750000
0.15000001 0.00000000 0.71875000
0.13750005 0.00000000 0.75000000
0.12500025 0.00000000 0.78125000
0.11250024 0.00000000 0.81250000
0.10000016 0.00000000 0.84375000
0.08750002 0.00000000 0.87500000
0.07500015 0.00000000 0.90625000
0.06249994 0.00000000 0.93750000
0.05000007 0.00000000 0.96875000
0.03750026 0.00000000 1.00000000
0.46875000 0.00000000 0.18749982
0.46875000 0.00000000 0.21874991
0.46875000 0.00000000 0.24999982
0.46875000 0.00000000 0.28124991
0.46875000 0.00000000 0.31249982
0.46875000 0.00000000 0.34374988
0.46875000 0.00000000 0.37499997
0.46875000 0.00000000 0.40624988
0.46875000 0.00000000 0.43749982
0.46875000 0.00000000 0.46874988
0.43750003 0.00000000 0.46875000
0.40625012 0.00000000 0.46875000
0.37500021 0.00000000 0.46875000
0.34375012 0.00000000 0.46875000
0.31250003 0.00000000 0.46875000
0.28125012 0.00000000 0.46875000
0.26875007 0.00000000 0.50000000
0.25625014 0.00000000 0.53125000
0.24375010 0.00000000 0.56250000
0.23124999 0.00000000 0.59375000
0.21875009 0.00000000 0.62500000
0.20625019 0.00000000 0.65625000
0.19375014 0.00000000 0.68750000
0.18124999 0.00000000 0.71875000
0.16875020 0.00000000 0.75000000
0.15625022 0.00000000 0.78125000
0.14375016 0.00000000 0.81250000
0.13125014 0.00000000 0.84375000
0.11875021 0.00000000 0.87500000
0.10625022 0.00000000 0.90625000
0.09375002 0.00000000 0.93750000
0.08125004 0.00000000 0.96875000
0.06875014 0.00000000 1.00000000
0.50000000 0.00000000 0.19999981
0.50000000 0.00000000 0.23124987
0.50000000 0.00000000 0.26249993
0.50000000 0.00000000 0.29374981
0.50000000 0.00000000 0.32499987
0.50000000 0.00000000 0.35624993
0.50000000 0.00000000 0.38749981
0.50000000 0.00000000 0.41874987
0.50000000 0.00000000 0.44999993
0.50000000 0.00000000 0.48124981
0.48750013 0.00000000 0.50000000
0.45625007 0.00000000 0.50000000
0.42500019 0.00000000 0.50000000
0.39375013 0.00000000 0.50000000
0.36250007 0.00000000 0.50000000
0.33125019 0.00000000 0.50000000
0.30000013 0.00000000 0.50000000
0.28750005 0.00000000 0.53125000
0.27500018 0.00000000 0.56250000
0.26250008 0.00000000 0.59375000
0.25000006 0.00000000 0.62500000
0.23750007 0.00000000 0.65625000
0.22500011 0.00000000 0.68750000
0.21249998 0.00000000 0.71875000
0.20000008 0.00000000 0.75000000
0.18750019 0.00000000 0.78125000
0.17500009 0.00000000 0.81250000
0.16250013 0.00000000 0.84375000
0.15000010 0.00000000 0.87500000
0.13749996 0.00000000 0.90625000
0.12500010 0.00000000 0.93750000
0.11250001 0.00000000 0.96875000
0.10000002 0.00000000 1.00000000
0.53125000 0.00000000 0.21249980
0.53125000 0.00000000 0.24374989
0.53125000 0.00000000 0.27499998
0.53125000 0.00000000 0.30624989
0.53125000 0.00000000 0.33749980
0.53125000 0.00000000 0.36874989
0.53125000 0.00000000 0.39999998
0.53125000 0.00000000 0.43124989
0.53125000 0.00000000 0.46249980
0.53125000 0.00000000 0.49374989
0.53125000 0.00000000 0.52499998
0.50625014 0.00000000 0.53125000
0.47500023 0.00000000 0.53125000
0.44375014 0.00000000 0.53125000
0.41250002 0.00000000 0.53125000
0.38125014 0.00000000 0.53125000
0.35000023 0.00000000 0.53125000
0.31875014 0.00000000 0.53125000
0.30625007 0.00000000 0.56250000
0.29375017 0.00000000 0.59375000
0.28125003 0.00000000 0.62500000
0.26875019 0.00000000 0.65625000
0.25625008 0.00000000 0.68750000
0.24374998 0.00000000 0.71875000
0.23125023 0.00000000 0.75000000
0.21875016 0.00000000 0.78125000
0.20625001 0.00000000 0.81250000
0.19375011 0.00000000 0.84375000
0.18124998 0.00000000 0.87500000
0.16875003 0.00000000 0.90625000
0.15625018 0.00000000 0.93750000
0.14375032 0.00000000 0.96875000
0.13125026 0.00000000 1.00000000
0.56250000 0.00000000 0.22499979
0.56250000 0.00000000 0.25624987
0.56250000 0.00000000 0.28749996
0.56250000 0.00000000 0.31874985
0.56250000 0.00000000 0.34999990
0.56250000 0.00000000 0.38124999
0.56250000 0.00000000 0.41249987
0.56250000 0.00000000 0.44374976
0.56250000 0.00000000 0.47499985
0.56250000 0.00000000 0.50624990
0.56250000 0.00000000 0.53749979
0.55625010 0.00000000 0.56250000
0.52500004 0.00000000 0.56250000
0.49375015 0.00000000 0.56250000
0.46250007 0.00000000 0.56250000
0.43124998 0.00000000 0.56250000
0.40000010 0.00000000 0.56250000
0.36875021 0.00000000 0.56250000
0.33750015 0.00000000 0.56250000
0.32500005 0.00000000 0.59375000
0.31250000 0.00000000 0.62500000
0.30000007 0.00000000 0.65625000
0.28750005 0.00000000 0.68750000
0.27499998 0.00000000 0.71875000
0.26250011 0.00000000 0.75000000
0.25000012 0.00000000 0.78125000
0.23750022 0.00000000 0.81250000
0.22500008 0.00000000 0.84375000
0.21250017 0.00000000 0.87500000
0.20000011 0.00000000 0.90625000
0.18750027 0.00000000 0.93750000
0.17500030 0.00000000 0.96875000
0.16250014 0.00000000 1.00000000
0.59375000 0.00000000 0.23749977
0.59375000 0.00000000 0.26874986
0.59375000 0.00000000 0.29999995
0.59375000 0.00000000 0.33124983
0.59375000 0.00000000 0.36249971
0.59375000 0.00000000 0.39374980
0.59375000 0.00000000 0.42499989
0.59375000 0.00000000 0.45624977
0.59375000 0.00000000 0.48749989
0.59375000 0.00000000 0.51874995
0.59375000 0.00000000 0.54999983
0.59375000 0.00000000 0.58124971
0.57500017 0.00000000 0.59375000
0.54375005 0.00000000 0.59375000
0.51250017 0.00000000 0.59375000
0.48125011 0.00000000 0.59375000
0.45000002 0.00000000 0.59375000
0.41875014 0.00000000 0.59375000
0.38750026 0.00000000 0.59375000
0.35625017 0.00000000 0.59375000
0.34374997 0.00000000 0.62500000
0.33125019 0.00000000 0.65625000
0.31875002 0.00000000 0.68750000
0.30624998 0.00000000 0.71875000
0.29374999 0.00000000 0.75000000
0.28125012 0.00000000 0.78125000
0.26875016 0.00000000 0.81250000
0.25625008 0.00000000 0.84375000
0.24375005 0.00000000 0.87500000
0.23125018 0.00000000 0.90625000
0.21875001 0.00000000 0.93750000
0.20625027 0.00000000 0.96875000
0.19375002 0.00000000 1.00000000
0.62500000 0.00000000 0.24999976
0.62500000 0.00000000 0.28124973
0.62500000 0.00000000 0.31249970
0.62500000 0.00000000 0.34374988
0.62500000 0.00000000 0.37499988
0.62500000 0.00000000 0.40624982
0.62500000 0.00000000 0.43749982
0.62500000 0.00000000 0.46874976
0.62500000 0.00000000 0.49999997
1.00000000 1.00000000 1.00000000
1.00000000 1.00000000 1.00000000
1.00000000 1.00000000 1.00000000
1.00000000 1.00000000 1.00000000
1.00000000 1.00000000 1.00000000
0.56250024 0.00000000 0.62500000
0.53125024 0.00000000 0.62500000
0.50000024 0.00000000 0.62500000
0.46875006 0.00000000 0.62500000
0.43750012 0.00000000 0.62500000
0.40625012 0.00000000 0.62500000
0.37500018 0.00000000 0.62500000
0.36250007 0.00000000 0.65625000
0.34999999 0.00000000 0.68750000
0.33750021 0.00000000 0.71875000
0.32500014 0.00000000 0.75000000
0.31250006 0.00000000 0.78125000
0.30000007 0.00000000 0.81250000
0.28750005 0.00000000 0.84375000
0.27500024 0.00000000 0.87500000
0.26250026 0.00000000 0.90625000
0.25000009 0.00000000 0.93750000
0.23750024 0.00000000 0.96875000
0.22500026 0.00000000 1.00000000
0.65625000 0.00000000 0.26249975
0.65625000 0.00000000 0.29374987
0.65625000 0.00000000 0.32499999
0.65625000 0.00000000 0.35624987
0.65625000 0.00000000 0.38749975
0.65346771 0.00001821 0.41698107
1.00000000 1.00000000 1.00000000
1.00000000 1.00000000 1.00000000
1.00000000 1.00000000 1.00000000
1.00000000 1.00000000 1.00000000
1.00000000 1.00000000 1.00000000
1.00000000 1.00000000 1.00000000
1.00000000 1.00000000 1.00000000
1.00000000 1.00000000 1.00000000
1.00000000 1.00000000 1.00000000
1.00000000 1.00000000 1.00000000
0.55000031 0.00000000 0.65625000
0.51875019 0.00000000 0.65625000
0.48750004 0.00000000 0.65625000
0.45625016 0.00000000 0.65625000
0.42500028 0.00000000 0.65625000
0.39375016 0.00000000 0.65625000
0.38124996 0.00000000 0.68750000
0.36875021 0.00000000 0.71875000
0.35625029 0.00000000 0.75000000
0.34375006 0.00000000 0.78125000
0.33125031 0.00000000 0.81250000
0.31875002 0.00000000 0.84375000
0.30625013 0.00000000 0.87500000
0.29374999 0.00000000 0.90625000
0.28125018 0.00000000 0.93750000
