G_Major_2-ish/G Major 2-ish.cube
# VEGAS Pro LUT
TITLE "G Major 2-ish"
LUT_3D_SIZE 5
0.18963559 -0.10071403 -1.01786697
0.13641924 0.02008243 -0.90165144
0.06852574 0.08950669 -0.82199788
-0.01158875 0.11495499 -0.77826250
-0.04086086 0.12221776 -0.76438624
0.31675899 -0.03642041 -0.57907528
0.28910220 0.11702407 -0.42692962
0.24850947 0.18815351 -0.32499146
0.21070391 0.22482820 -0.27017748
0.19457990 0.23640539 -0.25299504
0.55338836 -0.29184180 -0.19746748
0.56871152 0.08883964 -0.01471775
0.56398332 0.23757805 0.10912892
0.54789102 0.30583411 0.17431450
0.53942412 0.32759503 0.19570267
0.75434357 -0.74790227 0.05911357
0.82006341 -0.29451400 0.22316945
0.86051589 0.18084258 0.37218070
0.87823904 0.29865146 0.47469088
0.88256997 0.33370972 0.51164579
0.83266717 -0.99579537 0.11954950
0.92271256 -0.58084124 0.30418727
0.99421161 0.04524779 0.48377386
1.04205322 0.24286239 0.61581224
1.05995047 0.28590584 0.66591454
0.20404935 -0.06299557 -1.29221678
0.14883938 0.06230430 -1.17563426
0.07712018 0.11589756 -1.09555924
-0.01406849 0.13877596 -1.05154788
-0.04902423 0.14555550 -1.03757942
0.32036948 0.03157401 -0.85723180
0.27911258 0.16156675 -0.70571512
0.21705550 0.23018086 -0.60465676
0.15103135 0.26747513 -0.55058557
0.11720745 0.27942193 -0.53368956
0.55339932 -0.12693247 -0.47909349
0.55408847 0.20028670 -0.29888016
0.52753448 0.32483128 -0.18322094
0.48932737 0.39519787 -0.12577878
0.46997473 0.41885000 -0.10358130
0.76366705 -0.52401662 -0.21809389
0.82923114 0.11965249 0.00583028
0.86831409 0.33694169 0.22448614
0.87704229 0.45099622 0.35189947
0.87473631 0.49168253 0.39908841
0.84824306 -0.76247919 -0.12108614
0.94895720 -0.08985859 0.14568534
1.03553557 0.30333340 0.36643463
1.09980524 0.43690941 0.54273474
1.12721682 0.48423505 0.61740017
0.22180863 -0.04060185 -1.56364131
0.16817090 0.08127815 -1.44925702
0.10130704 0.13023819 -1.37055254
0.01717056 0.15245642 -1.32726133
-0.02249314 0.15915653 -1.31351912
0.32813525 0.07166532 -1.14858270
0.27757859 0.18725036 -1.00092447
0.19861971 0.25630319 -0.90284228
0.09978724 0.29457548 -0.85059726
0.02144152 0.30690596 -0.83431613
0.55489159 -0.00021010 -0.78740662
0.54190165 0.25525767 -0.61397493
0.48932561 0.38071865 -0.50655258
0.41324642 0.45708591 -0.45714805
0.37088895 0.48363018 -0.44403303
0.77059215 -0.34292641 -0.53463691
0.82949656 0.23524047 -0.32864290
0.85973388 0.43218052 -0.17705700
0.84479582 0.56628603 0.13169228
0.82102090 0.62074691 0.20887551
0.85938305 -0.56938756 -0.43929657
0.96251833 0.18215844 -0.21181975
1.06276500 0.42172301 0.17216054
1.14625049 0.58488065 0.43094918
1.19109786 0.65795523 0.55687839
0.23802386 -0.03125849 -1.78647733
0.18749909 0.08869827 -1.67709005
0.12746298 0.13650967 -1.60176563
0.06446631 0.15869434 -1.56032538
0.02686324 0.16543682 -1.54717171
0.33853292 0.08647910 -1.41215980
0.28456014 0.19955318 -1.27337885
0.19950028 0.26941535 -1.18172348
0.08704960 0.30839321 -1.13316393
-0.01238974 0.32097119 -1.11807716
0.55943406 0.06545027 -1.09245980
0.53780526 0.28209013 -0.93400377
0.46595138 0.41071120 -0.83991098
0.35292003 0.49191090 -0.80075926
0.27898777 0.52078837 -0.79186004
0.77707303 -0.23720752 -0.86919016
0.83051044 0.28317821 -0.68391871
0.84558600 0.48649791 -0.58601153
0.79294443 0.64289290 -0.57772720
0.72094977 0.71541429 -0.54879802
0.86803663 -0.45511183 -0.78428298
0.97019428 0.24905431 -0.57908207
1.07563472 0.48934504 -0.45821318
1.17599642 0.69673932 0.19968149
1.20010042 0.83766669 0.43590069
0.24530652 -0.02931130 -1.88291633
0.19650584 0.09036353 -1.77727306
0.13971837 0.13804735 -1.70457733
0.08393935 0.16028893 -1.66460609
0.05455950 0.16706312 -1.65192318
0.34457049 0.08991232 -1.54169893
0.29058433 0.20290212 -1.41150033
0.20596088 0.27315259 -1.32629275
0.09710812 0.31239694 -1.28149796
0.00364826 0.32506296 -1.26764107
0.56341136 0.07887695 -1.26838934
0.53948402 0.28981838 -1.13027704
0.46162713 0.41987425 -1.05385661
0.33443981 0.50292218 -1.02674758
0.24436142 0.53270823 -1.02228570
0.78163582 -0.20636657 -1.09515941
0.83354998 0.29665014 -0.95314443
0.84259897 0.50384939 -0.90276885
0.76584786 0.67086828 -0.94192725
0.65086573 0.75414532 -0.99412841
0.87336820 -0.42200869 -1.03533947
0.97555220 0.26666626 -0.89188313
1.08037579 0.51180428 -0.83846879
1.18878031 0.74429327 -0.81196517
1.12926280 0.93300450 -0.27163461
