G_Major_2-ish/G Major 2-ish.cube
# VEGAS Pro LUT
TITLE "G Major 2-ish"
LUT_3D_SIZE 9
0.18963559 -0.10071403 -1.01786697
0.16449285 -0.03689924 -0.95530933
0.13641924 0.02008243 -0.90165144
0.10486634 0.06436082 -0.85719174
0.06852574 0.08950669 -0.82199788
0.02426799 0.10525151 -0.79586148
-0.01158875 0.11495499 -0.77826250
-0.03248687 0.12019384 -0.76831180
-0.04086086 0.12221776 -0.76438624
0.24135841 -0.03591803 -0.79572284
0.22304504 0.03306792 -0.72294027
0.20371239 0.08138030 -0.65994382
0.18306459 0.11125387 -0.60773706
0.16143680 0.13339880 -0.56674010
0.14069852 0.14940348 -0.53650308
0.12328790 0.16006154 -0.51625097
0.11165796 0.16606265 -0.50484055
0.10660505 0.16842689 -0.50034702
0.31675899 -0.03642041 -0.57907528
0.30508095 0.05645879 -0.49677414
0.28910220 0.11702407 -0.42692962
0.26970392 0.15787372 -0.36973470
0.24850947 0.18815351 -0.32499146
0.22789635 0.21013020 -0.29211986
0.21070391 0.22482820 -0.27017748
0.19941342 0.23312947 -0.25784501
0.19457990 0.23640539 -0.25299504
0.43083712 -0.12537962 -0.37679902
0.42863387 0.01722334 -0.28651330
0.42152479 0.12430082 -0.21006361
0.41023788 0.18252197 -0.14773744
0.39628041 0.22423144 -0.09929187
0.38188928 0.25435939 -0.06396868
0.36962128 0.27456996 -0.04056310
0.36154133 0.28603119 -0.02748376
0.35809249 0.29056588 -0.02235703
0.55338836 -0.29184180 -0.19746748
0.56357688 -0.11123325 -0.09852354
0.56871152 0.08883964 -0.01471775
0.56887197 0.17976679 0.05575359
0.56398332 0.23757805 0.10912892
0.55604345 0.27845091 0.14779626
0.54789102 0.30583411 0.17431450
0.54202604 0.32141402 0.18960203
0.53942412 0.32759503 0.19570267
0.66587859 -0.51694542 -0.04856873
0.68986750 -0.31966829 0.05714680
0.70817143 -0.06732056 0.13149108
0.71944082 0.14035667 0.19804434
0.72436339 0.22432335 0.25594211
0.72456235 0.27893880 0.30274230
0.72235316 0.31481561 0.33643571
0.72002357 0.33515409 0.35636720
0.71885169 0.34322450 0.36441952
0.75434357 -0.74790227 0.05911357
0.79018533 -0.55468112 0.14146486
0.82006341 -0.29451400 0.22316945
0.84349638 0.01786451 0.30144393
0.86051589 0.18084258 0.37218070
0.87172222 0.25357053 0.43114400
0.87823904 0.29865146 0.47469088
0.88142955 0.32378441 0.50093353
0.88256997 0.33370972 0.51164579
0.80972213 -0.91867405 0.10272899
0.85333586 -0.73797435 0.19006976
0.89211220 -0.48717600 0.28017971
0.92555141 -0.18019855 0.36835891
0.95328844 0.11227192 0.44983232
0.97502029 0.21241792 0.51934290
0.99048835 0.26643389 0.57182640
0.99965513 0.29544494 0.60401195
1.00337696 0.30675486 0.61728448
0.83266717 -0.99579537 0.11954950
0.87977695 -0.82336736 0.21009929
0.92271256 -0.58084124 0.30418727
0.96101886 -0.28207797 0.39706379
0.99421161 0.04524779 0.48377386
1.02157056 0.18278897 0.55862552
1.04205322 0.24286239 0.61581224
1.05469453 0.27394536 0.65122503
1.05995047 0.28590584 0.66591454
0.19625594 -0.07991482 -1.15398812
0.17049576 -0.01386514 -1.09120774
0.14153644 0.04513009 -1.03732133
0.10870357 0.08220758 -0.99264795
0.07037327 0.10458871 -0.95726979
0.02238959 0.11918923 -0.93099034
-0.01688284 0.12836115 -0.91329169
-0.03983897 0.13336143 -0.90328413
-0.04905220 0.13530171 -0.89933610
0.24663216 -0.01317678 -0.93201667
0.22739360 0.05633169 -0.85867733
0.20663069 0.09748552 -0.79523492
0.18343800 0.12663765 -0.74297333
0.15869159 0.14870730 -0.70195085
0.13432308 0.16482875 -0.67170918
0.11314717 0.17563047 -0.65146220
0.09847132 0.18173359 -0.64005864
0.09191797 0.18414199 -0.63556904
0.31811166 -0.00051016 -0.71549249
0.30327621 0.08893864 -0.63315481
0.28331688 0.14222817 -0.56334537
0.25899756 0.18145704 -0.50624758
0.23193663 0.21138468 -0.46164042
0.20479536 0.23340769 -0.42891169
0.18123411 0.24824709 -0.40708950
0.16512159 0.25666183 -0.39483449
0.15802634 0.25998855 -0.39001706
0.43010062 -0.06431632 -0.51374120
0.42435029 0.08553573 -0.42356539
0.41275644 0.16376761 -0.34740511
0.39599028 0.21761873 -0.28553307
0.37572318 0.25841871 -0.23764993
0.35473609 0.28864226 -0.20290415
0.33656019 0.30919948 -0.17998600
0.32438242 0.32094747 -0.16722444
0.31912425 0.32561269 -0.16223231
0.55339956 -0.20630243 -0.33437487
0.56044972 0.01050501 -0.23566885
0.56153673 0.15655626 -0.15244927
0.55681032 0.23120151 -0.08525389
0.54733950 0.28576481 -0.03352575
0.53476393 0.32625365 0.01929773
0.52225447 0.35409752 0.06514046
0.51328808 0.37017101 0.08740356
0.50930226 0.37659255 0.09572037
0.66822517 -0.41273645 -0.18485568
0.69002181 -0.16806093 -0.07696298
0.70666122 0.10590358 0.01552468
0.71624303 0.21754579 0.10865134
0.71843398 0.28995037 0.17581043
0.71505165 0.34274048 0.22783372
0.70914721 0.37916097 0.26489803
0.70404196 0.40035099 0.28678316
0.70159870 0.40886459 0.29562610
0.75946134 -0.63336134 -0.07321151
0.79541320 -0.38726503 0.04441321
0.82626581 -0.06068504 0.14324336
0.85011250 0.17524149 0.22924963
0.86669219 0.27055922 0.30627310
0.87658876 0.33593142 0.37099236
0.88133419 0.38060498 0.41936699
0.88301772 0.40667525 0.44882777
0.88342839 0.41719106 0.46092990
0.81711090 -0.80067217 -0.00498905
0.86282116 -0.56604910 0.10911966
0.90415692 -0.24461338 0.20781085
0.94010681 0.11090928 0.30321842
0.97009945 0.23780535 0.39252990
0.99370188 0.31371844 0.47037935
1.01058376 0.36408752 0.53055555
1.02064681 0.39324242 0.56820524
1.02475190 0.40498024 0.58392256
0.84123945 -0.87741858 0.02313191
0.89118516 -0.65095842 0.13259912
0.93748146 -0.33696470 0.23432852
0.97944772 0.05205712 0.33487749
1.01651490 0.21501711 0.43059701
1.04785192 0.29674068 0.51551986
1.07206941 0.34938556 0.58237737
1.08749723 0.37948260 0.62487960
1.09405184 0.39153129 0.64280158
0.20404935 -0.06299557 -1.29221678
0.17808662 0.00505759 -1.22950053
0.14883938 0.06230430 -1.17563426
0.11566892 0.09495675 -1.13095450
0.07712018 0.11589756 -1.09555924
0.02846640 0.12988295 -1.06926119
-0.01406849 0.13877596 -1.05154788
-0.03900209 0.14365599 -1.04153132
-0.04902423 0.14555550 -1.03757942
0.25294924 0.00542653 -1.07199490
0.23305982 0.07154606 -0.99845672
0.21093674 0.11003121 -0.93503261
0.18566196 0.13898952 -0.88293707
0.15827832 0.16119552 -0.84206349
0.13068749 0.17753285 -0.81194669
0.10593076 0.18852758 -0.79179347
0.08811180 0.19475615 -0.78044653
0.07990371 0.19721727 -0.77598029
0.32036948 0.03157401 -0.85723180
0.30272141 0.11116147 -0.77520108
0.27911258 0.16156675 -0.70571512
0.25008729 0.20021322 -0.64894819
0.21705550 0.23018086 -0.60465676
0.18263195 0.25241965 -0.57220173
0.15103135 0.26747513 -0.55058557
0.12793896 0.27603415 -0.53845567
0.11720745 0.27942193 -0.53368956
0.42987600 -0.00863370 -0.65731418
0.42070377 0.12295622 -0.56763929
0.40462786 0.19289728 -0.49210429
0.38213143 0.24528319 -0.43096918
0.35487822 0.28616029 -0.38388044
0.32606909 0.31691617 -0.34989426
0.30034804 0.33803266 -0.32759407
0.28257906 0.35016721 -0.31522739
0.27474543 0.35499910 -0.31040147
0.55339932 -0.12693247 -0.47909349
0.55726516 0.09738336 -0.38108897
0.55408847 0.20028670 -0.29888016
0.54381317 0.27044669 -0.23302895
0.52753448 0.32483128 -0.18322094
0.50796258 0.36626732 -0.14819039
0.48932737 0.39519787 -0.12577878
0.47596720 0.41207090 -0.11066467
0.46997473 0.41885000 -0.10358130
0.67005861 -0.31452006 -0.32995752
0.68948287 -0.02367950 -0.22284788
0.70287323 0.17822993 -0.13282046
0.70941567 0.27181891 -0.05920341
0.70786411 0.34199536 0.04599392
0.69947833 0.39600924 0.12514791
0.68819410 0.43448123 0.17139556
0.67888355 0.45731813 0.19738992
0.67446458 0.46659070 0.20772851
0.76366705 -0.52401662 -0.21809389
0.79841769 -0.22355162 -0.10201029
0.82923114 0.11965249 0.00583028
0.85296530 0.24988864 0.13441925
0.86831409 0.33694169 0.22448614
0.87566334 0.40320903 0.29742581
0.87704229 0.45099622 0.35189947
0.87578416 0.47983709 0.38529569
0.87473631 0.49168253 0.39908841
0.82322168 -0.68686324 -0.14945392
0.86933202 -0.39524660 -0.02654222
0.91289365 0.00003057 0.11210850
0.95109552 0.21614625 0.22326647
0.98303086 0.31783769 0.32315907
1.00805020 0.39254808 0.41112888
1.02578938 0.44628662 0.48074806
1.03627563 0.47892496 0.52536172
1.04053330 0.49241003 0.54428482
0.84824306 -0.76247919 -0.12108614
0.89953446 -0.47893879 0.00607588
0.94895720 -0.08985859 0.14568534
0.99450880 0.19330120 0.25944164
1.03553557 0.30333340 0.36643463
1.07117903 0.38140327 0.46355167
1.09980524 0.43690941 0.54273474
1.11885500 0.47042859 0.59487808
1.12721682 0.48423505 0.61740017
0.21272667 -0.04994658 -1.43014586
0.18694115 0.01982505 -1.36783743
0.15794772 0.07370654 -1.31428885
0.12526906 0.10412027 -1.26985204
0.08795708 0.12427571 -1.23463774
0.04285616 0.13793683 -1.20846891
-0.00254936 0.14669551 -1.19084120
-0.02928642 0.15152425 -1.18087256
-0.04004868 0.15340802 -1.17693961
0.26016364 0.01984166 -1.21366274
0.23992601 0.08190973 -1.14036596
0.21673268 0.11960641 -1.07741356
0.19000033 0.14863424 -1.02575207
0.16074467 0.17107670 -0.98523819
0.13081490 0.18767036 -0.95540273
0.10335764 0.19887432 -0.93544781
0.08302906 0.20523438 -0.92421728
0.07342658 0.20775020 -0.91979742
0.32371578 0.05639546 -1.00265265
0.30376264 0.12719390 -0.92135733
0.27709776 0.17633578 -0.85255289
0.24399604 0.21486428 -0.79640353
0.20548736 0.24503723 -0.75264788
0.16369985 0.26754767 -0.72062373
0.12255781 0.28283256 -0.69931650
0.08911262 0.29153594 -0.68736804
0.07170372 0.29498339 -0.68267518
0.43051925 0.03938447 -0.80627882
0.41826019 0.14824983 -0.71758461
0.39800629 0.21492235 -0.64307398
0.36992374 0.26697534 -0.58299690
0.33543271 0.30832827 -0.53695124
0.29783839 0.33977231 -0.50390762
0.26276582 0.36150894 -0.48234925
0.23734343 0.37405244 -0.47044921
0.22572762 0.37905794 -0.46581787
0.55379146 -0.05729264 -0.63074982
0.55463058 0.14015023 -0.53399390
0.54725420 0.23202081 -0.45326373
0.53125727 0.30097815 -0.38915795
0.50753576 0.35623026 -0.34131005
0.47911417 0.39916074 -0.30827442
0.45151338 0.42954636 -0.28770286
0.43140271 0.44741836 -0.27683377
0.42229021 0.45462954 -0.27272260
0.67175752 -0.22708750 -0.48330906
0.68879884 0.08781479 -0.37762076
0.69876081 0.22414702 -0.28948224
0.70045823 0.31321526 -0.22019303
0.69351608 0.38419932 -0.16951992
0.67858726 0.44069266 -0.10568137
0.65986615 0.48197681 -0.02909699
0.64441377 0.50693816 0.03034596
0.63700324 0.51718009 0.05561870
0.76727688 -0.42556456 -0.37222269
0.80065125 -0.07394605 -0.25753877
0.82965314 0.19094522 -0.16101502
0.85245454 0.30322847 -0.06333154
0.86571765 0.38992861 0.10351723
0.86901218 0.46002451 0.19998406
0.86476278 0.51281780 0.26503685
0.85825413 0.54574722 0.30415264
0.85447991 0.55954248 0.32026252
0.82842934 -0.58364624 -0.30378133
0.87411135 -0.23670845 -0.18211204
0.91849226 0.14319816 -0.07488046
0.95857269 0.28133383 0.10881072
0.99199069 0.37966806 0.23425730
1.01764488 0.45879617 0.33670515
1.03505290 0.51938075 0.41845283
1.04473257 0.55803478 0.47212711
1.04846299 0.57450908 0.49534199
0.85421246 -0.65792036 -0.27542207
0.90558255 -0.31785652 -0.15044588
0.95718580 0.10844919 -0.02462838
1.00609469 0.26606128 0.15885118
1.05100429 0.36963430 0.28571880
1.09110308 0.45186010 0.39873743
1.12476611 0.51465845 0.49397159
1.14854658 0.55474555 0.55965352
1.15953207 0.57184047 0.58907300
0.22180863 -0.04060185 -1.56364131
0.19650032 0.03056017 -1.50214040
0.16817090 0.08127815 -1.44925702
0.13656157 0.11049780 -1.40535355
0.10130704 0.13023819 -1.37055254
0.06142393 0.14374661 -1.34468591
0.01717056 0.15245642 -1.32726133
-0.01109964 0.15727408 -1.31740689
-0.02249314 0.15915653 -1.31351912
0.26795852 0.03018255 -1.35333967
0.24761985 0.08900831 -1.28085434
0.22382694 0.12658224 -1.21881294
0.19632728 0.15580839 -1.16791821
0.16610909 0.17852189 -1.12802529
0.13502221 0.19537374 -1.09866369
0.10629319 0.20677964 -1.07903636
0.08483332 0.21326473 -1.06799471
0.07461540 0.21583217 -1.06365013
0.32813525 0.07166532 -1.14858270
0.30649915 0.13862289 -1.06857908
0.27757859 0.18725036 -1.00092447
0.24140938 0.22587265 -0.94577175
0.19861971 0.25630319 -0.90284228
0.15058273 0.27908084 -0.87145913
0.09978724 0.29457548 -0.85059726
0.05153956 0.30340651 -0.83890659
0.02144152 0.30690596 -0.83431613
0.43224257 0.07051858 -0.95808089
0.41743186 0.16596511 -0.87100726
0.39362422 0.23126432 -0.79804963
0.36059296 0.28345951 -0.73944694
0.31929600 0.32540902 -0.69475520
0.27267939 0.35754225 -0.66287178
0.22672915 0.37986708 -0.64219487
0.19098531 0.39279157 -0.63083726
0.17360929 0.39795753 -0.62642998
0.55489159 -0.00021010 -0.78740662
0.55307829 0.16757697 -0.69262892
0.54190165 0.25525767 -0.61397493
0.52049667 0.32425272 -0.55208278
0.48932561 0.38071865 -0.50655258
0.45137277 0.42522952 -0.47578356
0.41324642 0.45708591 -0.45714805
0.38436142 0.47597420 -0.44757983
0.37088895 0.48363018 -0.44403303
0.67365474 -0.15443633 -0.64352202
0.68850118 0.13680680 -0.54009002
0.69518769 0.25635037 -0.45453829
0.69197941 0.34457454 -0.38835719
0.67789018 0.41762885 -0.34179267
0.65411228 0.47719091 -0.31317601
0.62571359 0.52160096 -0.29396707
0.60173553 0.54893374 -0.27315685
0.58996159 0.56027275 -0.26217830
0.77059215 -0.34292641 -0.53463691
0.80259073 0.05236273 -0.42230099
0.82949656 0.23524047 -0.32864290
0.84942740 0.34323084 -0.25614631
0.85973388 0.43218052 -0.17705700
0.85746360 0.50734156 -0.01034983
0.84479582 0.56628603 0.13169228
0.82962191 0.60439509 0.18756714
0.82102090 0.62074691 0.20887551
0.83299339 -0.49647328 -0.46727899
0.87810665 -0.10043080 -0.34789342
0.92178613 0.20335560 -0.24695472
0.96280241 0.32840854 -0.14767902
0.99716514 0.42864406 0.09170783
1.02240920 0.51464242 0.23577362
1.03742182 0.58463979 0.33630115
1.04355860 0.63205528 0.40248334
1.04497528 0.65316594 0.43163657
0.85938305 -0.56938756 -0.43929657
0.91060901 -0.17890966 -0.31653297
0.96251833 0.18215844 -0.21181975
1.01423383 0.31695163 -0.06818891
1.06276500 0.42172301 0.17216054
1.10719550 0.51136947 0.31353244
1.14625049 0.58488065 0.43094918
1.17610812 0.63528335 0.51638722
1.19109786 0.65795523 0.55687839
0.23057158 -0.03458377 -1.68584776
0.20591894 0.03761609 -1.62556505
0.17847919 0.08603076 -1.57370818
0.14820282 0.11463850 -1.53064406
0.11520348 0.13418470 -1.49650097
0.07981730 0.14764103 -1.47112119
0.04267839 0.15634973 -1.45402348
0.01330143 0.16117762 -1.44435441
0.00141892 0.16306616 -1.44053972
0.27576777 0.03679774 -1.48439813
0.25554439 0.09359486 -1.41335797
0.23162368 0.13128027 -1.35269594
0.20398133 0.16075176 -1.30295813
0.17363684 0.18372659 -1.26399517
0.14250720 0.20081034 -1.23533642
0.11390763 0.21239279 -1.21618986
0.09274382 0.21898606 -1.20542359
0.08276261 0.22159791 -1.20118856
0.33331740 0.08110102 -1.28888428
0.31065473 0.14633720 -1.21087980
0.28036320 0.19482583 -1.14498353
0.24234001 0.23362426 -1.09132862
0.19696333 0.26430312 -1.04961824
0.14504503 0.28731123 -1.01916230
0.08748202 0.30297846 -0.99893677
0.02516034 0.31191209 -0.98760992
-0.00776885 0.31545284 -0.98316365
0.43501195 0.08785397 -1.10737872
0.41833439 0.17797819 -1.02281392
0.39186478 0.24276200 -0.95215839
0.35500002 0.29526773 -0.89562923
0.30815476 0.33778232 -0.85274076
0.25353703 0.37051246 -0.82233036
0.19649081 0.39333332 -0.80273175
0.14780235 0.40657589 -0.79202217
0.12150586 0.41187552 -0.78787953
0.55683488 0.04249734 -0.94468302
0.55293953 0.18561703 -0.85296285
0.53869075 0.27160004 -0.77727675
0.51274103 0.34107429 -0.71828419
0.47496447 0.39873108 -0.67555714
0.42791677 0.44466281 -0.64737076
0.37874359 0.47782785 -0.63086283
0.33964077 0.49762592 -0.62269998
0.32066971 0.50568300 -0.61975938
0.67596251 -0.09928210 -0.80718619
0.68899935 0.16509718 -0.70728862
0.69289631 0.27865022 -0.62537038
0.68532002 0.36730355 -0.56308901
0.66446638 0.44255793 -0.52082694
0.63078779 0.50515604 -0.49686101
0.58993745 0.55271769 -0.48683402
0.55453539 0.58245474 -0.48453283
0.53665215 0.59492290 -0.48452747
0.77384025 -0.27963153 -0.70273763
0.80463016 0.11121385 -0.59422177
0.82962215 0.26466411 -0.50465065
0.84637678 0.37216187 -0.43690327
0.85186958 0.46438637 -0.39301479
0.84294677 0.54477477 -0.34940147
0.81927079 0.61023593 -0.25134251
0.79121089 0.65423739 -0.15096018
0.77468246 0.67367721 -0.09875181
0.83712858 -0.42936409 -0.63787735
0.88165873 0.00654276 -0.52239603
0.92448884 0.24029544 -0.42568320
0.96449298 0.36236459 -0.35127103
0.99912471 0.46610010 -0.25724775
1.02297390 0.55971861 0.02503781
1.03282845 0.64080763 0.21447739
1.03020978 0.70000035 0.30339974
1.02495432 0.72812033 0.34178278
0.86395955 -0.50109607 -0.61086500
0.91493827 -0.06954827 -0.49200511
0.96662188 0.22406411 -0.39150611
1.01916015 0.35329217 -0.31296161
1.07086968 0.46150100 -0.13001460
1.11923778 0.55977470 0.18571354
1.16346133 0.64671147 0.34329656
1.20061767 0.71250570 0.45935249
1.22175908 0.74500328 0.51911765
0.23802386 -0.03125849 -1.78647733
0.21404554 0.04159956 -1.72767758
0.18749909 0.08869827 -1.67709005
0.15849435 0.11703176 -1.63507664
0.12746298 0.13650967 -1.60176563
0.09541032 0.14996594 -1.57700515
0.06446631 0.15869434 -1.56032538
0.03907410 0.16353995 -1.55089307
0.02686324 0.16543682 -1.54717171
0.28269604 0.04035006 -1.59576559
0.26274532 0.09618129 -1.52667475
0.23902152 0.13407217 -1.46778834
0.21165797 0.16377507 -1.41954625
0.18173410 0.18696679 -1.38178706
0.15125485 0.20423394 -1.35403597
0.12359141 0.21595313 -1.33550942
0.10346743 0.22262919 -1.32509720
0.09412742 0.22527514 -1.32100260
0.33853292 0.08647910 -1.41215980
0.31542704 0.15102535 -1.33687329
0.28456014 0.19955318 -1.27337885
0.24580348 0.23853372 -1.22177148
0.19950028 0.26941535 -1.18172348
0.14638226 0.29259878 -1.15252829
0.08704960 0.30839321 -1.13316393
0.02164669 0.31740093 -1.12232864
-0.01238974 0.32097119 -1.11807716
0.43839595 0.09761588 -1.24310017
0.42059067 0.18542492 -1.16213429
0.39247593 0.25009245 -1.09474707
0.35318062 0.30291411 -1.04109824
0.30268723 0.34587646 -1.00064266
0.24246739 0.37905592 -0.97215712
0.17661749 0.40224394 -0.95392895
0.11487336 0.41572055 -0.94402647
0.07605570 0.42111829 -0.94020927
0.55943406 0.06545027 -1.09245980
0.55415559 0.19671886 -1.00535619
0.53780526 0.28209013 -0.93400377
0.50863349 0.35210043 -0.87901932
0.46595138 0.41071120 -0.83991098
0.41169444 0.45773810 -0.81483901
0.35292003 0.49191090 -0.80075926
0.30386657 0.51241672 -0.79414439
0.27898777 0.52078837 -0.79186004
0.67864949 -0.06256950 -0.96555686
0.69042259 0.18172181 -0.87128597
0.69230276 0.29291356 -0.79482740
0.68143541 0.38230667 -0.73789048
0.65520465 0.45938724 -0.70092201
0.61306405 0.52442449 -0.68216318
0.56037170 0.57458740 -0.67690909
0.51249808 0.60641158 -0.67815965
0.48728022 0.61989474 -0.67982441
0.77707303 -0.23720752 -0.86919016
0.80697918 0.13877353 -0.76710612
0.83051044 0.28317821 -0.68391871
0.84471589 0.39129162 -0.62273222
0.84558600 0.48649791 -0.58601153
0.82873327 0.57156217 -0.57410604
0.79294443 0.64289290 -0.57772720
0.74876326 0.69268137 -0.56213546
0.72094977 0.71541429 -0.54879802
0.84092039 -0.38422862 -0.80927092
0.88498950 0.07195006 -0.70069313
0.92709720 0.26287019 -0.61088139
0.96586126 0.38480565 -0.54372323
0.99887908 0.49229103 -0.50339365
1.02089918 0.59270525 -0.42585295
1.02346373 0.68481809 -0.17120971
1.00472724 0.75808692 0.11808389
0.98358166 0.79630506 0.18867719
0.86803663 -0.45511183 -0.78428298
0.91878641 0.00589634 -0.67250586
0.97019428 0.24905431 -0.57908207
1.02241039 0.37735569 -0.50798965
1.07563472 0.48934504 -0.45821318
1.12742531 0.59553343 -0.22014853
1.17599642 0.69673932 0.19968149
1.21387255 0.78444350 0.36974582
1.20010042 0.83766669 0.43590069
0.24308178 -0.02978241 -1.85360825
0.21961568 0.04336680 -1.79612911
0.19373472 0.08994256 -1.74668610
0.16564509 0.11817991 -1.70563042
0.13594761 0.13764727 -1.67308426
0.10593532 0.15111943 -1.64889586
0.07812220 0.15986833 -1.63260341
0.05687255 0.16472891 -1.62339127
0.04644848 0.16663232 -1.61975706
0.28759813 0.04177914 -1.67263210
0.26793545 0.09735546 -1.60543847
0.24450307 0.13543113 -1.54826593
0.21752951 0.16530018 -1.50148129
0.18814626 0.18863595 -1.46490324
0.15842009 0.20602097 -1.43804657
0.13173139 0.21782644 -1.42013168
0.11259153 0.22455457 -1.41006923
0.10382015 0.22722152 -1.40611362
0.34260491 0.08903988 -1.50069964
0.31943661 0.15339099 -1.42824578
0.28850600 0.20200497 -1.36729598
0.24972062 0.24112082 -1.31788445
0.20350900 0.27213556 -1.27963614
0.15081182 0.29542905 -1.25181413
0.09285803 0.31130120 -1.23339295
0.03082316 0.32035372 -1.22309721
-0.00378696 0.32394150 -1.21906042
0.44142252 0.10238091 -1.34509075
0.42313051 0.18928872 -1.26826620
0.39428079 0.25398991 -1.20469916
0.35387138 0.30703968 -1.15444231
0.30167043 0.35028639 -1.11684990
0.23875172 0.38374192 -1.09061503
0.16836241 0.40715256 -1.07397330
0.09850861 0.42077029 -1.06499755
0.04836988 0.42622721 -1.06155205
0.56197304 0.07547957 -1.20909095
0.55601418 0.20249128 -1.12791860
0.53858131 0.28771612 -1.06221366
0.50768048 0.35812089 -1.01243055
0.46225432 0.41733745 -0.97790849
0.40375206 0.46504396 -0.95663220
0.33890259 0.49984258 -0.94538337
0.28291273 0.52079105 -0.94050771
0.25351354 0.52936089 -0.93894488
0.68121678 -0.04291475 -1.09678280
0.69234449 0.19019990 -1.01063955
0.69313103 0.30056494 -0.94217521
0.68038213 0.39055517 -0.89290744
0.65091008 0.46881506 -0.86308938
0.60333788 0.53540629 -0.85074347
0.54240006 0.58726007 -0.85082173
0.48495135 0.62048626 -0.85576534
0.45360932 0.63467026 -0.85910732
0.77995038 -0.21447697 -1.01300633
0.80941206 0.15186495 -0.92129844
0.83213705 0.29303437 -0.84860599
0.84482372 0.40183964 -0.79785520
0.84273463 0.49902764 -0.77143121
0.82003123 0.58723152 -0.76976639
0.77336878 0.66280353 -0.78839695
0.71374923 0.71705002 -0.81432927
0.67389667 0.74252957 -0.83034337
0.84412426 -0.36009035 -0.96159482
0.88798541 0.09560309 -0.86511052
0.92970347 0.27472359 -0.78774941
0.96769631 0.39716846 -0.73324096
0.99907374 0.50734490 -0.70585507
1.01831293 0.61263669 -0.71000916
1.01442111 0.71304345 -0.68435937
0.97583061 0.79934359 -0.55204058
0.92720115 0.84954351 -0.44505250
0.87140828 -0.43055353 -0.94031006
0.92208272 0.04708020 -0.84142554
0.97335947 0.26203606 -0.76137018
1.02535152 0.39058697 -0.70395952
1.07828963 0.50553864 -0.67390990
1.13231385 0.61727244 -0.65530068
1.18458819 0.72986954 -0.36091116
1.19108891 0.84308970 0.16304940
1.14622450 0.90745866 0.25314409
0.24530652 -0.02931130 -1.88291633
0.22207947 0.04394310 -1.82611918
0.19650584 0.09036353 -1.77727306
0.16883068 0.11857723 -1.73671997
0.13971837 0.13804735 -1.70457733
0.11055598 0.15152970 -1.68069208
0.08393935 0.16028893 -1.66460609
0.06407079 0.16515665 -1.65551114
0.05455950 0.16706312 -1.65192318
0.28981963 0.04218013 -1.70706832
0.27031431 0.09773379 -1.64091980
0.24705356 0.13590139 -1.58469462
0.22030582 0.16584571 -1.53872311
0.19122662 0.18924426 -1.50280821
0.16190845 0.20667949 -1.47645676
0.13572505 0.21852139 -1.45888841
0.11707275 0.22527127 -1.44902444
0.10857360 0.22794716 -1.44514751
0.34457049 0.08991232 -1.54169893
0.32144606 0.15423661 -1.47092021
0.29058433 0.20290212 -1.41150033
0.25192398 0.24208021 -1.36342919
0.20596088 0.27315259 -1.32629275
0.15379439 0.29649255 -1.29932690
0.09710812 0.31239694 -1.28149796
0.03845975 0.32146791 -1.27154267
0.00364826 0.32506296 -1.26764107
0.44301584 0.10405487 -1.39434171
0.42460352 0.19070116 -1.32022309
0.39555916 0.25544178 -1.25921631
0.35484293 0.30859479 -1.21128142
0.30216464 0.35196188 -1.17567921
0.23849514 0.38553193 -1.15102386
0.16684870 0.40903410 -1.13550246
0.09463443 0.42270979 -1.12718189
0.04038513 0.42819083 -1.12399983
0.56341136 0.07887695 -1.26838934
0.55725610 0.20460084 -1.19161820
0.53948402 0.28981838 -1.13027704
0.50800830 0.36040217 -1.08464444
0.46162713 0.41987425 -1.05385661
0.40158740 0.46786332 -1.03569007
0.33443981 0.50292218 -1.02674758
0.27567574 0.52405524 -1.02327251
0.24436142 0.53270823 -1.02228570
0.68271774 -0.03579729 -1.16753304
0.69367319 0.19325154 -1.08841169
0.69412237 0.30340847 -1.02733934
0.68073303 0.39367890 -0.98556608
0.65007299 0.47243923 -0.96296251
0.60038304 0.53968471 -0.95707226
0.53602338 0.59225893 -0.96231967
0.47432187 0.62609470 -0.97065258
0.44009420 0.64058894 -0.97547019
0.78163582 -0.20636657 -1.09515941
0.81102496 0.15640289 -1.01396644
0.83354998 0.29665014 -0.95314443
0.84576195 0.40581074 -0.91543955
0.84259897 0.50384939 -0.90276885
0.81750685 0.59340268 -0.91381735
0.76584786 0.67086828 -0.94192725
0.69795632 0.72725433 -0.97461760
0.65086573 0.75414532 -0.99412841
0.84599149 -0.35161430 -1.05249560
0.88989681 0.10301835 -0.96993405
0.93161333 0.27899903 -0.90933871
0.96946180 0.40178123 -0.87411517
1.00021851 0.51314980 -0.86207825
1.01769018 0.62068552 -0.87784857
1.00967538 0.72508442 -0.92650080
0.95851338 0.81847745 -0.95012873
0.89924634 0.87284827 -0.93227428
0.87336820 -0.42200869 -1.03533947
0.92415273 0.05945321 -0.95224506
0.97555220 0.26666626 -0.89188313
1.02759159 0.39550585 -0.85433882
1.08037579 0.51180428 -0.83846879
1.13429189 0.62622458 -0.85275698
1.18878031 0.74429327 -0.81196517
1.17353201 0.87032866 -0.49227762
1.12926280 0.93300450 -0.27163461
