G_Major_2-ish/G Major 2-ish.cube
# VEGAS Pro LUT
TITLE "G Major 2-ish"
LUT_3D_SIZE 33
0.18963559 -0.10071403 -1.01786697
0.18360446 -0.08417897 -1.00141716
0.17740704 -0.06802030 -0.98550212
0.17103824 -0.05225475 -0.97013062
0.16449285 -0.03689924 -0.95530933
0.15776518 -0.02197089 -0.94104540
0.15084870 -0.00748653 -0.92734432
0.14373602 0.00653687 -0.91421187
0.13641924 0.02008243 -0.90165144
0.12888764 0.03313420 -0.88966721
0.12112912 0.04540689 -0.87826192
0.11312846 0.05566972 -0.86743647
0.10486634 0.06436082 -0.85719174
0.09631637 0.07188169 -0.84752792
0.08744500 0.07847848 -0.83844256
0.07820416 0.08431500 -0.82993406
0.06852574 0.08950669 -0.82199788
0.05830919 0.09413819 -0.81462896
0.04739453 0.09827404 -0.80782193
0.03560792 0.10196491 -0.80156910
0.02426799 0.10525151 -0.79586148
0.01387160 0.10816737 -0.79068917
0.00442839 0.11074075 -0.78604102
-0.00405675 0.11299615 -0.78190309
-0.01158875 0.11495499 -0.77826250
-0.01817617 0.11663666 -0.77510184
-0.02383712 0.11805913 -0.77240330
-0.02859596 0.11923931 -0.77014750
-0.03248687 0.12019384 -0.76831180
-0.03555107 0.12093920 -0.76687139
-0.03784131 0.12149268 -0.76579767
-0.03944274 0.12187789 -0.76504856
-0.04086086 0.12221776 -0.76438624
0.20388587 -0.08396287 -0.96178156
0.19834581 -0.06711046 -0.94471884
0.19267403 -0.05063244 -0.92820251
0.18687040 -0.03454639 -0.91224146
0.18093471 -0.01886975 -0.89684385
0.17486742 -0.00362023 -0.88201731
0.16866983 0.01118397 -0.86776894
0.16234298 0.02552569 -0.85410494
0.15588930 0.03938702 -0.84103036
0.14931209 0.05161573 -0.82854968
0.14261463 0.06175342 -0.81666631
0.13580206 0.07043267 -0.80538237
0.12887995 0.07800649 -0.79469961
0.12185508 0.08469744 -0.78461826
0.11473600 0.09065565 -0.77513707
0.10753226 0.09598833 -0.76625454
0.10025533 0.10077490 -0.75796694
0.09291948 0.10507610 -0.75026941
0.08554041 0.10893998 -0.74315685
0.07813799 0.11240507 -0.73662120
0.07073605 0.11550336 -0.73065370
0.06336226 0.11826167 -0.72524536
0.05605267 0.12070315 -0.72038358
0.04884990 0.12284827 -0.71605521
0.04180902 0.12471512 -0.71224582
0.03512581 0.12632069 -0.70893836
0.02934860 0.12768075 -0.70611447
0.02449014 0.12881050 -0.70375323
0.02051633 0.12972510 -0.70183170
0.01738629 0.13043988 -0.70032358
0.01504626 0.13097090 -0.69919962
0.01340983 0.13134065 -0.69841522
0.01196067 0.13166699 -0.69772166
0.21715824 -0.06756895 -0.90602201
0.21202917 -0.05039708 -0.88831854
0.20679197 -0.03359727 -0.87117207
0.20144886 -0.01718762 -0.85459250
0.19600244 -0.00118649 -0.83858937
0.19045624 0.01438775 -0.82317138
0.18481448 0.02951654 -0.80834663
0.17908289 0.04402428 -0.79412240
0.17326808 0.05620327 -0.78050482
0.16737817 0.06640220 -0.76749927
0.16142274 0.07519402 -0.75511032
0.15541311 0.08291021 -0.74334091
0.14936216 0.08976211 -0.73219359
0.14328529 0.09589397 -0.72166926
0.13720000 0.10140906 -0.71176755
0.13112636 0.10638423 -0.70248723
0.12508702 0.11087853 -0.69382554
0.11910877 0.11493848 -0.68577802
0.11322022 0.11860171 -0.67833924
0.10745487 0.12189910 -0.67150199
0.10184887 0.12485672 -0.66525775
0.09644026 0.12749884 -0.65959722
0.09124779 0.12986627 -0.65451407
0.08631667 0.13197300 -0.64999491
0.08170086 0.13382675 -0.64602160
0.07745486 0.13543595 -0.64257520
0.07363061 0.13680983 -0.63963509
0.07027497 0.13795862 -0.63717854
0.06742630 0.13889357 -0.63518071
0.06511009 0.13962734 -0.63361335
0.06333382 0.14017420 -0.63244593
0.06206761 0.14055586 -0.63163131
0.06092884 0.14089331 -0.63091123
0.22961064 -0.05154870 -0.85064739
0.22483543 -0.03405554 -0.83227396
0.21996883 -0.01693190 -0.81446779
0.21501404 -0.00019634 -0.79723978
0.20997491 0.01613237 -0.78060102
0.20485693 0.03203478 -0.76456106
0.19966583 0.04705105 -0.74912953
0.19440903 0.05940969 -0.73431474
0.18909538 0.06980825 -0.72012401
0.18373455 0.07880850 -0.70656383
0.17833869 0.08673717 -0.69363970
0.17292088 0.09380371 -0.68135607
0.16749647 0.10015133 -0.66971612
0.16208173 0.10588517 -0.65872186
0.15664366 0.11117037 -0.64839560
0.15118320 0.11607846 -0.63874245
0.14572969 0.12062533 -0.62975520
0.14031541 0.12482418 -0.62142479
0.13497515 0.12868635 -0.61374146
0.12974678 0.13222206 -0.60669434
0.12467025 0.13544069 -0.60027069
0.11978804 0.13835131 -0.59445745
0.11514370 0.14096288 -0.58923906
0.11078181 0.14328444 -0.58459920
0.10674522 0.14532550 -0.58052009
0.10307512 0.14709608 -0.57698208
0.09980798 0.14860684 -0.57396388
0.09697328 0.14986937 -0.57144225
0.09459197 0.15089643 -0.56939137
0.09267349 0.15170231 -0.56778246
0.09121349 0.15230279 -0.56658393
0.09017882 0.15272179 -0.56574756
0.08925304 0.15309218 -0.56500858
0.24135841 -0.03591803 -0.79572284
0.23689531 -0.01810298 -0.77664965
0.23235264 -0.00065411 -0.75815344
0.22773421 0.01640949 -0.74024618
0.22304504 0.03306792 -0.72294027
0.21829067 0.04865364 -0.70624721
0.21347834 0.06137420 -0.69017690
0.20861556 0.07209013 -0.67473972
0.20371239 0.08138030 -0.65994382
0.19872065 0.08973876 -0.64582855
0.19360286 0.09745699 -0.63242352
0.18837738 0.10461063 -0.61972719
0.18306459 0.11125387 -0.60773706
0.17768747 0.11742689 -0.59644914
0.17227162 0.12316020 -0.58585817
0.16684452 0.12847778 -0.57595772
0.16143680 0.13339880 -0.56674010
0.15608162 0.13793902 -0.55819649
0.15081461 0.14211202 -0.55031717
0.14567363 0.14592987 -0.54309011
0.14069852 0.14940348 -0.53650308
0.13593073 0.15254329 -0.53054190
0.13141233 0.15535936 -0.52519089
0.12718478 0.15786198 -0.52043325
0.12328790 0.16006154 -0.51625097
0.11975896 0.16196918 -0.51262319
0.11662927 0.16359666 -0.50952852
0.11392365 0.16495652 -0.50694287
0.11165796 0.16606265 -0.50484055
0.10983791 0.16693038 -0.50319076
0.10845599 0.16757697 -0.50196213
0.10747856 0.16802807 -0.50110477
0.10660505 0.16842689 -0.50034702
0.25384814 -0.02282739 -0.74119604
0.24981318 -0.00487734 -0.72138208
0.24569397 0.01273945 -0.70215553
0.24149254 0.03000575 -0.68353033
0.23721217 0.04652159 -0.66551942
0.23282637 0.06024958 -0.64815634
0.22824331 0.07221012 -0.63151175
0.22346678 0.08292951 -0.61559421
0.21851042 0.09268396 -0.60040522
0.21338958 0.10164522 -0.58594638
0.20812252 0.10992681 -0.57221657
0.20272960 0.11760744 -0.55921447
0.19723366 0.12474360 -0.54693699
0.19166046 0.13137704 -0.53538013
0.18603840 0.13753968 -0.52453792
0.18039840 0.14325635 -0.51440370
0.17477414 0.14854711 -0.50496972
0.16920191 0.15342864 -0.49622664
0.16372049 0.15791525 -0.48816368
0.15837100 0.16201963 -0.48076889
0.15319590 0.16575342 -0.47402921
0.14823931 0.16912781 -0.46793038
0.14354533 0.17215374 -0.46245629
0.13915725 0.17484234 -0.45758936
0.13511635 0.17720500 -0.45331097
0.13146022 0.17925368 -0.44960022
0.12822101 0.18100101 -0.44643500
0.12542333 0.18246089 -0.44379041
0.12308273 0.18364817 -0.44163963
0.12120365 0.18457957 -0.43995246
0.11977807 0.18527342 -0.43869558
0.11876994 0.18575747 -0.43781891
0.11786950 0.18618543 -0.43704367
0.27103999 -0.01919986 -0.68674743
0.26763618 -0.00138656 -0.66614658
0.26410502 0.01636495 -0.64616680
0.26033309 0.03478185 -0.62690532
0.25631574 0.05252964 -0.60837626
0.25205967 0.06738341 -0.59058636
0.24757436 0.08033153 -0.57354003
0.24287103 0.09192240 -0.55724126
0.23796381 0.10246440 -0.54169136
0.23286907 0.11214764 -0.52689141
0.22760561 0.12109730 -0.51284128
0.22219516 0.12939960 -0.49953851
0.21666200 0.13711622 -0.48698002
0.21103352 0.14429250 -0.47516131
0.20534016 0.15096270 -0.46407631
0.19961502 0.15715353 -0.45371777
0.19389404 0.16288632 -0.44407725
0.18821625 0.16817865 -0.43514502
0.18262330 0.17304541 -0.42690942
0.17715874 0.17749999 -0.41935819
0.17186792 0.18155442 -0.41247785
0.16679759 0.18522047 -0.40625250
0.16199429 0.18850945 -0.40066618
0.15750363 0.19143303 -0.39570034
0.15336831 0.19400315 -0.39133584
0.14962775 0.19623241 -0.38755101
0.14631455 0.19813445 -0.38432303
0.14345407 0.19972400 -0.38162634
0.14106216 0.20101702 -0.37943310
0.13914251 0.20203146 -0.37771311
0.13768643 0.20278735 -0.37643170
0.13665701 0.20331475 -0.37553796
0.13573803 0.20378101 -0.37474778
0.29248208 -0.02540237 -0.63248378
0.28955346 -0.00591625 -0.61127537
0.28635207 0.01453510 -0.59080315
0.28288141 0.03585882 -0.57107639
0.27914622 0.05587739 -0.55210227
0.27515355 0.07228488 -0.53388798
0.27091330 0.08647146 -0.51643783
0.26643682 0.09911279 -0.49975589
0.26173928 0.11057788 -0.48384386
0.25683713 0.12109111 -0.46870297
0.25175074 0.13079754 -0.45433244
0.24650246 0.13979678 -0.44073001
0.24111900 0.14815859 -0.42789185
0.23562825 0.15593453 -0.41581362
0.23006295 0.16316287 -0.40448856
0.22445767 0.16987321 -0.39390892
0.21885075 0.17608888 -0.38406533
0.21328256 0.18182908 -0.37494737
0.20779601 0.18710987 -0.36654338
0.20243679 0.19194523 -0.35883996
0.19725108 0.19634821 -0.35182241
0.19228573 0.20033103 -0.34547517
0.18758748 0.20390566 -0.33978048
0.18320113 0.20708425 -0.33471993
0.17916852 0.20987962 -0.33027273
0.17552690 0.21230501 -0.32641718
0.17230722 0.21437496 -0.32312912
0.16953202 0.21610527 -0.32038277
0.16721469 0.21751307 -0.31814966
0.16535743 0.21861780 -0.31639862
0.16395061 0.21944103 -0.31509390
0.16295704 0.22001542 -0.31418401
0.16207005 0.22052333 -0.31337968
0.31675899 -0.03642041 -0.57907528
0.31426618 -0.01423493 -0.55735725
0.31148675 0.00908076 -0.53639489
0.30842319 0.03342539 -0.51619786
0.30508095 0.05645879 -0.49677414
0.30146682 0.07489534 -0.47813112
0.29759026 0.09060650 -0.46027359
0.29346392 0.10449255 -0.44320554
0.28910220 0.11702407 -0.42692962
0.28452328 0.12847830 -0.41144592
0.27974758 0.13903156 -0.39675400
0.27479866 0.14880244 -0.38285172
0.26970392 0.15787372 -0.36973470
0.26449290 0.16630515 -0.35739791
0.25919917 0.17414093 -0.34583402
0.25385809 0.18141502 -0.33503523
0.24850947 0.18815351 -0.32499146
0.24319434 0.19437781 -0.31569138
0.23795679 0.20010535 -0.30712238
0.23284219 0.20535152 -0.29927018
0.22789635 0.21013020 -0.29211986
0.22316551 0.21445431 -0.28565449
0.21869542 0.21833667 -0.27985537
0.21452814 0.22179021 -0.27470368
0.21070391 0.22482820 -0.27017748
0.20725660 0.22746494 -0.26625425
0.20421374 0.22971596 -0.26290935
0.20159578 0.23159789 -0.26011616
0.19941342 0.23312947 -0.25784501
0.19766657 0.23433147 -0.25606433
0.19634464 0.23522733 -0.25473797
0.19541179 0.23585255 -0.25381297
0.19457990 0.23640539 -0.25299504
0.34319818 -0.05163325 -0.52671313
0.34122103 -0.02671315 -0.50447893
0.33894622 -0.00048008 -0.48302001
0.33637640 0.02695548 -0.46234620
0.33351573 0.05387292 -0.44246730
0.33037144 0.07501791 -0.42338985
0.32695296 0.09262054 -0.40512013
0.32327244 0.10798527 -0.38766155
0.31934491 0.12174729 -0.37101734
0.31518802 0.13426574 -0.35518789
0.31082293 0.14576280 -0.34017253
0.30627373 0.15638474 -0.32596844
0.30156803 0.16623200 -0.31257135
0.29673582 0.17537625 -0.29997572
0.29181096 0.18386996 -0.28817400
0.28683016 0.19175217 -0.27715725
0.28183240 0.19905351 -0.26691473
0.27685952 0.20579800 -0.25743458
0.27195489 0.21200518 -0.24870326
0.26716372 0.21769197 -0.24070576
0.26253089 0.22287345 -0.23342569
0.25810131 0.22756352 -0.22684559
0.25391841 0.23177572 -0.22094575
0.25002301 0.23552379 -0.21570605
0.24645171 0.23882197 -0.21110426
0.24323606 0.24168544 -0.20711675
0.24040174 0.24413048 -0.20371759
0.23796551 0.24617518 -0.20087984
0.23593700 0.24783957 -0.19857301
0.23431496 0.24914603 -0.19676447
0.23308872 0.25011984 -0.19541751
0.23222360 0.25079951 -0.19447812
0.23145251 0.25140044 -0.19364807
0.37131014 -0.07137543 -0.47548425
0.36991423 -0.04373230 -0.45272598
0.36821228 -0.01457721 -0.43076232
0.36620584 0.01597278 -0.40960473
0.36389941 0.04731250 -0.38926271
0.36129916 0.07228687 -0.36974400
0.35841393 0.09230303 -0.35105503
0.35525626 0.10945079 -0.33319974
0.35183960 0.12464493 -0.31618199
0.34818205 0.13837247 -0.30000177
0.34430456 0.15092337 -0.28465816
0.34023091 0.16248377 -0.27014866
0.33598825 0.17317908 -0.25646904
0.33160660 0.18309705 -0.24361300
0.32712021 0.19230093 -0.23157191
0.32256460 0.20083770 -0.22033694
0.31797907 0.20874286 -0.20989636
0.31340477 0.21604434 -0.20023720
0.30888477 0.22276445 -0.19134507
0.30446270 0.22892213 -0.18320404
0.30018264 0.23453364 -0.17579681
0.29608795 0.23961435 -0.16910455
0.29222015 0.24417871 -0.16310702
0.28861827 0.24824129 -0.15778250
0.28531680 0.25181726 -0.15310782
0.28234524 0.25492266 -0.14905845
0.27972707 0.25757498 -0.14560814
0.27747828 0.25979367 -0.14272758
0.27560630 0.26159993 -0.14038692
0.27411026 0.26301795 -0.13855217
0.27297932 0.26407507 -0.13718607
0.27218226 0.26481295 -0.13623339
0.27147165 0.26546550 -0.13539140
0.40065435 -0.09590385 -0.42548016
0.39989436 -0.06559859 -0.40218902
0.39882204 -0.03356730 -0.37971178
0.39743850 0.00006647 -0.35806108
0.39574695 0.03516256 -0.33724678
0.39375302 0.06606444 -0.31727785
0.39146465 0.08931734 -0.29816118
0.38889295 0.10867656 -0.27990144
0.38605139 0.12556608 -0.26250207
0.38295698 0.14068165 -0.24596398
0.37962991 0.15441710 -0.23028608
0.37609285 0.16701655 -0.21546610
0.37237307 0.17864016 -0.20149870
0.36849925 0.18939821 -0.18837813
0.36450458 0.19936873 -0.17609501
0.36042476 0.20860845 -0.16463959
0.35629761 0.21716022 -0.15399954
0.35216364 0.22505675 -0.14416069
0.34806472 0.23232390 -0.13510799
0.34404355 0.23898302 -0.12682420
0.34014267 0.24505247 -0.11929103
0.33640417 0.25054878 -0.11248829
0.33286813 0.25548777 -0.10639471
0.32957175 0.25988480 -0.10098749
0.32654801 0.26375630 -0.09624232
0.32382530 0.26711935 -0.09213332
0.32142520 0.26999244 -0.08863328
0.31936342 0.27239618 -0.08571247
0.31764722 0.27435347 -0.08333963
0.31627533 0.27589041 -0.08147989
0.31523868 0.27703631 -0.08009537
0.31450757 0.27783623 -0.07913000
0.31385601 0.27854368 -0.07827703
0.43083712 -0.12537962 -0.37679902
0.43076032 -0.09252562 -0.35296494
0.43036705 -0.05771914 -0.32996440
0.42965755 -0.02108734 -0.30781001
0.42863387 0.01722334 -0.28651330
0.42730045 0.05515177 -0.26608375
0.42566425 0.08312619 -0.24652876
0.42373484 0.10535079 -0.22785427
0.42152479 0.12430082 -0.21006361
0.41904986 0.14103740 -0.19315816
0.41632837 0.15611936 -0.17713784
0.41338295 0.16987729 -0.16199902
0.41023788 0.18252197 -0.14773744
0.40692243 0.19419442 -0.13434596
0.40346768 0.20499292 -0.12181545
0.39990819 0.21498787 -0.11013507
0.39628041 0.22423144 -0.09929187
0.39262375 0.23276258 -0.08927102
0.38897881 0.24061184 -0.08005574
0.38538679 0.24780385 -0.07162837
0.38188928 0.25435939 -0.06396868
0.37852681 0.26029673 -0.05705572
0.37533805 0.26563293 -0.05086671
0.37235874 0.27038497 -0.04537782
0.36962128 0.27456996 -0.04056310
0.36715284 0.27820611 -0.03639589
0.36497477 0.28131321 -0.03284752
0.36310175 0.28391343 -0.02988770
0.36154133 0.28603119 -0.02748376
0.36029387 0.28769425 -0.02560020
0.35935059 0.28893432 -0.02419812
0.35868531 0.28980011 -0.02322059
0.35809249 0.29056588 -0.02235703
0.46150723 -0.15985462 -0.32954416
0.46215448 -0.12461736 -0.30515730
0.46248358 -0.08719123 -0.28162229
0.46249354 -0.04770546 -0.25895303
0.46218508 -0.00631052 -0.23716216
0.46156132 0.03682124 -0.21625984
0.46062759 0.07280156 -0.19625495
0.45939201 0.09900265 -0.17715333
0.45786563 0.12055754 -0.15895978
0.45606232 0.13923492 -0.14167580
0.45399895 0.15587284 -0.12530147
0.45169592 0.17093720 -0.10983382
0.44917685 0.18471287 -0.09526791
0.44646826 0.19738527 -0.08159680
0.44359979 0.20908085 -0.06881117
0.44060484 0.21988806 -0.05689890
0.43751770 0.22987163 -0.04584657
0.43437660 0.23907904 -0.03563824
0.43122005 0.24754697 -0.02625667
0.42808813 0.25530422 -0.01768195
0.42502084 0.26237434 -0.00989364
0.42205733 0.26877829 -0.00286932
0.41922247 0.27453643 0.00367721
0.41654369 0.27966797 0.00991184
0.41405863 0.28419015 0.01572774
0.41179961 0.28812185 0.02103420
0.40979287 0.29148340 0.02575881
0.40805778 0.29429793 0.02984958
0.40660629 0.29659101 0.03327505
0.40544155 0.29839244 0.03602462
0.40455863 0.29973617 0.03810927
0.40393457 0.30067441 0.03958209
0.40337768 0.30150437 0.04088806
0.49234676 -0.19925484 -0.28382561
0.49375358 -0.16185033 -0.25887606
0.49484339 -0.12201501 -0.23479527
0.49561352 -0.07987754 -0.21159929
0.49606326 -0.03559043 -0.18930124
0.49619412 0.01066965 -0.16791317
0.49600968 0.05647228 -0.14744434
0.49551618 0.08886795 -0.12790218
0.49472266 0.11391560 -0.10929178
0.49364141 0.13500090 -0.09161548
0.49228671 0.15347928 -0.07487375
0.49067721 0.17004006 -0.05906404
0.48883393 0.18508251 -0.04418186
0.48678169 0.19885637 -0.03021950
0.48454803 0.21152784 -0.01716742
0.48216349 0.22321101 -0.00501343
0.47966120 0.23398715 0.00625698
0.47705308 0.24391964 0.01723019
0.47435048 0.25305691 0.02852252
0.47159931 0.26143125 0.03993445
0.46884677 0.26906812 0.05035604
0.46613970 0.27598915 0.05929242
0.46352294 0.28221425 0.06703196
0.46103829 0.28776214 0.07374489
0.45872381 0.29265189 0.07954440
0.45661286 0.29690367 0.08451206
0.45473266 0.30053958 0.08871232
0.45310339 0.30358416 0.09219906
0.45173761 0.30606526 0.09502181
0.45064056 0.30801439 0.09722882
0.44980779 0.30946851 0.09886931
0.44921899 0.31048393 0.10001178
0.44869295 0.31138217 0.10102060
0.52306384 -0.24336953 -0.23975977
0.52526116 -0.20406112 -0.21423748
0.52714491 -0.16207790 -0.18960017
0.52871114 -0.11754671 -0.16586518
0.52995771 -0.07061942 -0.14304714
0.53088415 -0.02147525 -0.12115918
0.53149241 0.02968177 -0.10021190
0.53178668 0.07353228 -0.08021353
0.53177333 0.10372140 -0.06117074
0.53146261 0.12795404 -0.04308623
0.53086650 0.14868233 -0.02596156
0.53000098 0.16699560 -0.00979427
0.52888453 0.18347783 0.00541982
0.52753735 0.19847836 0.01974015
0.52593189 0.21223314 0.03459911
0.52407825 0.22489351 0.04966718
0.52201605 0.23655929 0.06285723
0.51978713 0.24730201 0.07457419
0.51743662 0.25717393 0.08510641
0.51501030 0.26621473 0.09461780
0.51255548 0.27445567 0.10320881
0.51011848 0.28192240 0.11094556
0.50774467 0.28863758 0.11787523
0.50547647 0.29462206 0.12403373
0.50335258 0.29989710 0.12945169
0.50140727 0.30448437 0.13415715
0.49966848 0.30840755 0.13817789
0.49815714 0.31169319 0.14154266
0.49688759 0.31437108 0.14428391
0.49586561 0.31647509 0.14643703
0.49508891 0.31804493 0.14804313
0.49453929 0.31914121 0.14916459
0.49404812 0.32011101 0.15015654
0.55338836 -0.29184180 -0.19746748
0.55640054 -0.25093210 -0.17136389
0.55910605 -0.20710807 -0.14616020
0.56149942 -0.16049170 -0.12187455
0.56357688 -0.11123325 -0.09852354
0.56533563 -0.05950926 -0.07612159
0.56677604 -0.00552771 -0.05468048
0.56789988 0.04967491 -0.03421012
0.56871152 0.08883964 -0.01471775
0.56921792 0.11752506 0.00379208
0.56942862 0.14113604 0.02131776
0.56933039 0.16157478 0.03865338
0.56887197 0.17976679 0.05575359
0.56807542 0.19620897 0.07091489
0.56697166 0.21120428 0.08470353
0.56559497 0.22494954 0.09739242
0.56398332 0.23757805 0.10912892
0.56217748 0.24918357 0.11999659
0.56022179 0.25983280 0.13004543
0.55816174 0.26957572 0.13930553
0.55604345 0.27845091 0.14779626
0.55391341 0.28648916 0.15553124
0.55181658 0.29371661 0.16252157
0.54979622 0.30015722 0.16877861
0.54789102 0.30583411 0.17431450
0.54613596 0.31077123 0.17914437
0.54455960 0.31499416 0.18328635
0.54318470 0.31853107 0.18676311
0.54202604 0.32141402 0.18960203
0.54109126 0.32367966 0.19183592
0.54037941 0.32537004 0.19350421
0.53987497 0.32655060 0.19467032
0.53942412 0.32759503 0.19570267
0.58306545 -0.34416270 -0.15707432
0.58691114 -0.30198681 -0.13038313
0.59046024 -0.25666663 -0.10460448
0.59370548 -0.20831670 -0.07975821
0.59664130 -0.15708175 -0.05586245
0.59926456 -0.10313933 -0.03293244
0.60157138 -0.04669214 -0.01098290
0.60356241 0.01201894 0.00997583
0.60523909 0.06687824 0.02993476
0.60657305 0.10279153 0.04923175
0.60749215 0.13042802 0.06679483
0.60800928 0.15361731 0.08288421
0.60814387 0.17387712 0.09787406
0.60792029 0.19197470 0.11194986
0.60736752 0.20835134 0.12520850
0.60651731 0.22328255 0.13769937
0.60540599 0.23694901 0.14944665
0.60407370 0.24947447 0.16045983
0.60256207 0.26094660 0.17074016
0.60091579 0.27142832 0.18028422
0.59918034 0.28096786 0.18908793
0.59740108 0.28960252 0.19714715
0.59562290 0.29736343 0.20446000
0.59388781 0.30427822 0.21102726
0.59223592 0.31037238 0.21685393
0.59070218 0.31567234 0.22194923
0.58931553 0.32020587 0.22632721
0.58809942 0.32400343 0.23000777
0.58707076 0.32709885 0.23301677
0.58623815 0.32953161 0.23538694
0.58560264 0.33134702 0.23715831
0.58515161 0.33261490 0.23839714
0.58474755 0.33373666 0.23949422
0.61185491 -0.39967299 -0.11870842
0.61654538 -0.35658714 -0.09142607
0.62095249 -0.31014121 -0.06506664
0.62506747 -0.26044133 -0.03965181
0.62888372 -0.20762686 -0.01520131
0.63239497 -0.15186715 0.00826793
0.63559681 -0.09336586 0.03073993
0.63847435 -0.03234412 0.05151516
0.64092898 0.03105909 0.07004330
0.64294511 0.08215977 0.08731698
0.64453202 0.11595102 0.10365850
0.64570385 0.14277974 0.11922289
0.64647776 0.16557652 0.13408434
0.64687592 0.18560979 0.14827515
0.64692450 0.20354903 0.16180453
0.64665329 0.21978946 0.17466711
0.64609605 0.23458168 0.18685035
0.64529073 0.24809192 0.19833787
0.64427668 0.26043531 0.20911103
0.64309698 0.27169365 0.21915199
0.64179522 0.28192753 0.22844470
0.64041585 0.29118267 0.23697601
0.63900208 0.29949689 0.24473608
0.63759613 0.30690175 0.25171971
0.63623685 0.31342697 0.25792697
0.63495958 0.31910104 0.26336351
0.63379359 0.32395464 0.26804054
0.63276374 0.32802013 0.27197704
0.63188726 0.33133441 0.27519816
0.63117456 0.33393919 0.27773714
0.63062882 0.33588305 0.27963582
0.63024050 0.33724061 0.28096414
0.62989205 0.33844188 0.28214061
0.63953024 -0.45757490 -0.08249784
0.64506871 -0.41394410 -0.05462447
0.65033966 -0.36675501 -0.02768256
0.65533406 -0.31610733 -0.00169490
0.66004288 -0.26213023 0.02331709
0.66445893 -0.20498817 0.04691008
0.66852307 -0.14480346 0.06656331
0.67214137 -0.08168028 0.08502223
0.67531234 -0.01589017 0.10267276
0.67803997 0.05119475 0.11966690
0.68033159 0.09639793 0.13607235
0.68219870 0.12848245 0.15191355
0.68365586 0.15455160 0.16718997
0.68472272 0.17692100 0.18188757
0.68542254 0.19666493 0.19598341
0.68578207 0.21437125 0.20944968
0.68583268 0.23039517 0.22225651
0.68560857 0.24496455 0.23437348
0.68514740 0.25823301 0.24577144
0.68448889 0.27030748 0.25642294
0.68367475 0.28126520 0.26630369
0.68274695 0.29116383 0.27539358
0.68174726 0.30004901 0.28367692
0.68071687 0.30795804 0.29114389
0.67969328 0.31492525 0.29779032
0.67871130 0.32098246 0.30361846
0.67780077 0.32616308 0.30863833
0.67698634 0.33050248 0.31286690
0.67628658 0.33403999 0.31632984
0.67571342 0.33682036 0.31906089
0.67527229 0.33889517 0.32110435
0.67495745 0.34034434 0.32253441
0.67467386 0.34162661 0.32380155
0.66587859 -0.51694542 -0.04856873
0.67225862 -0.47312510 -0.02010954
0.67839015 -0.42557427 0.00741205
0.68426305 -0.37438110 0.03397201
0.68986750 -0.31966829 0.05714680
0.69510728 -0.26145914 0.07665627
0.69990695 -0.19983836 0.09545253
0.70426202 -0.13503461 0.11370677
0.70817143 -0.06732056 0.13149108
0.71163720 0.00298766 0.14882872
0.71466416 0.06881583 0.16571495
0.71726114 0.10974500 0.18212999
0.71944082 0.14035667 0.19804434
0.72121876 0.16567074 0.21342203
0.72261536 0.18755756 0.22822475
0.72365451 0.20693544 0.24241167
0.72436339 0.22432335 0.25594211
0.72477359 0.24004008 0.26877674
0.72491860 0.25429428 0.28087741
0.72483552 0.26722711 0.29220966
0.72456235 0.27893880 0.30274230
0.72413874 0.28950220 0.31244907
0.72360408 0.29897353 0.32130903
0.72299671 0.30739820 0.32930714
0.72235316 0.31481561 0.33643571
0.72170711 0.32126212 0.34269407
0.72108793 0.32677436 0.34808987
0.72052044 0.33139089 0.35263917
0.72002357 0.33515409 0.35636720
0.71961117 0.33811176 0.35930923
0.71929061 0.34031880 0.36151147
0.71906030 0.34186038 0.36305326
0.71885169 0.34322450 0.36441952
0.69070268 -0.57676190 -0.01704129
0.69790751 -0.53308660 0.01199210
0.70488560 -0.48553440 0.04008487
0.71162534 -0.43418467 0.06296353
0.71801853 -0.37899530 0.08264641
0.72398812 -0.32000154 0.10190108
0.72952622 -0.25738260 0.12081143
0.73462695 -0.19136074 0.13940330
0.73928845 -0.12220693 0.15767166
0.74350959 -0.05023288 0.17559351
0.74729407 0.02419757 0.19313549
0.75064760 0.08456589 0.21025704
0.75357956 0.12228057 0.22691336
