Fermented_X/Fermented X (HSL + Channel Blend).cube
# VEGAS Pro LUT
TITLE "Fermented X (HSL + Channel Blend)"
LUT_3D_SIZE 9
0.00000050 0.00000050 0.00000050
0.12500000 0.00000000 0.02500004
0.25000000 0.00000000 0.05000007
0.37500000 0.00000000 0.07500011
0.50000000 0.00000000 0.10000014
0.62500000 0.00000000 0.12500018
0.75000000 0.00000000 0.15000021
0.87500000 0.00000000 0.17500025
1.00000000 0.00000000 0.20000029
0.00000000 0.02499998 0.12500000
0.09999999 0.00000000 0.12500000
0.25000000 0.00000000 0.17499995
0.37500000 0.00000000 0.19999990
0.50000000 0.00000000 0.22500002
0.62500000 0.00000000 0.25000006
0.75000000 0.00000000 0.27500001
0.87500000 0.00000000 0.29999977
1.00000000 0.00000000 0.32499981
0.00000000 0.04999995 0.25000000
0.07500002 0.00000000 0.25000000
0.19999999 0.00000000 0.25000000
0.37500000 0.00000000 0.32499996
0.50000000 0.00000000 0.34999990
0.62500000 0.00000000 0.37499994
0.75000000 0.00000000 0.39999980
0.87500000 0.00000000 0.42499992
1.00000000 0.00000000 0.45000005
0.00000000 0.07499993 0.37500000
0.05000000 0.00000000 0.37500000
0.17499992 0.00000000 0.37500000
0.29999998 0.00000000 0.37500000
0.50000000 0.00000000 0.47499996
0.62500000 0.00000000 0.50000006
0.75000000 0.00000000 0.52499986
0.87500000 0.00000000 0.55000007
1.00000000 0.00000000 0.57499993
0.00000000 0.09999990 0.50000000
0.02499998 0.00000000 0.50000000
0.15000004 0.00000000 0.50000000
0.27500010 0.00000000 0.50000000
0.39999998 0.00000000 0.50000000
0.62500006 0.00000000 0.62500000
0.75000000 0.00000000 0.64999992
0.87500000 0.00000000 0.67499989
1.00000000 0.00000000 0.69999981
0.00000000 0.12499988 0.62500000
0.00000000 0.00000000 0.62500000
0.12499988 0.00000000 0.62500000
0.24999999 0.00000000 0.62500000
0.37500009 0.00000000 0.62500000
0.49999997 0.00000000 0.62500000
0.72500002 0.00000000 0.75000000
0.87500000 0.00000000 0.80000007
1.00000000 0.00000000 0.82500005
0.00000000 0.14999986 0.75000000
0.00000000 0.02500033 0.75000000
0.09999999 0.00000000 0.75000000
0.22500005 0.00000000 0.75000000
0.34999985 0.00000000 0.75000000
0.47499990 0.00000000 0.75000000
0.59999996 0.00000000 0.75000000
0.82500011 0.00000000 0.87500000
1.00000000 0.00000000 0.94999993
0.00000000 0.17499983 0.87500000
0.00000000 0.05000031 0.87500000
0.07499984 0.00000000 0.87500000
0.19999999 0.00000000 0.87500000
0.32500014 0.00000000 0.87500000
0.44999999 0.00000000 0.87500000
0.57499981 0.00000000 0.87500000
0.69999993 0.00000000 0.87500000
0.92500019 0.00000000 1.00000000
0.00000000 0.19999981 1.00000000
0.00000000 0.07500029 1.00000000
0.04999995 0.00000000 1.00000000
0.17500019 0.00000000 1.00000000
0.30000007 0.00000000 1.00000000
0.42499995 0.00000000 1.00000000
0.55000019 0.00000000 1.00000000
0.67500007 0.00000000 1.00000000
0.79999995 0.00000000 1.00000000
0.02500001 0.12500000 0.00000000
0.12500000 0.10000002 0.00000000
0.25000000 0.07499999 0.00000000
0.37500000 0.04999995 0.00000000
0.50000000 0.02500010 0.00000000
0.62500000 0.00000000 0.00000030
0.75000000 0.00000000 0.02500015
0.87500000 0.00000000 0.05000010
1.00000000 0.00000000 0.07500005
0.00000000 0.12500000 0.09999996
0.12500000 0.12500000 0.12500000
0.25000000 0.12500000 0.15000004
0.37500000 0.12500000 0.17500007
0.50000000 0.12500000 0.20000011
0.62500000 0.12500000 0.22500014
0.75000000 0.12500000 0.25000018
0.87500000 0.12500000 0.27500021
1.00000000 0.12500000 0.30000025
0.00000000 0.17500001 0.25000000
0.12500000 0.14999998 0.25000000
0.22499999 0.12500000 0.25000000
0.37500000 0.12500000 0.29999995
0.50000000 0.12500000 0.32499990
0.62500000 0.12500000 0.35000002
0.75000000 0.12500000 0.37500006
0.87500000 0.12500000 0.40000001
1.00000000 0.12500000 0.42499977
0.00000000 0.19999999 0.37500000
0.12500000 0.17499995 0.37500000
0.20000002 0.12500000 0.37500000
0.32499999 0.12500000 0.37500000
0.50000000 0.12500000 0.44999996
0.62500000 0.12500000 0.47499990
0.75000000 0.12500000 0.49999994
0.87500000 0.12500000 0.52499980
1.00000000 0.12500000 0.54999995
0.00000000 0.22500014 0.50000000
0.12500000 0.19999993 0.50000000
0.17500000 0.12500000 0.50000000
0.29999992 0.12500000 0.50000000
0.42499998 0.12500000 0.50000000
0.62500000 0.12500000 0.59999996
0.75000000 0.12500000 0.62500006
0.87500000 0.12500000 0.64999986
1.00000000 0.12500000 0.67500007
0.00000000 0.24999976 0.62500000
0.12500000 0.22499990 0.62500000
0.14999998 0.12500000 0.62500000
0.27500004 0.12500000 0.62500000
0.40000010 0.12500000 0.62500000
0.52499998 0.12500000 0.62500000
0.75000006 0.12500000 0.75000000
0.87500000 0.12500000 0.77499992
1.00000000 0.12500000 0.79999989
0.00000000 0.27499992 0.75000000
0.12500000 0.24999988 0.75000000
0.12500000 0.12500000 0.75000000
0.24999988 0.12500000 0.75000000
0.37500000 0.12500000 0.75000000
0.50000012 0.12500000 0.75000000
0.62500000 0.12500000 0.75000000
0.85000002 0.12500000 0.87500000
1.00000000 0.12500000 0.92500007
0.00000000 0.29999998 0.87500000
0.12500000 0.27499986 0.87500000
0.12500000 0.15000033 0.87500000
0.22499999 0.12500000 0.87500000
0.35000005 0.12500000 0.87500000
0.47499985 0.12500000 0.87500000
0.59999990 0.12500000 0.87500000
0.72499996 0.12500000 0.87500000
0.95000011 0.12500000 1.00000000
0.00000000 0.32500005 1.00000000
0.12500000 0.29999983 1.00000000
0.12500000 0.17500031 1.00000000
0.19999984 0.12500000 1.00000000
0.32499999 0.12500000 1.00000000
0.45000014 0.12500000 1.00000000
0.57499999 0.12500000 1.00000000
0.69999981 0.12500000 1.00000000
0.82499993 0.12500000 1.00000000
0.05000001 0.25000000 0.00000000
0.17500007 0.25000000 0.00000000
0.25000000 0.20000005 0.00000000
0.37500000 0.17500001 0.00000000
0.50000000 0.14999998 0.00000000
0.62500000 0.12500003 0.00000000
0.75000000 0.09999990 0.00000000
0.87500000 0.07500005 0.00000000
1.00000000 0.05000019 0.00000000
0.00000000 0.25000000 0.07500005
0.15000001 0.25000000 0.12500000
0.25000000 0.22500002 0.12500000
0.37500000 0.19999999 0.12500000
0.50000000 0.17499995 0.12500000
0.62500000 0.15000010 0.12500000
0.75000000 0.12500000 0.12500030
0.87500000 0.12500000 0.15000015
1.00000000 0.12500000 0.17500010
0.00000000 0.25000000 0.19999993
0.12500000 0.25000000 0.22499996
0.25000000 0.25000000 0.25000000
0.37500000 0.25000000 0.27500004
0.50000000 0.25000000 0.30000007
0.62500000 0.25000000 0.32500011
0.75000000 0.25000000 0.35000014
0.87500000 0.25000000 0.37500018
1.00000000 0.25000000 0.40000021
0.00000000 0.32500005 0.37500000
0.12500000 0.30000001 0.37500000
0.25000000 0.27499998 0.37500000
0.34999999 0.25000000 0.37500000
0.50000000 0.25000000 0.42499995
0.62500000 0.25000000 0.44999990
0.75000000 0.25000000 0.47500002
0.87500000 0.25000000 0.50000006
1.00000000 0.25000000 0.52499998
0.00000000 0.35000002 0.50000000
0.12500000 0.32499999 0.50000000
0.25000000 0.29999995 0.50000000
0.32500002 0.25000000 0.50000000
0.44999999 0.25000000 0.50000000
0.62500000 0.25000000 0.57499993
0.75000000 0.25000000 0.59999990
0.87500000 0.25000000 0.62499994
1.00000000 0.25000000 0.64999980
0.00000000 0.37500009 0.62500000
0.12500000 0.35000014 0.62500000
0.25000000 0.32499993 0.62500000
0.30000001 0.25000000 0.62500000
0.42499992 0.25000000 0.62500000
0.54999995 0.25000000 0.62500000
0.75000000 0.25000000 0.72499996
0.87500000 0.25000000 0.75000006
1.00000000 0.25000000 0.77499986
0.00000000 0.39999998 0.75000000
0.12500000 0.37499976 0.75000000
0.25000000 0.34999990 0.75000000
0.27499998 0.25000000 0.75000000
0.40000004 0.25000000 0.75000000
0.52500010 0.25000000 0.75000000
0.64999998 0.25000000 0.75000000
0.87500006 0.25000000 0.87500000
1.00000000 0.25000000 0.89999992
0.00000000 0.42500013 0.87500000
0.12500000 0.39999992 0.87500000
0.25000000 0.37499988 0.87500000
0.25000000 0.25000000 0.87500000
0.37499988 0.25000000 0.87500000
0.50000000 0.25000000 0.87500000
0.62500012 0.25000000 0.87500000
0.75000000 0.25000000 0.87500000
0.97500002 0.25000000 1.00000000
0.00000000 0.45000029 1.00000000
0.12500000 0.42499998 1.00000000
0.25000000 0.39999986 1.00000000
0.25000000 0.27500033 1.00000000
0.34999999 0.25000000 1.00000000
0.47500005 0.25000000 1.00000000
0.59999985 0.25000000 1.00000000
0.72499990 0.25000000 1.00000000
0.84999996 0.25000000 1.00000000
0.07500002 0.37500000 0.00000000
0.20000008 0.37500000 0.00000000
0.32499987 0.37500000 0.00000000
0.37500000 0.30000007 0.00000000
0.50000000 0.27499986 0.00000000
0.62500000 0.24999991 0.00000000
0.75000000 0.22499996 0.00000000
0.87500000 0.19999957 0.00000000
1.00000000 0.17499971 0.00000000
0.00000000 0.37500000 0.04999977
0.17500001 0.37500000 0.12500000
0.30000007 0.37500000 0.12500000
0.37500000 0.32500005 0.12500000
0.50000000 0.30000001 0.12500000
0.62500000 0.27499998 0.12500000
0.75000000 0.25000003 0.12500000
0.87500000 0.22499990 0.12500000
1.00000000 0.20000005 0.12500000
0.00000000 0.37500000 0.17499983
0.12500000 0.37500000 0.20000005
0.27500001 0.37500000 0.25000000
0.37500000 0.35000002 0.25000000
0.50000000 0.32499999 0.25000000
0.62500000 0.29999995 0.25000000
0.75000000 0.27500010 0.25000000
0.87500000 0.25000000 0.25000030
1.00000000 0.25000000 0.27500015
0.00000000 0.37500000 0.29999989
0.12500000 0.37500000 0.32499993
0.25000000 0.37500000 0.34999996
0.37500000 0.37500000 0.37500000
0.50000000 0.37500000 0.40000004
0.62500000 0.37500000 0.42500007
0.75000000 0.37500000 0.45000011
0.87500006 0.37499994 0.47500011
1.00000000 0.37500000 0.50000018
0.00000000 0.47499990 0.50000000
0.12500000 0.45000005 0.50000000
0.25000000 0.42500001 0.50000000
0.37500000 0.39999998 0.50000000
0.47499999 0.37500000 0.50000000
0.62500000 0.37500000 0.54999995
0.75000000 0.37500000 0.57499993
0.87500006 0.37499994 0.60000002
1.00000000 0.37500000 0.62500006
0.00000000 0.49999997 0.62500000
0.12500000 0.47500002 0.62500000
0.25000000 0.44999999 0.62500000
0.37500000 0.42499995 0.62500000
0.45000002 0.37500000 0.62500000
0.57499999 0.37500000 0.62500000
0.75000000 0.37500000 0.69999993
0.87500006 0.37499994 0.72499990
1.00000000 0.37500000 0.74999994
0.00000000 0.52500004 0.75000000
0.12500000 0.50000012 0.75000000
0.25000000 0.47500014 0.75000000
0.37500000 0.44999993 0.75000000
0.42500001 0.37500000 0.75000000
0.54999995 0.37500000 0.75000000
0.67499995 0.37500000 0.75000000
0.87500006 0.37499994 0.85000002
1.00000000 0.37500000 0.87500006
0.00000000 0.54999965 0.87500000
0.12500000 0.52499998 0.87500000
0.25000000 0.49999976 0.87500000
0.37499994 0.47499987 0.87500006
0.39999992 0.37499994 0.87500006
0.52500004 0.37499994 0.87500006
0.65000010 0.37499994 0.87500006
0.77500004 0.37499994 0.87500006
1.00000000 0.37500000 1.00000000
0.00000000 0.57499981 1.00000000
0.12500000 0.55000013 1.00000000
0.25000000 0.52499992 1.00000000
0.37500000 0.49999988 1.00000000
0.37500000 0.37500000 1.00000000
0.49999988 0.37500000 1.00000000
0.62500000 0.37500000 1.00000000
0.75000012 0.37500000 1.00000000
0.87500000 0.37500000 1.00000000
0.10000002 0.50000000 0.00000000
0.22499990 0.50000000 0.00000000
0.35000014 0.50000000 0.00000000
0.47500002 0.50000000 0.00000000
0.50000000 0.40000010 0.00000000
0.62500000 0.37500024 0.00000000
0.75000000 0.35000002 0.00000000
0.87500000 0.32499972 0.00000000
1.00000000 0.29999995 0.00000000
0.00000000 0.50000000 0.02499986
0.20000002 0.50000000 0.12500000
0.32500008 0.50000000 0.12500000
0.44999987 0.50000000 0.12500000
0.50000000 0.42500007 0.12500000
0.62500000 0.39999986 0.12500000
0.75000000 0.37499991 0.12500000
0.87500000 0.34999996 0.12500000
1.00000000 0.32499957 0.12500000
0.00000000 0.50000000 0.15000010
0.12500000 0.50000000 0.17499977
0.30000001 0.50000000 0.25000000
0.42500007 0.50000000 0.25000000
0.50000000 0.45000005 0.25000000
0.62500000 0.42500001 0.25000000
0.75000000 0.39999998 0.25000000
0.87500000 0.37500003 0.25000000
1.00000000 0.34999990 0.25000000
0.00000000 0.50000000 0.27499998
0.12500000 0.50000000 0.29999983
0.25000000 0.50000000 0.32500005
0.40000001 0.50000000 0.37500000
0.50000000 0.47500002 0.37500000
0.62500000 0.44999999 0.37500000
0.75000000 0.42499995 0.37500000
0.87500006 0.40000004 0.37499994
1.00000000 0.37500000 0.37500030
0.00000000 0.50000000 0.39999986
0.12500000 0.50000000 0.42499989
0.25000000 0.50000000 0.44999993
0.37500000 0.50000000 0.47499996
0.50000000 0.50000000 0.50000000
0.62500000 0.50000000 0.52500004
0.75000006 0.49999994 0.55000001
0.87500000 0.50000000 0.57500011
1.00000000 0.50000000 0.60000014
0.00000000 0.62499988 0.62500000
0.12500000 0.59999990 0.62500000
0.25000000 0.57500005 0.62500000
0.37500000 0.55000001 0.62500000
0.50000000 0.52499998 0.62500000
0.60000002 0.50000000 0.62500000
0.75000006 0.49999994 0.67499995
0.87500000 0.50000000 0.69999993
1.00000000 0.50000000 0.72500002
0.00000000 0.65000010 0.75000000
0.12500000 0.62500000 0.75000000
0.25000000 0.60000002 0.75000000
0.37500000 0.57499999 0.75000000
0.49999994 0.54999989 0.75000006
0.57499999 0.49999994 0.75000006
0.70000005 0.49999994 0.75000006
0.87500000 0.50000000 0.82499993
1.00000000 0.50000000 0.84999990
0.00000000 0.67499983 0.87500000
0.12500000 0.65000004 0.87500000
0.25000000 0.62500012 0.87500000
0.37499994 0.60000014 0.87500006
0.50000000 0.57499993 0.87500000
0.55000001 0.50000000 0.87500000
0.67499995 0.50000000 0.87500000
0.79999995 0.50000000 0.87500000
1.00000000 0.50000000 0.97499996
0.00000000 0.70000005 1.00000000
0.12500000 0.67499965 1.00000000
0.25000000 0.64999998 1.00000000
0.37500000 0.62499976 1.00000000
0.50000000 0.59999990 1.00000000
0.52499998 0.50000000 1.00000000
0.65000004 0.50000000 1.00000000
0.77500010 0.50000000 1.00000000
0.89999998 0.50000000 1.00000000
0.12500003 0.62500000 0.00000000
0.24999991 0.62500000 0.00000000
0.37500024 0.62500000 0.00000000
0.50000012 0.62500000 0.00000000
0.62500000 0.62500000 0.00000000
0.62500000 0.50000012 0.00000000
0.75000000 0.47500008 0.00000000
0.87500000 0.44999987 0.00000000
1.00000000 0.42500019 0.00000000
0.00000000 0.62500000 0.00000030
0.22500002 0.62500000 0.12500000
0.34999990 0.62500000 0.12500000
0.47500014 0.62500000 0.12500000
0.60000002 0.62500000 0.12500000
0.62500000 0.52500010 0.12500000
0.75000000 0.50000024 0.12500000
0.87500000 0.47500002 0.12500000
1.00000000 0.44999972 0.12500000
0.00000000 0.62500000 0.12500018
0.12500000 0.62500000 0.14999986
0.32500002 0.62500000 0.25000000
0.45000008 0.62500000 0.25000000
0.57499987 0.62500000 0.25000000
0.62500000 0.55000007 0.25000000
0.75000000 0.52499986 0.25000000
0.87500000 0.49999991 0.25000000
1.00000000 0.47499996 0.25000000
0.00000000 0.62500000 0.25000006
0.12500000 0.62500000 0.27500010
0.25000000 0.62500000 0.29999977
0.42500001 0.62500000 0.37500000
0.55000007 0.62500000 0.37500000
0.62500000 0.57500005 0.37500000
0.75000000 0.55000001 0.37500000
0.87500006 0.52499998 0.37499994
1.00000000 0.50000000 0.37500000
0.00000000 0.62500000 0.37499994
0.12500000 0.62500000 0.39999998
0.25000000 0.62500000 0.42499983
0.37500000 0.62500000 0.45000005
0.52499998 0.62500000 0.50000000
0.62500000 0.60000002 0.50000000
0.75000006 0.57499999 0.49999994
0.87500000 0.54999995 0.50000000
1.00000000 0.52500010 0.50000000
0.00000000 0.62500000 0.49999982
0.12500000 0.62500000 0.52499986
0.25000000 0.62500000 0.54999989
0.37500000 0.62500000 0.57499993
0.50000000 0.62500000 0.59999996
0.62500000 0.62500000 0.62500000
0.75000000 0.62500000 0.65000004
0.87500000 0.62500000 0.67500007
1.00000000 0.62500000 0.70000011
0.00000000 0.75000000 0.72500038
0.12500000 0.74999988 0.75000000
0.25000000 0.72499990 0.75000000
0.37500000 0.70000005 0.75000000
0.49999994 0.67500001 0.75000006
0.62500000 0.64999998 0.75000000
0.72500002 0.62500000 0.75000000
0.87500000 0.62500000 0.79999995
1.00000000 0.62500000 0.82499993
0.00000000 0.79999995 0.87500000
0.12500000 0.77500010 0.87500000
0.25000000 0.75000000 0.87500000
0.37499994 0.72500002 0.87500006
0.50000000 0.69999999 0.87500000
0.62500000 0.67499995 0.87500000
0.70000005 0.62500000 0.87500000
0.82499999 0.62500000 0.87500000
1.00000000 0.62500000 0.94999993
0.00000000 0.82500029 1.00000000
0.12500000 0.79999983 1.00000000
0.25000000 0.77500004 1.00000000
0.37500000 0.75000012 1.00000000
0.50000000 0.72500014 1.00000000
0.62500000 0.69999993 1.00000000
0.67500001 0.62500000 1.00000000
0.79999995 0.62500000 1.00000000
0.92499995 0.62500000 1.00000000
0.15000004 0.75000000 0.00000000
0.27500010 0.75000000 0.00000000
0.40000015 0.75000000 0.00000000
0.52500021 0.75000000 0.00000000
0.64999974 0.75000000 0.00000000
0.75000000 0.72499967 0.00000000
0.75000000 0.60000014 0.00000000
0.87500000 0.57500005 0.00000000
1.00000000 0.54999971 0.00000000
0.02499998 0.75000000 0.00000000
0.25000003 0.75000000 0.12500000
0.37499991 0.75000000 0.12500000
0.50000024 0.75000000 0.12500000
0.62500012 0.75000000 0.12500000
0.75000000 0.75000000 0.12500000
0.75000000 0.62500012 0.12500000
0.87500000 0.60000008 0.12500000
1.00000000 0.57499987 0.12500000
0.00000000 0.75000000 0.09999955
0.12500000 0.75000000 0.12500030
0.35000002 0.75000000 0.25000000
0.47499990 0.75000000 0.25000000
0.60000014 0.75000000 0.25000000
0.72500002 0.75000000 0.25000000
0.75000000 0.65000010 0.25000000
0.87500000 0.62500024 0.25000000
1.00000000 0.60000002 0.25000000
0.00000000 0.75000000 0.22500014
0.12500000 0.75000000 0.25000018
0.25000000 0.75000000 0.27499986
0.45000002 0.75000000 0.37500000
0.57500005 0.75000000 0.37500000
0.69999987 0.75000000 0.37500000
0.75000000 0.67500007 0.37500000
0.87500006 0.64999986 0.37499994
1.00000000 0.62499988 0.37500000
0.00000000 0.75000000 0.34999967
0.12500000 0.75000000 0.37500006
0.25000000 0.75000000 0.40000010
0.37500000 0.75000000 0.42499977
0.54999995 0.75000006 0.49999994
0.67500007 0.75000006 0.49999994
0.75000006 0.70000011 0.49999994
0.87500000 0.67500001 0.50000000
1.00000000 0.64999998 0.50000000
0.00000000 0.75000000 0.47500026
0.12500000 0.75000000 0.49999994
0.25000000 0.75000000 0.52499998
0.37500000 0.75000000 0.54999983
0.49999994 0.75000006 0.57500005
0.64999998 0.75000000 0.62500000
0.75000000 0.72500002 0.62500000
0.87500000 0.69999999 0.62500000
1.00000000 0.67499995 0.62500000
0.00000000 0.75000000 0.59999979
0.12500000 0.75000000 0.62499982
0.25000000 0.75000000 0.64999986
0.37500000 0.75000000 0.67499989
0.49999994 0.75000006 0.69999999
0.62500000 0.75000000 0.72499996
0.75000000 0.75000000 0.75000000
0.87500006 0.74999994 0.77499998
1.00000000 0.75000000 0.80000007
0.00000000 0.87500000 0.82499993
0.12500000 0.87500000 0.85000038
0.25000000 0.87499988 0.87500000
0.37499994 0.84999996 0.87500006
0.50000000 0.82500005 0.87500000
0.62500000 0.80000001 0.87500000
0.74999994 0.77499992 0.87500006
0.85000002 0.74999994 0.87500006
1.00000000 0.75000000 0.92499995
0.00000000 0.94999981 1.00000000
0.12500000 0.92499995 1.00000000
0.25000000 0.90000010 1.00000000
0.37500000 0.87500000 1.00000000
0.50000000 0.85000002 1.00000000
0.62500000 0.82499999 1.00000000
0.75000000 0.79999995 1.00000000
0.82500005 0.75000000 1.00000000
0.94999999 0.75000000 1.00000000
0.17500004 0.87500000 0.00000000
0.30000019 0.87500000 0.00000000
0.42499971 0.87500000 0.00000000
0.54999983 0.87500000 0.00000000
0.67500001 0.87500000 0.00000000
0.80000019 0.87500000 0.00000000
0.87500000 0.82499969 0.00000000
0.87500000 0.70000017 0.00000000
1.00000000 0.67499995 0.00000000
0.04999989 0.87500000 0.00000000
0.27500004 0.87500000 0.12500000
0.40000010 0.87500000 0.12500000
0.52500015 0.87500000 0.12500000
0.65000021 0.87500000 0.12500000
0.77499974 0.87500000 0.12500000
0.87500000 0.84999967 0.12500000
0.87500000 0.72500014 0.12500000
1.00000000 0.70000005 0.12500000
0.00000000 0.87500000 0.07499963
0.14999998 0.87500000 0.12500000
0.37500003 0.87500000 0.25000000
0.49999991 0.87500000 0.25000000
0.62500024 0.87500000 0.25000000
0.75000012 0.87500000 0.25000000
0.87500000 0.87500000 0.25000000
0.87500000 0.75000012 0.25000000
1.00000000 0.72500008 0.25000000
0.00000000 0.87500000 0.20000041
0.12500000 0.87500000 0.22499955
0.25000000 0.87500000 0.25000030
0.47499999 0.87500006 0.37499994
0.59999990 0.87500006 0.37499994
0.72500014 0.87500006 0.37499994
0.85000008 0.87500006 0.37499994
0.87500006 0.77500015 0.37499994
1.00000000 0.75000024 0.37500000
0.00000000 0.87500000 0.32499993
0.12500000 0.87500000 0.35000014
0.25000000 0.87500000 0.37500018
0.37499994 0.87500006 0.39999980
0.57500005 0.87500000 0.50000000
0.70000005 0.87500000 0.50000000
0.82499987 0.87500000 0.50000000
0.87500000 0.80000007 0.50000000
1.00000000 0.77499986 0.50000000
0.00000000 0.87500000 0.44999945
0.12500000 0.87500000 0.47499967
0.25000000 0.87500000 0.50000006
0.37499994 0.87500006 0.52500010
0.50000000 0.87500000 0.54999977
0.67500001 0.87500000 0.62500000
0.80000007 0.87500000 0.62500000
0.87500000 0.82500005 0.62500000
1.00000000 0.80000001 0.62500000
0.00000000 0.87500000 0.57500023
0.12500000 0.87500000 0.60000026
0.25000000 0.87500000 0.62499994
0.37499994 0.87500006 0.64999998
0.50000000 0.87500000 0.67499983
0.62500000 0.87500000 0.70000005
0.77499998 0.87500006 0.74999994
0.87500006 0.85000008 0.74999994
1.00000000 0.82499999 0.75000000
0.00000000 0.87500000 0.69999975
0.12500000 0.87500000 0.72499979
0.25000000 0.87500000 0.74999982
0.37499994 0.87500006 0.77499992
0.50000000 0.87500000 0.79999989
0.62500000 0.87500000 0.82499993
0.74999994 0.87500006 0.85000002
0.87500000 0.87500000 0.87500000
1.00000000 0.87500000 0.90000004
0.00000000 1.00000000 0.92499995
0.12500000 1.00000000 0.94999993
0.25000000 1.00000000 0.97500038
0.37500000 0.99999988 1.00000000
0.50000000 0.97499990 1.00000000
0.62500000 0.95000005 1.00000000
0.75000000 0.92500001 1.00000000
0.87500000 0.89999998 1.00000000
0.97500002 0.87500000 1.00000000
0.20000005 1.00000000 0.00000000
0.32500029 1.00000000 0.00000000
0.44999981 1.00000000 0.00000000
0.57500005 1.00000000 0.00000000
0.70000029 1.00000000 0.00000000
0.82499981 1.00000000 0.00000000
0.95000005 1.00000000 0.00000000
1.00000000 0.92499971 0.00000000
1.00000000 0.80000019 0.00000000
0.07499981 1.00000000 0.00000000
0.30000004 1.00000000 0.12500000
0.42500019 1.00000000 0.12500000
0.54999971 1.00000000 0.12500000
0.67499983 1.00000000 0.12500000
0.80000001 1.00000000 0.12500000
0.92500019 1.00000000 0.12500000
1.00000000 0.94999969 0.12500000
1.00000000 0.82500017 0.12500000
0.00000000 1.00000000 0.04999971
0.17499989 1.00000000 0.12500000
0.40000004 1.00000000 0.25000000
0.52500010 1.00000000 0.25000000
0.65000015 1.00000000 0.25000000
0.77500021 1.00000000 0.25000000
0.89999974 1.00000000 0.25000000
1.00000000 0.97499967 0.25000000
1.00000000 0.85000014 0.25000000
0.00000000 1.00000000 0.17499995
0.12500000 1.00000000 0.19999963
0.27499998 1.00000000 0.25000000
0.50000000 1.00000000 0.37500000
0.62499988 1.00000000 0.37500000
0.75000024 1.00000000 0.37500000
0.87500012 1.00000000 0.37500000
1.00000000 1.00000000 0.37500000
1.00000000 0.87500012 0.37500000
0.00000000 1.00000000 0.30000019
0.12500000 1.00000000 0.32500041
0.25000000 1.00000000 0.34999955
0.37500000 1.00000000 0.37500030
0.60000002 1.00000000 0.50000000
0.72499990 1.00000000 0.50000000
0.85000014 1.00000000 0.50000000
0.97500002 1.00000000 0.50000000
1.00000000 0.90000010 0.50000000
0.00000000 1.00000000 0.42499971
0.12500000 1.00000000 0.44999993
0.25000000 1.00000000 0.47500014
0.37500000 1.00000000 0.50000018
0.50000000 1.00000000 0.52499986
0.70000005 1.00000000 0.62500000
0.82500005 1.00000000 0.62500000
0.94999987 1.00000000 0.62500000
1.00000000 0.92500007 0.62500000
0.00000000 1.00000000 0.54999995
0.12500000 1.00000000 0.57499945
0.25000000 1.00000000 0.59999967
0.37500000 1.00000000 0.62500006
0.50000000 1.00000000 0.65000010
0.62500000 1.00000000 0.67499977
0.80000001 1.00000000 0.75000000
0.92500007 1.00000000 0.75000000
1.00000000 0.95000005 0.75000000
0.00000000 1.00000000 0.67500019
0.12500000 1.00000000 0.70000023
0.25000000 1.00000000 0.72500026
0.37500000 1.00000000 0.74999994
0.50000000 1.00000000 0.77499998
0.62500000 1.00000000 0.79999983
0.75000000 1.00000000 0.82500005
0.89999998 1.00000000 0.87500000
1.00000000 0.97500002 0.87500000
0.00000000 1.00000000 0.79999971
0.12500000 1.00000000 0.82499975
0.25000000 1.00000000 0.84999979
0.37500000 1.00000000 0.87499982
0.50000000 1.00000000 0.89999986
0.62500000 1.00000000 0.92499989
0.75000000 1.00000000 0.94999993
0.87500000 1.00000000 0.97499996
1.00000000 1.00000000 1.00000000
