Fermented_X/Fermented X (HSL + Channel Blend).cube
# VEGAS Pro LUT
TITLE "Fermented X (HSL + Channel Blend)"
LUT_3D_SIZE 5
0.00000050 0.00000050 0.00000050
0.25000000 0.00000000 0.05000007
0.50000000 0.00000000 0.10000014
0.75000000 0.00000000 0.15000021
1.00000000 0.00000000 0.20000029
0.00000000 0.04999995 0.25000000
0.19999999 0.00000000 0.25000000
0.50000000 0.00000000 0.34999990
0.75000000 0.00000000 0.39999980
1.00000000 0.00000000 0.45000005
0.00000000 0.09999990 0.50000000
0.15000004 0.00000000 0.50000000
0.39999998 0.00000000 0.50000000
0.75000000 0.00000000 0.64999992
1.00000000 0.00000000 0.69999981
0.00000000 0.14999986 0.75000000
0.09999999 0.00000000 0.75000000
0.34999985 0.00000000 0.75000000
0.59999996 0.00000000 0.75000000
1.00000000 0.00000000 0.94999993
0.00000000 0.19999981 1.00000000
0.04999995 0.00000000 1.00000000
0.30000007 0.00000000 1.00000000
0.55000019 0.00000000 1.00000000
0.79999995 0.00000000 1.00000000
0.05000001 0.25000000 0.00000000
0.25000000 0.20000005 0.00000000
0.50000000 0.14999998 0.00000000
0.75000000 0.09999990 0.00000000
1.00000000 0.05000019 0.00000000
0.00000000 0.25000000 0.19999993
0.25000000 0.25000000 0.25000000
0.50000000 0.25000000 0.30000007
0.75000000 0.25000000 0.35000014
1.00000000 0.25000000 0.40000021
0.00000000 0.35000002 0.50000000
0.25000000 0.29999995 0.50000000
0.44999999 0.25000000 0.50000000
0.75000000 0.25000000 0.59999990
1.00000000 0.25000000 0.64999980
0.00000000 0.39999998 0.75000000
0.25000000 0.34999990 0.75000000
0.40000004 0.25000000 0.75000000
0.64999998 0.25000000 0.75000000
1.00000000 0.25000000 0.89999992
0.00000000 0.45000029 1.00000000
0.25000000 0.39999986 1.00000000
0.34999999 0.25000000 1.00000000
0.59999985 0.25000000 1.00000000
0.84999996 0.25000000 1.00000000
0.10000002 0.50000000 0.00000000
0.35000014 0.50000000 0.00000000
0.50000000 0.40000010 0.00000000
0.75000000 0.35000002 0.00000000
1.00000000 0.29999995 0.00000000
0.00000000 0.50000000 0.15000010
0.30000001 0.50000000 0.25000000
0.50000000 0.45000005 0.25000000
0.75000000 0.39999998 0.25000000
1.00000000 0.34999990 0.25000000
0.00000000 0.50000000 0.39999986
0.25000000 0.50000000 0.44999993
0.50000000 0.50000000 0.50000000
0.75000006 0.49999994 0.55000001
1.00000000 0.50000000 0.60000014
0.00000000 0.65000010 0.75000000
0.25000000 0.60000002 0.75000000
0.49999994 0.54999989 0.75000006
0.70000005 0.49999994 0.75000006
1.00000000 0.50000000 0.84999990
0.00000000 0.70000005 1.00000000
0.25000000 0.64999998 1.00000000
0.50000000 0.59999990 1.00000000
0.65000004 0.50000000 1.00000000
0.89999998 0.50000000 1.00000000
0.15000004 0.75000000 0.00000000
0.40000015 0.75000000 0.00000000
0.64999974 0.75000000 0.00000000
0.75000000 0.60000014 0.00000000
1.00000000 0.54999971 0.00000000
0.00000000 0.75000000 0.09999955
0.35000002 0.75000000 0.25000000
0.60000014 0.75000000 0.25000000
0.75000000 0.65000010 0.25000000
1.00000000 0.60000002 0.25000000
0.00000000 0.75000000 0.34999967
0.25000000 0.75000000 0.40000010
0.54999995 0.75000006 0.49999994
0.75000006 0.70000011 0.49999994
1.00000000 0.64999998 0.50000000
0.00000000 0.75000000 0.59999979
0.25000000 0.75000000 0.64999986
0.49999994 0.75000006 0.69999999
0.75000000 0.75000000 0.75000000
1.00000000 0.75000000 0.80000007
0.00000000 0.94999981 1.00000000
0.25000000 0.90000010 1.00000000
0.50000000 0.85000002 1.00000000
0.75000000 0.79999995 1.00000000
0.94999999 0.75000000 1.00000000
0.20000005 1.00000000 0.00000000
0.44999981 1.00000000 0.00000000
0.70000029 1.00000000 0.00000000
0.95000005 1.00000000 0.00000000
1.00000000 0.80000019 0.00000000
0.00000000 1.00000000 0.04999971
0.40000004 1.00000000 0.25000000
0.65000015 1.00000000 0.25000000
0.89999974 1.00000000 0.25000000
1.00000000 0.85000014 0.25000000
0.00000000 1.00000000 0.30000019
0.25000000 1.00000000 0.34999955
0.60000002 1.00000000 0.50000000
0.85000014 1.00000000 0.50000000
1.00000000 0.90000010 0.50000000
0.00000000 1.00000000 0.54999995
0.25000000 1.00000000 0.59999967
0.50000000 1.00000000 0.65000010
0.80000001 1.00000000 0.75000000
1.00000000 0.95000005 0.75000000
0.00000000 1.00000000 0.79999971
0.25000000 1.00000000 0.84999979
0.50000000 1.00000000 0.89999986
0.75000000 1.00000000 0.94999993
1.00000000 1.00000000 1.00000000
