Fermented_X/Fermented X (HSL + Channel Blend).cube
# VEGAS Pro LUT
TITLE "Fermented X (HSL + Channel Blend)"
LUT_3D_SIZE 33
0.00000050 0.00000050 0.00000050
0.03125000 0.00000000 0.00625001
0.06250000 0.00000000 0.01250002
0.09375000 0.00000000 0.01875003
0.12500000 0.00000000 0.02500004
0.15625000 0.00000000 0.03125004
0.18750000 0.00000000 0.03750005
0.21875000 0.00000000 0.04375006
0.25000000 0.00000000 0.05000007
0.28125000 0.00000000 0.05625008
0.31250000 0.00000000 0.06250009
0.34375000 0.00000000 0.06875010
0.37500000 0.00000000 0.07500011
0.40625000 0.00000000 0.08125012
0.43750000 0.00000000 0.08750013
0.46875000 0.00000000 0.09375013
0.50000000 0.00000000 0.10000014
0.53125000 0.00000000 0.10625015
0.56250000 0.00000000 0.11250016
0.59375000 0.00000000 0.11875017
0.62500000 0.00000000 0.12500018
0.65625000 0.00000000 0.13125019
0.68750000 0.00000000 0.13750020
0.71875000 0.00000000 0.14375021
0.75000000 0.00000000 0.15000021
0.78125000 0.00000000 0.15625022
0.81250000 0.00000000 0.16250023
0.84375000 0.00000000 0.16875024
0.87500000 0.00000000 0.17500025
0.90625000 0.00000000 0.18125026
0.93750000 0.00000000 0.18750027
0.96875000 0.00000000 0.19375028
1.00000000 0.00000000 0.20000029
0.00000000 0.00624999 0.03125000
0.02500000 0.00000000 0.03125000
0.06250000 0.00000000 0.04374999
0.09375000 0.00000000 0.04999997
0.12500000 0.00000000 0.05625001
0.15625000 0.00000000 0.06250001
0.18750000 0.00000000 0.06875000
0.21875000 0.00000000 0.07499994
0.25000000 0.00000000 0.08124995
0.28125000 0.00000000 0.08749996
0.31250000 0.00000000 0.09374995
0.34375000 0.00000000 0.09999995
0.37500000 0.00000000 0.10624999
0.40625000 0.00000000 0.11249989
0.43750000 0.00000000 0.11875001
0.46875000 0.00000000 0.12499988
0.50000000 0.00000000 0.13125002
0.53125000 0.00000000 0.13750005
0.56250000 0.00000000 0.14375004
0.59375000 0.00000000 0.15000005
0.62500000 0.00000000 0.15624993
0.65625000 0.00000000 0.16250007
0.68750000 0.00000000 0.16874993
0.71875000 0.00000000 0.17499994
0.75000000 0.00000000 0.18124983
0.78125000 0.00000000 0.18749991
0.81250000 0.00000000 0.19374987
0.84375000 0.00000000 0.19999993
0.87500000 0.00000000 0.20624982
0.90625000 0.00000000 0.21250001
0.93750000 0.00000000 0.21875001
0.96875000 0.00000000 0.22499990
1.00000000 0.00000000 0.23124981
0.00000000 0.01249999 0.06250000
0.01875000 0.00000000 0.06250000
0.05000000 0.00000000 0.06250000
0.09375000 0.00000000 0.08124999
0.12500000 0.00000000 0.08749998
0.15625000 0.00000000 0.09374999
0.18750000 0.00000000 0.09999995
0.21875000 0.00000000 0.10624998
0.25000000 0.00000000 0.11250001
0.28125000 0.00000000 0.11874995
0.31250000 0.00000000 0.12500003
0.34375000 0.00000000 0.13124992
0.37500000 0.00000000 0.13750000
0.40625000 0.00000000 0.14374997
0.43750000 0.00000000 0.14999989
0.46875000 0.00000000 0.15624997
0.50000000 0.00000000 0.16249990
0.53125000 0.00000000 0.16874996
0.56250000 0.00000000 0.17499992
0.59375000 0.00000000 0.18124993
0.62500000 0.00000000 0.18749990
0.65625000 0.00000000 0.19374995
0.68750000 0.00000000 0.19999990
0.71875000 0.00000000 0.20624994
0.75000000 0.00000000 0.21249998
0.78125000 0.00000000 0.21874988
0.81250000 0.00000000 0.22499979
0.84375000 0.00000000 0.23124990
0.87500000 0.00000000 0.23750001
0.90625000 0.00000000 0.24374975
0.93750000 0.00000000 0.24999976
0.96875000 0.00000000 0.25624987
1.00000000 0.00000000 0.26250005
0.00000000 0.01874998 0.09375000
0.01250000 0.00000000 0.09375000
0.04374998 0.00000000 0.09375000
0.07500000 0.00000000 0.09375000
0.12500000 0.00000000 0.11874999
0.15625000 0.00000000 0.12500001
0.18750000 0.00000000 0.13124996
0.21875000 0.00000000 0.13750002
0.25000000 0.00000000 0.14374998
0.28125000 0.00000000 0.14999992
0.31250000 0.00000000 0.15625000
0.34375000 0.00000000 0.16250001
0.37500000 0.00000000 0.16875002
0.40625000 0.00000000 0.17499989
0.43750000 0.00000000 0.18124992
0.46875000 0.00000000 0.18749988
0.50000000 0.00000000 0.19374996
0.53125000 0.00000000 0.19999987
0.56250000 0.00000000 0.20625001
0.59375000 0.00000000 0.21250002
0.62500000 0.00000000 0.21874987
0.65625000 0.00000000 0.22499983
0.68750000 0.00000000 0.23124987
0.71875000 0.00000000 0.23749992
0.75000000 0.00000000 0.24374986
0.78125000 0.00000000 0.24999985
0.81250000 0.00000000 0.25625002
0.84375000 0.00000000 0.26249987
0.87500000 0.00000000 0.26874989
0.90625000 0.00000000 0.27499983
0.93750000 0.00000000 0.28124985
0.96875000 0.00000000 0.28749985
1.00000000 0.00000000 0.29374993
0.00000000 0.02499998 0.12500000
0.00624999 0.00000000 0.12500000
0.03750001 0.00000000 0.12500000
0.06875002 0.00000000 0.12500000
0.09999999 0.00000000 0.12500000
0.15625001 0.00000000 0.15625000
0.18750000 0.00000000 0.16249998
0.21875000 0.00000000 0.16874997
0.25000000 0.00000000 0.17499995
0.28125000 0.00000000 0.18125001
0.31250000 0.00000000 0.18749997
0.34375000 0.00000000 0.19374998
0.37500000 0.00000000 0.19999990
0.40625000 0.00000000 0.20624997
0.43750000 0.00000000 0.21249996
0.46875000 0.00000000 0.21874996
0.50000000 0.00000000 0.22500002
0.53125000 0.00000000 0.23124996
0.56250000 0.00000000 0.23749989
0.59375000 0.00000000 0.24374990
0.62500000 0.00000000 0.25000006
0.65625000 0.00000000 0.25624993
0.68750000 0.00000000 0.26249984
0.71875000 0.00000000 0.26874992
0.75000000 0.00000000 0.27500001
0.78125000 0.00000000 0.28125012
0.81250000 0.00000000 0.28749993
0.84375000 0.00000000 0.29374987
0.87500000 0.00000000 0.29999977
0.90625000 0.00000000 0.30624989
0.93750000 0.00000000 0.31249994
0.96875000 0.00000000 0.31874982
1.00000000 0.00000000 0.32499981
0.00000000 0.03124997 0.15625000
0.00000000 0.00000000 0.15625000
0.03124997 0.00000000 0.15625000
0.06250000 0.00000000 0.15625000
0.09375002 0.00000000 0.15625000
0.12499999 0.00000000 0.15625000
0.18125001 0.00000000 0.18750000
0.21875000 0.00000000 0.20000002
0.25000000 0.00000000 0.20625001
0.28125000 0.00000000 0.21249999
0.31250000 0.00000000 0.21874994
0.34375000 0.00000000 0.22499995
0.37500000 0.00000000 0.23124991
0.40625000 0.00000000 0.23750004
0.43750000 0.00000000 0.24375001
0.46875000 0.00000000 0.24999988
0.50000000 0.00000000 0.25624990
0.53125000 0.00000000 0.26250005
0.56250000 0.00000000 0.26874995
0.59375000 0.00000000 0.27500001
0.62500000 0.00000000 0.28125003
0.65625000 0.00000000 0.28750005
0.68750000 0.00000000 0.29375005
0.71875000 0.00000000 0.29999992
0.75000000 0.00000000 0.30624989
0.78125000 0.00000000 0.31250006
0.81250000 0.00000000 0.31874985
0.84375000 0.00000000 0.32499984
0.87500000 0.00000000 0.33124995
0.90625000 0.00000000 0.33749998
0.93750000 0.00000000 0.34375000
0.96875000 0.00000000 0.35000014
1.00000000 0.00000000 0.35625005
0.00000000 0.03749996 0.18750000
0.00000000 0.00625008 0.18750000
0.02500000 0.00000000 0.18750000
0.05625001 0.00000000 0.18750000
0.08749996 0.00000000 0.18750000
0.11874998 0.00000000 0.18750000
0.14999999 0.00000000 0.18750000
0.20625003 0.00000000 0.21875000
0.25000000 0.00000000 0.23749998
0.28125000 0.00000000 0.24374998
0.31250000 0.00000000 0.25000003
0.34375000 0.00000000 0.25624990
0.37500000 0.00000000 0.26249993
0.40625000 0.00000000 0.26874995
0.43750000 0.00000000 0.27500004
0.46875000 0.00000000 0.28124994
0.50000000 0.00000000 0.28749996
0.53125000 0.00000000 0.29374996
0.56250000 0.00000000 0.29999983
0.59375000 0.00000000 0.30624989
0.62500000 0.00000000 0.31250000
0.65625000 0.00000000 0.31874993
0.68750000 0.00000000 0.32500002
0.71875000 0.00000000 0.33124989
0.75000000 0.00000000 0.33750004
0.78125000 0.00000000 0.34375006
0.81250000 0.00000000 0.34999979
0.84375000 0.00000000 0.35624984
0.87500000 0.00000000 0.36249983
0.90625000 0.00000000 0.36875004
0.93750000 0.00000000 0.37499976
0.96875000 0.00000000 0.38125008
1.00000000 0.00000000 0.38749993
0.00000000 0.04374996 0.21875000
0.00000000 0.01250008 0.21875000
0.01874996 0.00000000 0.21875000
0.05000000 0.00000000 0.21875000
0.08125003 0.00000000 0.21875000
0.11250000 0.00000000 0.21875000
0.14374995 0.00000000 0.21875000
0.17499998 0.00000000 0.21875000
0.23125005 0.00000000 0.25000000
0.28125000 0.00000000 0.27500004
0.31250000 0.00000000 0.28125000
0.34375000 0.00000000 0.28750002
0.37500000 0.00000000 0.29374993
0.40625000 0.00000000 0.29999989
0.43750000 0.00000000 0.30624992
0.46875000 0.00000000 0.31250003
0.50000000 0.00000000 0.31875002
0.53125000 0.00000000 0.32499987
0.56250000 0.00000000 0.33124992
0.59375000 0.00000000 0.33749998
0.62500000 0.00000000 0.34374997
0.65625000 0.00000000 0.34999982
0.68750000 0.00000000 0.35624999
0.71875000 0.00000000 0.36249989
0.75000000 0.00000000 0.36874992
0.78125000 0.00000000 0.37500000
0.81250000 0.00000000 0.38124999
0.84375000 0.00000000 0.38749981
0.87500000 0.00000000 0.39375004
0.90625000 0.00000000 0.39999980
0.93750000 0.00000000 0.40624982
0.96875000 0.00000000 0.41250008
1.00000000 0.00000000 0.41874981
0.00000000 0.04999995 0.25000000
0.00000000 0.01875007 0.25000000
0.01249999 0.00000000 0.25000000
0.04375005 0.00000000 0.25000000
0.07500002 0.00000000 0.25000000
0.10624999 0.00000000 0.25000000
0.13750005 0.00000000 0.25000000
0.16875002 0.00000000 0.25000000
0.19999999 0.00000000 0.25000000
0.25625008 0.00000000 0.28125000
0.31250003 0.00000000 0.31250000
0.34375000 0.00000000 0.31874999
0.37500000 0.00000000 0.32499996
0.40625000 0.00000000 0.33124995
0.43750000 0.00000000 0.33749995
0.46875000 0.00000000 0.34374994
0.50000000 0.00000000 0.34999990
0.53125000 0.00000000 0.35624996
0.56250000 0.00000000 0.36250001
0.59375000 0.00000000 0.36875007
0.62500000 0.00000000 0.37499994
0.65625000 0.00000000 0.38124993
0.68750000 0.00000000 0.38749996
0.71875000 0.00000000 0.39374989
0.75000000 0.00000000 0.39999980
0.78125000 0.00000000 0.40625000
0.81250000 0.00000000 0.41249993
0.84375000 0.00000000 0.41875011
0.87500000 0.00000000 0.42499992
0.90625000 0.00000000 0.43124986
0.93750000 0.00000000 0.43749991
0.96875000 0.00000000 0.44375002
1.00000000 0.00000000 0.45000005
0.00000000 0.05624995 0.28125000
0.00000000 0.02500007 0.28125000
0.00625002 0.00000000 0.28125000
0.03750000 0.00000000 0.28125000
0.06874998 0.00000000 0.28125000
0.10000006 0.00000000 0.28125000
0.13124993 0.00000000 0.28125000
0.16250002 0.00000000 0.28125000
0.19375001 0.00000000 0.28125000
0.22499999 0.00000000 0.28125000
0.28124994 0.00000000 0.31250000
0.33750004 0.00000000 0.34375000
0.37500000 0.00000000 0.35624999
0.40625000 0.00000000 0.36250001
0.43750000 0.00000000 0.36874998
0.46875000 0.00000000 0.37499988
0.50000000 0.00000000 0.38124996
0.53125000 0.00000000 0.38750005
0.56250000 0.00000000 0.39374989
0.59375000 0.00000000 0.39999995
0.62500000 0.00000000 0.40624991
0.65625000 0.00000000 0.41250005
0.68750000 0.00000000 0.41874993
0.71875000 0.00000000 0.42499989
0.75000000 0.00000000 0.43124995
0.78125000 0.00000000 0.43749994
0.81250000 0.00000000 0.44374985
0.84375000 0.00000000 0.44999978
0.87500000 0.00000000 0.45624980
0.90625000 0.00000000 0.46249992
0.93750000 0.00000000 0.46875000
0.96875000 0.00000000 0.47500002
1.00000000 0.00000000 0.48124993
0.00000000 0.06249994 0.31250000
0.00000000 0.03124997 0.31250000
0.00000000 0.00000000 0.31250000
0.03124997 0.00000000 0.31250000
0.06249994 0.00000000 0.31250000
0.09375002 0.00000000 0.31250000
0.12499999 0.00000000 0.31250000
0.15625007 0.00000000 0.31250000
0.18750004 0.00000000 0.31250000
0.21875001 0.00000000 0.31250000
0.24999999 0.00000000 0.31250000
0.30624995 0.00000000 0.34375000
0.36250001 0.00000000 0.37500000
0.40625000 0.00000000 0.39374995
0.43750000 0.00000000 0.40000004
0.46875000 0.00000000 0.40624994
0.50000000 0.00000000 0.41250002
0.53125000 0.00000000 0.41874993
0.56250000 0.00000000 0.42499998
0.59375000 0.00000000 0.43125004
0.62500000 0.00000000 0.43749988
0.65625000 0.00000000 0.44374993
0.68750000 0.00000000 0.44999990
0.71875000 0.00000000 0.45624986
0.75000000 0.00000000 0.46249983
0.78125000 0.00000000 0.46874994
0.81250000 0.00000000 0.47500008
0.84375000 0.00000000 0.48125005
0.87500000 0.00000000 0.48750001
0.90625000 0.00000000 0.49375001
0.93750000 0.00000000 0.49999976
0.96875000 0.00000000 0.50624996
1.00000000 0.00000000 0.51249981
0.00000000 0.06874993 0.34375000
0.00000000 0.03749996 0.34375000
0.00000000 0.00624999 0.34375000
0.02499998 0.00000000 0.34375000
0.05624995 0.00000000 0.34375000
0.08750004 0.00000000 0.34375000
0.11875001 0.00000000 0.34375000
0.14999998 0.00000000 0.34375000
0.18125007 0.00000000 0.34375000
0.21250004 0.00000000 0.34375000
0.24375001 0.00000000 0.34375000
0.27499998 0.00000000 0.34375000
0.33125001 0.00000000 0.37500000
0.38749999 0.00000000 0.40625000
0.43750000 0.00000000 0.43125007
0.46875000 0.00000000 0.43750003
0.50000000 0.00000000 0.44374990
0.53125000 0.00000000 0.45000005
0.56250000 0.00000000 0.45625007
0.59375000 0.00000000 0.46249992
0.62500000 0.00000000 0.46874985
0.65625000 0.00000000 0.47500005
0.68750000 0.00000000 0.48124987
0.71875000 0.00000000 0.48749986
0.75000000 0.00000000 0.49374998
0.78125000 0.00000000 0.49999988
0.81250000 0.00000000 0.50625002
0.84375000 0.00000000 0.51250005
0.87500000 0.00000000 0.51874989
0.90625000 0.00000000 0.52500010
0.93750000 0.00000000 0.53124982
0.96875000 0.00000000 0.53749996
1.00000000 0.00000000 0.54375005
0.00000000 0.07499993 0.37500000
0.00000000 0.04375005 0.37500000
0.00000000 0.01250017 0.37500000
0.01874998 0.00000000 0.37500000
0.05000000 0.00000000 0.37500000
0.08125001 0.00000000 0.37500000
0.11250003 0.00000000 0.37500000
0.14375004 0.00000000 0.37500000
0.17499992 0.00000000 0.37500000
0.20625007 0.00000000 0.37500000
0.23749995 0.00000000 0.37500000
0.26874995 0.00000000 0.37500000
0.29999998 0.00000000 0.37500000
0.35625005 0.00000000 0.40625000
0.41250005 0.00000000 0.43750000
0.46875006 0.00000000 0.46875000
0.50000000 0.00000000 0.47499996
0.53125000 0.00000000 0.48124993
0.56250000 0.00000000 0.48749995
0.59375000 0.00000000 0.49375001
0.62500000 0.00000000 0.50000006
0.65625000 0.00000000 0.50624990
0.68750000 0.00000000 0.51249981
0.71875000 0.00000000 0.51874983
0.75000000 0.00000000 0.52499986
0.78125000 0.00000000 0.53124988
0.81250000 0.00000000 0.53749990
0.84375000 0.00000000 0.54375005
0.87500000 0.00000000 0.55000007
0.90625000 0.00000000 0.55624980
0.93750000 0.00000000 0.56249988
0.96875000 0.00000000 0.56874990
1.00000000 0.00000000 0.57499993
0.00000000 0.08124992 0.40625000
0.00000000 0.05000000 0.40625000
0.00000000 0.01875007 0.40625000
0.01250000 0.00000000 0.40625000
0.04375007 0.00000000 0.40625000
0.07500000 0.00000000 0.40625000
0.10624992 0.00000000 0.40625000
0.13749999 0.00000000 0.40625000
0.16875006 0.00000000 0.40625000
0.19999999 0.00000000 0.40625000
0.23124991 0.00000000 0.40625000
0.26249999 0.00000000 0.40625000
0.29375005 0.00000000 0.40625000
0.32499999 0.00000000 0.40625000
0.38125002 0.00000000 0.43750000
0.43749997 0.00000000 0.46875000
0.49374998 0.00000000 0.50000000
0.53125000 0.00000000 0.51250005
0.56250000 0.00000000 0.51875001
0.59375000 0.00000000 0.52499992
0.62500000 0.00000000 0.53125000
0.65625000 0.00000000 0.53750002
0.68750000 0.00000000 0.54374981
0.71875000 0.00000000 0.54999983
0.75000000 0.00000000 0.55624998
0.78125000 0.00000000 0.56249982
0.81250000 0.00000000 0.56874985
0.84375000 0.00000000 0.57499999
0.87500000 0.00000000 0.58124995
0.90625000 0.00000000 0.58749986
0.93750000 0.00000000 0.59375000
0.96875000 0.00000000 0.59999990
1.00000000 0.00000000 0.60624981
0.00000000 0.08749992 0.43750000
0.00000000 0.05625004 0.43750000
0.00000000 0.02500015 0.43750000
0.00625004 0.00000000 0.43750000
0.03749992 0.00000000 0.43750000
0.06874996 0.00000000 0.43750000
0.09999999 0.00000000 0.43750000
0.13125002 0.00000000 0.43750000
0.16250007 0.00000000 0.43750000
0.19374995 0.00000000 0.43750000
0.22499999 0.00000000 0.43750000
0.25625002 0.00000000 0.43750000
0.28749990 0.00000000 0.43750000
0.31875008 0.00000000 0.43750000
0.34999996 0.00000000 0.43750000
0.40625006 0.00000000 0.46875000
0.46250010 0.00000000 0.50000000
0.51875007 0.00000000 0.53125000
0.56250000 0.00000000 0.55000007
0.59375000 0.00000000 0.55624998
0.62500000 0.00000000 0.56250000
0.65625000 0.00000000 0.56874990
0.68750000 0.00000000 0.57500005
0.71875000 0.00000000 0.58124983
0.75000000 0.00000000 0.58749986
0.78125000 0.00000000 0.59374982
0.81250000 0.00000000 0.59999979
0.84375000 0.00000000 0.60624999
0.87500000 0.00000000 0.61249983
0.90625000 0.00000000 0.61874998
0.93750000 0.00000000 0.62500006
0.96875000 0.00000000 0.63124985
1.00000000 0.00000000 0.63750005
0.00000000 0.09374991 0.46875000
0.00000000 0.06250016 0.46875000
0.00000000 0.03125008 0.46875000
0.00000000 0.00000000 0.46875000
0.03125008 0.00000000 0.46875000
0.06250000 0.00000000 0.46875000
0.09374991 0.00000000 0.46875000
0.12499999 0.00000000 0.46875000
0.15625007 0.00000000 0.46875000
0.18749999 0.00000000 0.46875000
0.21874991 0.00000000 0.46875000
0.24999999 0.00000000 0.46875000
0.28125006 0.00000000 0.46875000
0.31249997 0.00000000 0.46875000
0.34374988 0.00000000 0.46875000
0.37499997 0.00000000 0.46875000
0.43125004 0.00000000 0.50000000
0.48749998 0.00000000 0.53125000
0.54375005 0.00000000 0.56250000
0.59375000 0.00000000 0.58750010
0.62500000 0.00000000 0.59374994
0.65625000 0.00000000 0.60000002
0.68750000 0.00000000 0.60624999
0.71875000 0.00000000 0.61249983
0.75000000 0.00000000 0.61875004
0.78125000 0.00000000 0.62500006
0.81250000 0.00000000 0.63124996
0.84375000 0.00000000 0.63749999
0.87500000 0.00000000 0.64375001
0.90625000 0.00000000 0.65000004
0.93750000 0.00000000 0.65624982
0.96875000 0.00000000 0.66249985
1.00000000 0.00000000 0.66874993
0.00000000 0.09999990 0.50000000
0.00000000 0.06875002 0.50000000
0.00000000 0.03750014 0.50000000
0.00000000 0.00624990 0.50000000
0.02499998 0.00000000 0.50000000
0.05625004 0.00000000 0.50000000
0.08750010 0.00000000 0.50000000
0.11874998 0.00000000 0.50000000
0.15000004 0.00000000 0.50000000
0.18125010 0.00000000 0.50000000
0.21249998 0.00000000 0.50000000
0.24375004 0.00000000 0.50000000
0.27500010 0.00000000 0.50000000
0.30624998 0.00000000 0.50000000
0.33750004 0.00000000 0.50000000
0.36875010 0.00000000 0.50000000
0.39999998 0.00000000 0.50000000
0.45625007 0.00000000 0.53125000
0.51250017 0.00000000 0.56250000
0.56875002 0.00000000 0.59375000
0.62500006 0.00000000 0.62500000
0.65625000 0.00000000 0.63124990
0.68750000 0.00000000 0.63749999
0.71875000 0.00000000 0.64374983
0.75000000 0.00000000 0.64999992
0.78125000 0.00000000 0.65625000
0.81250000 0.00000000 0.66249990
0.84375000 0.00000000 0.66874993
0.87500000 0.00000000 0.67499989
0.90625000 0.00000000 0.68125010
0.93750000 0.00000000 0.68749988
0.96875000 0.00000000 0.69374979
1.00000000 0.00000000 0.69999981
0.00000000 0.10624990 0.53125000
0.00000000 0.07500000 0.53125000
0.00000000 0.04375009 0.53125000
0.00000000 0.01249981 0.53125000
0.01875009 0.00000000 0.53125000
0.05000000 0.00000000 0.53125000
0.08124990 0.00000000 0.53125000
0.11250000 0.00000000 0.53125000
0.14375009 0.00000000 0.53125000
0.17499998 0.00000000 0.53125000
0.20624989 0.00000000 0.53125000
0.23749998 0.00000000 0.53125000
0.26875007 0.00000000 0.53125000
0.29999998 0.00000000 0.53125000
0.33124989 0.00000000 0.53125000
0.36249998 0.00000000 0.53125000
0.39375007 0.00000000 0.53125000
0.42499998 0.00000000 0.53125000
0.48125005 0.00000000 0.56250000
0.53750014 0.00000000 0.59375000
0.59374988 0.00000000 0.62500000
0.64999998 0.00000000 0.65625000
0.68750000 0.00000000 0.66874993
0.71875000 0.00000000 0.67500007
0.75000000 0.00000000 0.68124980
0.78125000 0.00000000 0.68750000
0.81250000 0.00000000 0.69374985
0.84375000 0.00000000 0.69999993
0.87500000 0.00000000 0.70624977
0.90625000 0.00000000 0.71249986
0.93750000 0.00000000 0.71875000
0.96875000 0.00000000 0.72499979
1.00000000 0.00000000 0.73125005
0.00000000 0.11249989 0.56250000
0.00000000 0.08125001 0.56250000
0.00000000 0.05000013 0.56250000
0.00000000 0.01874985 0.56250000
0.01250003 0.00000000 0.56250000
0.04374991 0.00000000 0.56250000
0.07500000 0.00000000 0.56250000
0.10625008 0.00000000 0.56250000
0.13749996 0.00000000 0.56250000
0.16875005 0.00000000 0.56250000
0.20000012 0.00000000 0.56250000
0.23125000 0.00000000 0.56250000
0.26249987 0.00000000 0.56250000
0.29374996 0.00000000 0.56250000
0.32500005 0.00000000 0.56250000
0.35624993 0.00000000 0.56250000
0.38750002 0.00000000 0.56250000
0.41875011 0.00000000 0.56250000
0.44999999 0.00000000 0.56250000
0.50625008 0.00000000 0.59375000
0.56249988 0.00000000 0.62500000
0.61875010 0.00000000 0.65625000
0.67500007 0.00000000 0.68750000
0.71875000 0.00000000 0.70625007
0.75000000 0.00000000 0.71249998
0.78125000 0.00000000 0.71874994
0.81250000 0.00000000 0.72500002
0.84375000 0.00000000 0.73124993
0.87500000 0.00000000 0.73749995
0.90625000 0.00000000 0.74374992
0.93750000 0.00000000 0.74999976
0.96875000 0.00000000 0.75625008
1.00000000 0.00000000 0.76249993
0.00000000 0.11874989 0.59375000
0.00000000 0.08750001 0.59375000
0.00000000 0.05625013 0.59375000
0.00000000 0.02500024 0.59375000
0.00625006 0.00000000 0.59375000
0.03749994 0.00000000 0.59375000
0.06875004 0.00000000 0.59375000
0.10000013 0.00000000 0.59375000
0.13125001 0.00000000 0.59375000
0.16249989 0.00000000 0.59375000
0.19374998 0.00000000 0.59375000
0.22500008 0.00000000 0.59375000
0.25624996 0.00000000 0.59375000
0.28750005 0.00000000 0.59375000
0.31875014 0.00000000 0.59375000
0.35000002 0.00000000 0.59375000
0.38124990 0.00000000 0.59375000
0.41249999 0.00000000 0.59375000
0.44375008 0.00000000 0.59375000
0.47499996 0.00000000 0.59375000
0.53124994 0.00000000 0.62500000
0.58749998 0.00000000 0.65625000
0.64374989 0.00000000 0.68750000
0.69999993 0.00000000 0.71875000
0.75000000 0.00000000 0.74375010
0.78125000 0.00000000 0.74999994
0.81250000 0.00000000 0.75624996
0.84375000 0.00000000 0.76249987
0.87500000 0.00000000 0.76874983
0.90625000 0.00000000 0.77499998
0.93750000 0.00000000 0.78124982
0.96875000 0.00000000 0.78750008
1.00000000 0.00000000 0.79374981
0.00000000 0.12499988 0.62500000
0.00000000 0.09374991 0.62500000
0.00000000 0.06249994 0.62500000
0.00000000 0.03124997 0.62500000
0.00000000 0.00000000 0.62500000
0.03124997 0.00000000 0.62500000
0.06249994 0.00000000 0.62500000
0.09374991 0.00000000 0.62500000
0.12499988 0.00000000 0.62500000
0.15625007 0.00000000 0.62500000
0.18750004 0.00000000 0.62500000
0.21875001 0.00000000 0.62500000
0.24999999 0.00000000 0.62500000
0.28124994 0.00000000 0.62500000
0.31250015 0.00000000 0.62500000
0.34375012 0.00000000 0.62500000
0.37500009 0.00000000 0.62500000
0.40625006 0.00000000 0.62500000
0.43750003 0.00000000 0.62500000
0.46875000 0.00000000 0.62500000
0.49999997 0.00000000 0.62500000
0.55625010 0.00000000 0.65625000
0.61249989 0.00000000 0.68750000
0.66874993 0.00000000 0.71875000
0.72500002 0.00000000 0.75000000
0.78125012 0.00000000 0.78125000
0.81250000 0.00000000 0.78749990
0.84375000 0.00000000 0.79374987
0.87500000 0.00000000 0.80000007
0.90625000 0.00000000 0.80625004
0.93750000 0.00000000 0.81249988
0.96875000 0.00000000 0.81875002
1.00000000 0.00000000 0.82500005
0.00000000 0.13124987 0.65625000
0.00000000 0.09999999 0.65625000
0.00000000 0.06875011 0.65625000
0.00000000 0.03750023 0.65625000
0.00000000 0.00624988 0.65625000
0.02500000 0.00000000 0.65625000
0.05624988 0.00000000 0.65625000
0.08749999 0.00000000 0.65625000
0.11875011 0.00000000 0.65625000
0.14999999 0.00000000 0.65625000
0.18124987 0.00000000 0.65625000
0.21249999 0.00000000 0.65625000
0.24375010 0.00000000 0.65625000
0.27499998 0.00000000 0.65625000
0.30624986 0.00000000 0.65625000
0.33749998 0.00000000 0.65625000
0.36875010 0.00000000 0.65625000
0.39999998 0.00000000 0.65625000
0.43124986 0.00000000 0.65625000
0.46249998 0.00000000 0.65625000
0.49375010 0.00000000 0.65625000
0.52499998 0.00000000 0.65625000
0.58124995 0.00000000 0.68750000
0.63749993 0.00000000 0.71875000
0.69375014 0.00000000 0.75000000
0.74999982 0.00000000 0.78125000
0.80625015 0.00000000 0.81250000
0.84375000 0.00000000 0.82500017
0.87500000 0.00000000 0.83124995
0.90625000 0.00000000 0.83749980
0.93750000 0.00000000 0.84375000
0.96875000 0.00000000 0.85000002
