Disney_XD_Map/Disney XD Map.cube
# VEGAS Pro LUT
TITLE "Disney XD Map"
LUT_3D_SIZE 5
0.38823530 0.00392157 0.99215686
0.29756325 0.05764670 0.73990506
0.08017968 0.10711306 0.22830771
0.07855955 0.20554197 0.08633585
0.20343825 0.30574065 0.18430738
0.08858383 0.10589523 0.24730712
0.07458813 0.20208174 0.08401705
0.19903886 0.30166620 0.18048082
0.26970151 0.42186466 0.23799969
0.24682318 0.47446603 0.21474722
0.19456986 0.29763404 0.17660244
0.27003920 0.41980118 0.23844093
0.24807674 0.47264102 0.21593869
0.20581250 0.51973557 0.17702284
0.15278372 0.56261480 0.12995450
0.24930282 0.47080824 0.21710792
0.20761649 0.51808709 0.17864956
0.15481476 0.56109428 0.13173477
0.10043485 0.60135967 0.08462461
0.05401397 0.64041317 0.04558017
0.15684366 0.55957001 0.13351478
0.10235283 0.59990919 0.08626544
0.05547016 0.63898015 0.04677789
0.02573290 0.67831290 0.02331320
0.59546733 0.83066654 0.59621221
0.36831310 0.01629816 0.93608469
0.24007723 0.08589592 0.58656120
0.03129846 0.14428906 0.08024893
0.12447285 0.24185093 0.11844420
0.24335043 0.35082027 0.21892498
0.03207196 0.13799374 0.08970294
0.11977002 0.23828748 0.11483635
0.24005644 0.34621930 0.21611792
0.26393890 0.44268841 0.23156013
0.23232892 0.49294031 0.20119111
0.23662527 0.34167618 0.21317412
0.26466715 0.44072250 0.23232326
0.23383929 0.49119139 0.20258857
0.18634592 0.53649831 0.15959002
0.13172428 0.57817316 0.11158865
0.23532711 0.48943549 0.20396809
0.18827787 0.53490525 0.16131113
0.13374949 0.57668662 0.11334744
0.08127919 0.61630952 0.06833810
0.04040420 0.65530384 0.03454417
0.13577747 0.57519710 0.11511023
0.08306248 0.61487228 0.06984583
0.04159193 0.65386266 0.03549292
0.02090305 0.69369799 0.02031258
0.91084683 0.94561553 0.91084683
0.32905486 0.04002099 0.82634455
0.14033011 0.10198122 0.35975271
0.05499082 0.18319356 0.07459252
0.17398719 0.28014675 0.15891081
0.26782757 0.40227368 0.23797584
0.05182885 0.17971608 0.07352136
0.16925327 0.27631867 0.15489410
0.26633930 0.39698479 0.23706844
0.25441825 0.46254760 0.22203572
0.21546307 0.51067239 0.18575105
0.26464626 0.39176929 0.23593940
0.25548610 0.46067107 0.22307655
0.21717924 0.50899136 0.18731034
0.16584313 0.55273306 0.14142995
0.11101501 0.59342593 0.09369645
0.21887776 0.50730419 0.18885593
0.16785201 0.55118722 0.14320126
0.11298339 0.59196514 0.09538958
0.06380911 0.63116795 0.05368194
0.02986641 0.67032546 0.02633942
0.11495947 0.59050226 0.09709097
0.06540672 0.62973589 0.05501240
0.03073469 0.66886795 0.02699503
0.24446748 0.77544236 0.24720719
0.93108332 0.96289104 0.93108332
0.27664003 0.06856500 0.68337154
0.05239974 0.11491005 0.16078526
0.09499360 0.21911035 0.09688555
0.21984468 0.32210198 0.19861378
0.26747382 0.43185416 0.23536295
0.09066404 0.21563014 0.09397715
0.21577998 0.31784791 0.19506837
0.26800290 0.42983791 0.23596217
0.24166819 0.48152694 0.20988433
0.19675419 0.52774704 0.16888489
0.26849389 0.42781219 0.23653001
0.24302462 0.47973162 0.21115868
0.19862515 0.52612579 0.17056182
0.14483270 0.56852460 0.12300049
0.09118452 0.60845792 0.07673576
0.20048340 0.52449912 0.17222933
0.14686753 0.56701779 0.12477785
0.09304506 0.60701478 0.07831904
0.04855321 0.64601982 0.04111400
0.02292920 0.68556291 0.02142378
0.09491824 0.60557026 0.07991486
0.04991414 0.64458472 0.04222301
0.02342701 0.68408090 0.02174206
0.74917763 0.86438864 0.74917763
0.78184170 0.88253015 0.78184170
0.20520709 0.09557845 0.50235176
0.03738752 0.16056299 0.07183322
0.14311770 0.25597227 0.13321804
0.25478739 0.36938930 0.22843117
0.25986519 0.45221043 0.22740507
0.13832088 0.25232798 0.12935258
0.25209224 0.36454779 0.22623725
0.26076069 0.45028788 0.22830525
0.22621731 0.49971130 0.19556382
0.17673087 0.54424906 0.15105049
0.26162302 0.44835666 0.22917831
0.22781129 0.49798900 0.19702752
0.17870562 0.54267937 0.15280090
0.12384325 0.58395773 0.10475951
0.07276141 0.62335390 0.06116444
0.18067259 0.54110509 0.15454614
0.12585302 0.58248186 0.10649873
0.07446311 0.62192017 0.06259371
0.03604008 0.66094989 0.03109215
0.03484438 0.71325850 0.03580930
0.07618236 0.62048584 0.06403977
0.03711331 0.65950352 0.03193552
0.02019751 0.69958627 0.02019189
0.97707856 0.98589510 0.97707856
1.00000000 1.00000000 1.00000000
