Disney_XD_Map/Disney XD Map.cube
# VEGAS Pro LUT
TITLE "Disney XD Map"
LUT_3D_SIZE 9
0.38823530 0.00392157 0.99215686
0.35787147 0.02277485 0.90670753
0.29756325 0.05764670 0.73990506
0.21171989 0.09431281 0.51741976
0.08017968 0.10711306 0.22830771
0.03594824 0.15813939 0.07215670
0.07855955 0.20554197 0.08633585
0.13984586 0.25348496 0.13057703
0.20343825 0.30574065 0.18430738
0.30015093 0.05625060 0.74694866
0.21641253 0.09327795 0.52842611
0.08432595 0.10647317 0.23773028
0.03494871 0.15635695 0.07247476
0.07656080 0.20381159 0.08515559
0.13745010 0.25166786 0.12865533
0.20124766 0.30369806 0.18240109
0.25158456 0.36367440 0.22581999
0.26951766 0.42289272 0.23776667
0.08858383 0.10589523 0.24730712
0.03399742 0.15456994 0.07286239
0.07458813 0.20208174 0.08401705
0.13505827 0.24985641 0.12674749
0.19903886 0.30166620 0.18048082
0.25016099 0.36128339 0.22464414
0.26970151 0.42186466 0.23799969
0.26135227 0.44897208 0.22890349
0.24682318 0.47446603 0.21474722
0.07264238 0.20035227 0.08292125
0.13267118 0.24805042 0.12485455
0.19681264 0.29964492 0.17854759
0.24869785 0.35890806 0.22342750
0.26987538 0.42083412 0.23822446
0.26177624 0.44800457 0.22933410
0.24745336 0.47355449 0.21534571
0.22809890 0.49767512 0.19729190
0.20490502 0.52055770 0.17620532
0.19456986 0.29763404 0.17660244
0.24719597 0.35654819 0.22217110
0.27003920 0.41980118 0.23844093
0.26219177 0.44703487 0.22975782
0.24807674 0.47264102 0.21593869
0.22888626 0.49681085 0.19801615
0.20581250 0.51973557 0.17702284
0.18004760 0.54160649 0.15399142
0.15278372 0.56261480 0.12995450
0.27019292 0.41876575 0.23864906
0.26259881 0.44606298 0.23017459
0.24869324 0.47172561 0.21652611
0.22966836 0.49594489 0.19873624
0.20671634 0.51891208 0.17783761
0.18102933 0.54081833 0.15486287
0.15379949 0.56185502 0.13084464
0.12621894 0.58221322 0.10681556
0.09947986 0.60208428 0.08380827
0.24930282 0.47080824 0.21710792
0.23044516 0.49507722 0.19945212
0.20761649 0.51808709 0.17864956
0.18200898 0.54002899 0.15573290
0.15481476 0.56109428 0.13173477
0.12722600 0.58147407 0.10768779
0.10043485 0.60135967 0.08462461
0.07563345 0.62094229 0.06357786
0.05401397 0.64041317 0.04558017
0.20851289 0.51726067 0.17945866
0.18298647 0.53923851 0.15660147
0.15582950 0.56033260 0.13262483
0.12823413 0.58073425 0.10856136
0.10139252 0.60063463 0.08544369
0.07649679 0.62022501 0.06430446
0.05473914 0.63969666 0.04617629
0.03731168 0.65924072 0.03209183
0.02540659 0.67904848 0.02308371
0.15684366 0.55957001 0.13351478
0.12924330 0.57999372 0.10943621
0.10235283 0.59990919 0.08626544
0.07736439 0.61950755 0.06503513
0.05547016 0.63898015 0.04677789
0.03786228 0.65851820 0.03252637
0.02573290 0.67831290 0.02331320
0.02027418 0.69855553 0.02017101
0.59546733 0.83066654 0.59621221
0.38107744 0.00828377 0.97210646
0.33765283 0.03498026 0.85020339
0.26959753 0.07208446 0.66451919
0.16016646 0.10075260 0.40247986
0.04547846 0.11880968 0.14151889
0.04895016 0.17638895 0.07270759
0.10061245 0.22355263 0.10077512
0.16470875 0.27269498 0.15106085
0.22487010 0.32758829 0.20299192
0.27237603 0.07070565 0.67194605
0.16526005 0.10037743 0.41352144
0.04805627 0.11718386 0.14891091
0.04749862 0.17464273 0.07236511
0.09839129 0.22180556 0.09922290
0.16232018 0.27080828 0.14905575
0.22291632 0.32542318 0.20129079
0.26381078 0.38942248 0.23535512
0.26703924 0.43340573 0.23487869
0.05081816 0.11568052 0.15653321
0.04608689 0.17289388 0.07208158
0.09618779 0.22006097 0.09770178
0.15992710 0.26892915 0.14705390
0.22093588 0.32327074 0.19956507
0.26284519 0.38685799 0.23466241
0.26732299 0.43240240 0.23519413
0.25647694 0.45887211 0.22404687
0.23990554 0.48380125 0.20823328
0.09400273 0.21831869 0.09621277
0.15753032 0.26705745 0.14505632
0.21892957 0.32113084 0.19781579
0.26183155 0.38431111 0.23391828
0.26759738 0.43139675 0.23550187
0.25698468 0.45792678 0.22454597
0.24060281 0.48290917 0.20888576
0.21964388 0.50653523 0.18955384
0.19530003 0.52899617 0.16758287
0.21689825 0.31900328 0.19604395
0.26077074 0.38178164 0.23312375
0.26786235 0.43038875 0.23580185
0.25748464 0.45697933 0.22503871
0.24129388 0.48201531 0.20953326
0.22048220 0.50568789 0.19031814
0.19624178 0.52818823 0.16842595
0.16976474 0.54970771 0.14488935
0.14224327 0.57043749 0.12074099
0.26811785 0.42937836 0.23609400
0.25797674 0.45602980 0.22552502
0.24197870 0.48111957 0.21017575
0.22131591 0.50483888 0.19107880
0.19718049 0.52737904 0.16926681
0.17076463 0.54893118 0.14577241
0.14326045 0.56968665 0.12162825
0.11586011 0.58983654 0.09786695
0.08975578 0.60957223 0.07552114
0.24265720 0.48022199 0.21081316
0.22214490 0.50398833 0.19183579
0.19811612 0.52656847 0.17010540
0.17176303 0.54815358 0.14665459
0.14427777 0.56893492 0.12251604
0.11685249 0.58910376 0.09872235
0.09067935 0.60885131 0.07630618
0.06695051 0.62836879 0.05630014
0.04685812 0.64784741 0.03973688
0.19904861 0.52575660 0.17094164
0.17275989 0.54737490 0.14753585
0.14529516 0.56818247 0.12340429
0.11784656 0.58837038 0.09957962
0.09160624 0.60813004 0.07709447
0.06776635 0.62765259 0.05698147
0.04751905 0.64712930 0.04027326
0.03205650 0.66675138 0.02800246
0.02257084 0.68671006 0.02120171
0.14631259 0.56742907 0.12429296
0.11884227 0.58763647 0.10043871
0.09253637 0.60740846 0.07788598
0.06858705 0.62693638 0.05766741
0.04818646 0.64641136 0.04081564
0.03252676 0.66602468 0.02836330
0.02280009 0.68596762 0.02134301
0.15003051 0.75566143 0.15273416
0.78383821 0.87928742 0.78383821
0.36831310 0.01629816 0.93608469
0.31385368 0.04869860 0.78442764
0.24007723 0.08589592 0.58656120
0.10872412 0.10392059 0.29165003
0.03129846 0.14428906 0.08024893
0.06613909 0.19437778 0.07947890
0.12447285 0.24185093 0.11844420
0.18899961 0.29274100 0.17178385
0.24335043 0.35082027 0.21892498
0.24297208 0.08461309 0.59412491
0.11346778 0.10357767 0.30193919
0.03155695 0.14104989 0.08482280
0.06432309 0.19264761 0.07858592
0.12211683 0.24006699 0.11663003
0.18670578 0.29076451 0.16980538
0.24172100 0.34851247 0.21753906
0.27052709 0.41621375 0.23912418
0.26356161 0.44366801 0.23116778
0.03207196 0.13799374 0.08970294
0.06253844 0.19091676 0.07774126
0.11977002 0.23828748 0.11483635
0.18439899 0.28879759 0.16781953
0.24005644 0.34621930 0.21611792
0.27037340 0.41432494 0.23915863
0.26393890 0.44268841 0.23156013
0.25076932 0.46854818 0.21851194
0.23232892 0.49294031 0.20119111
0.11743321 0.23651221 0.11306417
0.18208008 0.28683999 0.16582735
0.23835760 0.34394062 0.21466260
0.26989684 0.41158634 0.23899703
0.26430744 0.44170660 0.23194531
0.25135452 0.46762401 0.21907400
0.23308690 0.49206671 0.20189206
0.21069679 0.51522595 0.18143216
0.18537630 0.53729302 0.15872690
0.23662527 0.34167618 0.21317412
0.26936466 0.40886715 0.23877443
0.26466715 0.44072250 0.23232326
0.25193250 0.46669781 0.21963021
0.23383929 0.49119139 0.20258857
0.21157973 0.51439446 0.18223096
0.18634592 0.53649831 0.15959002
0.15933006 0.55769414 0.13569836
0.13172428 0.57817316 0.11158865
0.26501805 0.43973616 0.23269393
0.25250325 0.46576962 0.22018056
0.23458605 0.49031433 0.20328060
0.21245863 0.51356149 0.18302669
0.18731312 0.53570241 0.16045144
0.16034171 0.55692822 0.13658752
0.13273650 0.57743025 0.11246752
0.10568968 0.59739965 0.08912411
0.08039340 0.61702776 0.06758990
0.23532711 0.48943549 0.20396809
0.21333346 0.51272702 0.18381926
0.18827787 0.53490525 0.16131113
0.16135250 0.55616134 0.13747631
0.13374949 0.57668662 0.11334744
0.10666100 0.59667224 0.08995716
0.08127919 0.61630952 0.06833810
0.05879620 0.63578963 0.04952289
0.04040420 0.65530384 0.03454417
0.18924007 0.53410679 0.16216901
0.16236237 0.55539346 0.13836470
0.13476317 0.57594222 0.11422836
0.10763463 0.59594434 0.09079261
0.08216891 0.61559099 0.06909009
0.05955815 0.63507354 0.05015343
0.04099452 0.65458310 0.03501528
0.02767017 0.67431092 0.02470825
0.02077724 0.69444835 0.02026499
0.13577747 0.57519710 0.11511023
0.10861050 0.59521592 0.09163041
0.08306248 0.61487228 0.06984583
0.06032558 0.63435745 0.05078913
0.04159193 0.65386266 0.03549292
0.02805371 0.67357910 0.02498987
0.02090305 0.69369799 0.02031258
0.42198935 0.80417830 0.42391640
0.91084683 0.94561553 0.91084683
0.35071477 0.02714911 0.88664591
0.28724647 0.06311426 0.71193445
0.19275568 0.09753931 0.47410113
0.06517465 0.11031917 0.19309278
0.04030303 0.16506691 0.07156140
0.08660780 0.21231496 0.09133042
0.14923352 0.26064596 0.13820285
0.21181123 0.31383210 0.19160579
0.25797200 0.37564573 0.23096637
0.19768776 0.09682698 0.48521328
0.06881751 0.10938109 0.20184197
0.03912272 0.16330050 0.07161739
0.08451487 0.21058065 0.08999694
0.14683017 0.25880495 0.13623676
0.20969969 0.31174567 0.18976396
0.25675446 0.37317505 0.23000567
0.26870438 0.42688826 0.23677763
0.25915083 0.45369014 0.22669117
0.03798747 0.16153026 0.07173893
0.08244485 0.20884763 0.08870117
0.14442760 0.25697035 0.13428053
0.20756674 0.30967072 0.18790415
0.25549334 0.37072095 0.22899912
0.26892665 0.42586967 0.23704240
0.25961530 0.45273328 0.22715491
0.24429549 0.47801092 0.21235590
0.22415940 0.50189382 0.19367796
0.14202657 0.25514194 0.13233520
0.20541319 0.30760705 0.18602739
0.25418949 0.36828327 0.22794779
0.26913920 0.42484865 0.23729911
0.26007161 0.45177424 0.22761202
0.24495173 0.47710684 0.21297538
0.22497171 0.50103766 0.19442186
0.20132372 0.52375793 0.17298406
0.17519990 0.54545891 0.14969464
0.25284368 0.36586183 0.22685267
0.26934192 0.42382520 0.23754773
0.26051971 0.45081308 0.22806242
0.24560139 0.47620088 0.21358958
0.22577906 0.50017989 0.19516185
0.20224488 0.52294129 0.17381187
0.17619102 0.54467636 0.15057227
0.14880961 0.56557637 0.12647568
0.12129284 0.58583248 0.10255472
0.26095960 0.44984972 0.22850606
0.24624442 0.47529301 0.21419843
0.22658136 0.49932045 0.19589789
0.20316263 0.52212328 0.17463712
0.17718033 0.54389274 0.15144874
0.14982666 0.56482005 0.12736538
0.12229373 0.58509642 0.10341968
0.09577372 0.60491318 0.08064426
0.07145878 0.62446147 0.06007176
0.22737861 0.49845937 0.19662994
0.20407690 0.52130389 0.17545977
0.17816781 0.54310793 0.15232401
0.15084346 0.56406283 0.12825528
0.12329600 0.58435982 0.10428621
0.09671760 0.60419005 0.08144944
0.07230041 0.62374485 0.06077761
0.05123658 0.64321542 0.04330334
0.03471827 0.66279298 0.03005927
0.17915337 0.54232198 0.15319802
0.15185995 0.56330478 0.12914531
0.12429959 0.58362252 0.10515428
0.09766442 0.60346657 0.08225755
0.07314659 0.62302810 0.06148778
0.05193827 0.64249837 0.04387758
0.03523161 0.66206861 0.03045959
0.02421875 0.68193007 0.02226644
0.05258001 0.72353965 0.05415399
0.12530442 0.58288461 0.10602383
0.09861409 0.60274267 0.08306855
0.07399724 0.62231123 0.06220223
0.05264605 0.64178145 0.04445749
0.03575265 0.66134465 0.03086697
0.02450920 0.68119198 0.02246331
0.04052837 0.71695328 0.04172462
0.68352270 0.84690058 0.68372065
0.99044478 0.99426991 0.99044478
0.32905486 0.04002099 0.82634455
0.25860363 0.07741159 0.63527834
0.14033011 0.10198122 0.35975271
0.03729985 0.12645079 0.11497072
0.05499082 0.18319356 0.07459252
0.10944904 0.23040956 0.10712188
0.17398719 0.28014675 0.15891081
0.23223636 0.33617735 0.20938642
0.26782757 0.40227368 0.23797584
0.14537992 0.10169192 0.37060302
0.03909103 0.12429012 0.12139228
0.05339153 0.18145576 0.07402947
0.10716673 0.22865094 0.10545794
0.17162408 0.27822852 0.15690283
0.23039463 0.33396077 0.20779127
0.26710945 0.39961997 0.23755036
0.26584131 0.43730545 0.23357253
0.25387302 0.46348277 0.22150612
0.05182885 0.17971608 0.07352136
0.10489888 0.22689556 0.10382108
0.16925327 0.27631867 0.15489410
0.22852306 0.33175763 0.20616752
0.26633930 0.39698479 0.23706844
0.26616108 0.43631122 0.23391764
0.25441825 0.46254760 0.22203572
0.23712154 0.48727089 0.20563598
0.21546307 0.51067239 0.18575105
0.16687557 0.27441692 0.15288563
0.22662245 0.32956776 0.20451619
0.26551798 0.39436796 0.23653112
0.26647174 0.43531466 0.23425522
0.25495598 0.46161035 0.22255923
0.23784246 0.48638594 0.20630740
0.21632333 0.50983262 0.18653238
0.19159076 0.53214175 0.16426681
0.16483688 0.55350441 0.14054331
0.26464626 0.39176929 0.23593940
0.26677319 0.43431580 0.23458526
0.25548610 0.46067107 0.22307655
0.23855740 0.48549917 0.20697403
0.21717924 0.50899136 0.18731034
0.19254376 0.53133893 0.16511810
0.16584313 0.55273306 0.14142995
0.13826950 0.57336497 0.11727852
0.11101501 0.59342593 0.09369645
0.25600860 0.45972970 0.22358766
0.23926634 0.48461059 0.20763585
0.21803074 0.50814855 0.18808487
0.19349396 0.53053486 0.16596736
0.16684820 0.55196065 0.14231594
0.13928555 0.57261723 0.11816327
0.11199821 0.59269583 0.09454195
0.08617830 0.61238766 0.07248465
0.06301800 0.63188398 0.05302398
0.21887776 0.50730419 0.18885593
0.19444133 0.52972949 0.16681455
0.16785201 0.55118722 0.14320126
0.14030199 0.57186872 0.11904874
0.11298339 0.59196514 0.09538958
0.08708838 0.61166781 0.07325643
0.06380911 0.63116795 0.05368194
0.04433774 0.65065676 0.03769872
0.02986641 0.67032546 0.02633942
0.16885453 0.55041271 0.14408585
0.14131872 0.57111937 0.11993487
0.11397050 0.59123397 0.09623927
0.08800200 0.61094773 0.07403169
0.06460537 0.63045192 0.05434476
0.04497278 0.64993775 0.03821113
0.03029639 0.66959643 0.02666342
0.02176833 0.68961930 0.02073427
0.27080145 0.78016400 0.27347270
0.11495947 0.59050226 0.09709097
0.08891909 0.61022735 0.07481035
0.06540672 0.62973589 0.05501240
0.04561454 0.64921898 0.03872975
0.03073469 0.66886795 0.02699503
0.02195932 0.68887401 0.02084087
0.24446748 0.77544236 0.24720719
0.83521241 0.90410906 0.83521241
0.93108332 0.96289104 0.93108332
0.30410579 0.05409817 0.75773501
0.22350807 0.09148606 0.54534471
0.09095087 0.10560400 0.25259325
0.03349916 0.15359323 0.07310349
0.07352342 0.20113836 0.08341398
0.13375558 0.24887066 0.12571307
0.19782667 0.30056238 0.17942788
0.24936776 0.35998583 0.22398552
0.26979759 0.42130286 0.23812331
0.09536751 0.10511030 0.26239407
0.03262404 0.15179880 0.07360063
0.07159269 0.19940899 0.08234192
0.13137142 0.24706757 0.12382867
0.19559132 0.29854679 0.17748801
0.24788339 0.35761896 0.22274706
0.26996598 0.42027101 0.23834357
0.26200393 0.44747591 0.22956608
0.24779423 0.47305647 0.21566983
0.06969012 0.19767968 0.08131418
0.12899329 0.24526964 0.12196076
0.19333981 0.29654148 0.17553678
0.24636073 0.35526747 0.22146937
0.27012432 0.41923669 0.23855549
0.26241484 0.44650501 0.22998601
0.24841386 0.47214195 0.21625979
0.22931352 0.49633873 0.19840944
0.20630597 0.51928657 0.17746761
0.19107299 0.29454625 0.17357522
0.24480060 0.35293117 0.22015351
0.27027252 0.41819993 0.23875904
0.26281723 0.44553190 0.23039897
0.24902661 0.47122547 0.21684416
0.23009273 0.49547184 0.19912724
0.20720780 0.51846224 0.17828085
0.18156394 0.54038793 0.15533762
0.15435334 0.56144017 0.13133018
0.27041054 0.41716069 0.23895416
0.26321107 0.44455659 0.23080489
0.24963237 0.47030702 0.21742290
0.23086661 0.49460325 0.19984080
0.20810591 0.51763648 0.17909124
0.18254243 0.53959799 0.15620686
0.15536833 0.56067890 0.13222027
0.12777576 0.58107060 0.10816412
0.10095688 0.60096425 0.08507105
0.25023115 0.46938664 0.21799596
0.23163506 0.49373296 0.20055008
0.20900021 0.51680928 0.17989875
0.18351872 0.53880680 0.15707462
0.15638275 0.55991673 0.13311027
0.12878446 0.58033037 0.10903839
0.10191600 0.60023898 0.08589159
0.07696951 0.61983371 0.06470250
0.05513715 0.63930583 0.04650376
0.20989068 0.51598060 0.18070333
0.18449278 0.53801441 0.15794082
0.15739657 0.55915362 0.13400014
0.12979415 0.57958955 0.10991392
0.10287771 0.59951329 0.08671478
0.07783940 0.61911619 0.06543537
0.05587135 0.63858944 0.04710833
0.03816573 0.65812427 0.03276627
0.02591470 0.67791194 0.02344184
0.15840968 0.55838954 0.13488980
0.13080478 0.57884794 0.11079063
0.10384198 0.59878713 0.08754057
0.07871344 0.61839849 0.06617224
0.05661132 0.63787311 0.04771828
0.03872777 0.65740228 0.03321132
0.02625494 0.67717725 0.02368401
0.02038498 0.69738925 0.02016896
0.55620193 0.82436639 0.55721945
0.10480872 0.59806061 0.08836891
0.07959158 0.61768055 0.06691305
0.05735700 0.63715684 0.04833358
0.03929712 0.65668064 0.03366312
0.02660412 0.67644316 0.02393431
0.02047012 0.69663572 0.02017978
0.52981311 0.82029444 0.53101557
0.94822282 0.96797240 0.94822282
0.77704656 0.87994814 0.77704656
0.27664003 0.06856500 0.68337154
0.17311774 0.09972413 0.43064392
0.05239974 0.11491005 0.16078526
0.04533391 0.17193881 0.07195213
0.09499360 0.21911035 0.09688555
0.15862016 0.26790732 0.14596371
0.21984468 0.32210198 0.19861378
0.26229820 0.38546661 0.23426282
0.26747382 0.43185416 0.23536295
0.05543235 0.11358452 0.16874899
0.04398528 0.17018555 0.07176170
0.09281896 0.21736924 0.09541450
0.15622172 0.26603958 0.14396891
0.21782462 0.31996882 0.19685206
0.26125872 0.38292927 0.23349108
0.26774308 0.43084723 0.23566645
0.25725836 0.45741025 0.22481553
0.24098052 0.48242185 0.20923956
0.09066404 0.21563014 0.09397715
0.15382084 0.26417896 0.14197996
0.21577998 0.31784791 0.19506837
0.26017252 0.38040924 0.23266950
0.26800290 0.42983791 0.23596217
0.25775403 0.45646167 0.22530477
0.24166819 0.48152694 0.20988433
0.22093754 0.50522500 0.19073349
0.19675419 0.52774704 0.16888489
0.21371156 0.31573901 0.19326371
0.25904039 0.37790635 0.23179913
0.26825318 0.42882624 0.23625004
0.25824180 0.45551097 0.22578757
0.24234958 0.48063022 0.21052407
0.22176868 0.50437516 0.19149216
0.19769122 0.52693707 0.16972451
0.17130940 0.54850715 0.14625372
0.14381534 0.56927675 0.12211244
0.26849389 0.42781219 0.23653001
0.25872162 0.45455819 0.22626385
0.24302462 0.47973162 0.21115868
0.22259508 0.50352377 0.19224712
0.19862515 0.52612579 0.17056182
0.17230697 0.54772902 0.14713539
0.14483270 0.56852460 0.12300049
0.11739451 0.58870381 0.09918973
0.09118452 0.60845792 0.07673576
0.24369325 0.47883114 0.21178816
0.22341670 0.50267071 0.19299833
0.19955589 0.52531314 0.17139678
0.17330298 0.54694968 0.14801611
0.14585012 0.56777161 0.12388897
0.11838947 0.58797014 0.10004799
0.09211318 0.60773653 0.07752581
0.06821341 0.62726194 0.05735505
0.04788230 0.64673764 0.04056836
0.20048340 0.52449912 0.17222933
0.17429736 0.54616934 0.14889582
0.14686753 0.56701779 0.12477785
0.11938605 0.58723587 0.10090804
0.09304506 0.60701478 0.07831904
0.06903674 0.62654567 0.05804349
0.04855321 0.64601982 0.04111400
0.03278665 0.66562849 0.02856322
0.02292920 0.68556291 0.02142378
0.14788488 0.56626314 0.12566705
0.12038416 0.58650100 0.10176983
0.09398010 0.60629267 0.07911541
0.06986483 0.62582928 0.05873645
0.04923051 0.64530218 0.04166557
0.03326929 0.66490251 0.02893540
0.02317333 0.68482155 0.02157858
0.11763225 0.74715710 0.12016035
0.76286614 0.87007767 0.76286614
0.09491824 0.60557026 0.07991486
0.07069764 0.62511289 0.05943388
0.04991414 0.64458472 0.04222301
0.03375988 0.66417694 0.02931485
0.02342701 0.68408090 0.02174206
0.09852226 0.74141681 0.10087967
0.74917763 0.86438864 0.74917763
0.99707633 0.99842572 0.99707633
0.78184170 0.88253015 0.78184170
0.24743000 0.08260584 0.60580868
0.12092718 0.10309331 0.31804839
0.03245850 0.13640179 0.09249129
0.06157850 0.18997231 0.07730126
0.11849410 0.23731863 0.11386698
0.18313558 0.28772864 0.16673361
0.23913400 0.34497461 0.21532829
0.27012041 0.41282874 0.23907812
0.26414099 0.44215316 0.23177113
0.03335622 0.13361701 0.09783032
0.05984391 0.18824005 0.07653330
0.11616310 0.23554562 0.11210696
0.18081038 0.28577608 0.16473840
0.23741679 0.34270370 0.21385475
0.26961339 0.41010076 0.23888311
0.26450476 0.44117010 0.23215236
0.25167066 0.46711904 0.21937811
0.23349799 0.49158949 0.20227253
0.11384337 0.23377655 0.11037003
0.17847428 0.28383258 0.16273844
0.23566654 0.34044698 0.21234861
0.26905119 0.40739202 0.23862766
0.26485965 0.44018477 0.23252635
0.25224471 0.46619177 0.21993114
0.23424733 0.49071321 0.20296660
0.21205963 0.51394033 0.18266538
0.18687379 0.53606433 0.16006011
0.23388407 0.33820423 0.21081088
0.26843461 0.40470240 0.23831278
0.26520565 0.43919718 0.23289301
0.25281146 0.46526250 0.22047824
0.23499097 0.48983520 0.20365617
0.21293633 0.51310652 0.18345940
0.18783966 0.53526771 0.16092059
0.16089316 0.55651003 0.13707235
0.13328895 0.57702470 0.11294735
0.26554272 0.43820733 0.23325232
0.25337088 0.46433118 0.22101939
0.23572890 0.48895541 0.20434114
0.21380889 0.51227123 0.18425024
0.18880303 0.53446990 0.16177930
0.16190346 0.55574262 0.13796094
0.13430232 0.57628065 0.11382782
0.10719179 0.59627527 0.09041256
0.08176401 0.61591762 0.06874781
0.23646103 0.48807386 0.20502152
0.21467729 0.51143444 0.18503787
0.18976383 0.53367078 0.16263618
0.16291280 0.55497420 0.13884911
0.13531636 0.57553589 0.11470927
0.10816665 0.59554708 0.09124931
0.08265584 0.61519903 0.06950185
0.05997607 0.63468295 0.05049954
0.04131951 0.65419006 0.03527500
0.19072200 0.53287041 0.16349119
0.16392113 0.55420476 0.13973679
0.13633099 0.57479036 0.11559163
0.10914373 0.59481841 0.09208836
0.08355150 0.61448020 0.07025961
0.06074646 0.63396692 0.05113801
0.04192076 0.65346980 0.03575620
0.02826656 0.67318010 0.02514680
0.02097600 0.69328910 0.02034246
0.13734618 0.57404405 0.11647487
0.11012297 0.59408927 0.09292968
0.08445094 0.61376113 0.07102104
0.06152224 0.63325089 0.05178154
0.04252902 0.65274978 0.03624385
0.02866344 0.67244911 0.02544058
0.02111764 0.69253999 0.02040438
0.37851232 0.79761696 0.38069868
0.89411110 0.93597651 0.89411110
0.08535409 0.61304182 0.07178607
0.06230334 0.63253486 0.05243009
0.04314421 0.65203005 0.03673791
0.02906887 0.67171860 0.02574217
0.02126945 0.69179171 0.02047551
0.35048652 0.79328305 0.35282400
0.88277185 0.92958581 0.88277185
0.87015820 0.93008518 0.87015820
0.91143209 0.95230961 0.91143209
0.20520709 0.09557845 0.50235176
0.07471818 0.10809601 0.21572061
0.03738752 0.16056299 0.07183322
0.08132569 0.20790280 0.08801065
0.14311770 0.25597227 0.13321804
0.20639457 0.30854368 0.18688250
0.25478739 0.36938930 0.22843117
0.26904380 0.42531303 0.23718342
0.25986519 0.45221043 0.22740507
0.03632351 0.15878646 0.07205809
0.07929268 0.20617138 0.08677517
0.14071788 0.25414717 0.13127907
0.20423014 0.30648613 0.18499692
0.25346056 0.36696050 0.22735582
0.26925099 0.42429072 0.23743573
0.26031706 0.45125026 0.22785853
0.24530691 0.47661293 0.21331106
0.22541270 0.50057000 0.19482598
0.13832088 0.25232798 0.12935258
0.20204639 0.30443957 0.18309596
0.25209224 0.36454779 0.22623725
0.26944834 0.42326596 0.23767990
0.26076069 0.45028788 0.22830525
0.24595295 0.47570592 0.21392234
0.22621731 0.49971130 0.19556382
0.20274590 0.52249527 0.17426233
0.17673087 0.54424906 0.15105049
0.25068325 0.36215103 0.22507650
0.26963580 0.42223877 0.23791590
0.26119605 0.44932336 0.22874519
0.24659233 0.47479701 0.21452825
0.22701687 0.49885097 0.19629769
0.20366175 0.52167648 0.17508617
0.17771919 0.54346478 0.15192631
0.15038131 0.56440711 0.12785076
0.12284026 0.58469474 0.10389214
0.26162302 0.44835666 0.22917831
0.24722499 0.47388619 0.21512870
0.22781129 0.49798900 0.19702752
0.20457412 0.52085632 0.17590737
0.17870562 0.54267937 0.15280090
0.15139794 0.56364948 0.12874073
0.12384325 0.58395773 0.10475951
0.09723369 0.60379547 0.08188988
0.07276141 0.62335390 0.06116444
0.22860055 0.49712533 0.19775327
0.20548293 0.52003473 0.17672588
0.17969011 0.54189283 0.15367419
0.15241426 0.56289089 0.12963082
0.12484752 0.58322012 0.10562839
0.09818207 0.60307175 0.08269956
0.07361003 0.62263709 0.06187695
0.05232358 0.64210731 0.04419319
0.03551486 0.66167367 0.03068092
0.18067259 0.54110509 0.15454614
0.15343016 0.56213140 0.13052095
0.12585302 0.58248186 0.10649873
0.09913328 0.60234767 0.08351211
0.07446311 0.62192017 0.06259371
0.05303466 0.64139050 0.04477618
0.03604008 0.66094989 0.03109215
0.02467154 0.68078965 0.02257425
0.03484438 0.71325850 0.03580930
0.12685966 0.58174294 0.10737047
0.10008726 0.60162324 0.08432744
0.07532057 0.62120306 0.06331466
0.05375174 0.64067376 0.04536476
0.03657292 0.66022652 0.03151036
0.02497627 0.68005258 0.02278411
0.02614158 0.70628989 0.02663398
0.65095490 0.84040445 0.65133733
0.98287731 0.98953587 0.98287731
0.07618236 0.62048584 0.06403977
0.05447476 0.63995719 0.04595888
0.03711331 0.65950352 0.03193552
0.02529018 0.67931616 0.02300231
0.02019751 0.69958627 0.02019189
0.62824076 0.83626199 0.62876648
0.97707856 0.98589510 0.97707856
0.74682176 0.86367327 0.74682176
1.00000000 1.00000000 1.00000000
