Disney_XD_Map/Disney XD Map.cube
# VEGAS Pro LUT
TITLE "Disney XD Map"
LUT_3D_SIZE 33
0.38823530 0.00392157 0.99215686
0.38421381 0.00632836 0.98094177
0.37766749 0.01042613 0.96248180
0.36881411 0.01598494 0.93749702
0.35787147 0.02277485 0.90670753
0.34505731 0.03056592 0.87083346
0.33058935 0.03912821 0.83059496
0.31468543 0.04823178 0.78671211
0.29756325 0.05764670 0.73990506
0.27944061 0.06714301 0.69089395
0.26053527 0.07649077 0.64039886
0.24106497 0.08546006 0.58913988
0.21171989 0.09431281 0.51741976
0.17829728 0.09923360 0.44200242
0.14377050 0.10178515 0.36714384
0.11033337 0.10380059 0.29514521
0.08017968 0.10711306 0.22830771
0.05550323 0.11355567 0.16893247
0.03849785 0.12496156 0.11932062
0.03135733 0.14316387 0.08177334
0.03594824 0.15813939 0.07215670
0.04395511 0.17014568 0.07175809
0.05389646 0.18200889 0.07420271
0.06551653 0.19378802 0.07916911
0.07855955 0.20554197 0.08633585
0.09276976 0.21732970 0.09538145
0.10789139 0.22921015 0.10598449
0.12366869 0.24124226 0.11782350
0.13984586 0.25348496 0.13057703
0.15616718 0.26599723 0.14392364
0.17237686 0.27883795 0.15754187
0.18821913 0.29206613 0.17111026
0.20343825 0.30574065 0.18430738
0.37795052 0.01024808 0.96328092
0.36917818 0.01575722 0.93852341
0.35830852 0.02250591 0.90793473
0.34555936 0.03026422 0.87223500
0.33114842 0.03880222 0.83214426
0.31529346 0.04788995 0.78838277
0.29821223 0.05729748 0.74167055
0.28012255 0.06679486 0.69272774
0.26124212 0.07615218 0.64227444
0.24178874 0.08513946 0.59103084
0.21290001 0.09406286 0.52017522
0.17955987 0.09910578 0.44478115
0.14503485 0.10171201 0.36986125
0.11151876 0.10371470 0.29771665
0.08120540 0.10694696 0.23064849
0.05628858 0.11324193 0.17095794
0.03896211 0.12443276 0.12094614
0.03141980 0.14235255 0.08291424
0.03569388 0.15769421 0.07222975
0.04362470 0.16970687 0.07172041
0.05349942 0.18157431 0.07406612
0.06506225 0.19335547 0.07894545
0.07805746 0.20510931 0.08603693
0.09222926 0.21689476 0.09501911
0.10732190 0.22877075 0.10557054
0.12307960 0.24079624 0.11736978
0.13924660 0.25303015 0.13009536
0.15556714 0.26553145 0.14342584
0.17178546 0.27835906 0.15703978
0.18764578 0.29157192 0.17061570
0.20289235 0.30522898 0.18383217
0.21726941 0.31938919 0.19636774
0.23052116 0.33411148 0.20790094
0.35874304 0.02223833 0.90915501
0.34605917 0.02996358 0.87363058
0.33170548 0.03847696 0.83368862
0.31589979 0.04754854 0.79004943
0.29885983 0.05694838 0.74343300
0.28080338 0.06644654 0.69455951
0.26194820 0.07581307 0.64414901
0.24251205 0.08481804 0.59292173
0.21407558 0.09380712 0.52292812
0.18082085 0.09897465 0.44756052
0.14630055 0.10163805 0.37258241
0.11270847 0.10363045 0.30029494
0.08223842 0.10678501 0.23299927
0.05708420 0.11293483 0.17299652
0.03943962 0.12391306 0.12258787
0.03149849 0.14155282 0.08407447
0.03544250 0.15724874 0.07230710
0.04329693 0.16926786 0.07168660
0.05310466 0.18113960 0.07393297
0.06460992 0.19292291 0.07872478
0.07755696 0.20467670 0.08574057
0.09169001 0.21645993 0.09465889
0.10675330 0.22833155 0.10515828
0.12249106 0.24035050 0.11691731
0.13864754 0.25257570 0.12961450
0.15496697 0.26506612 0.14292844
0.17119357 0.27788067 0.15653764
0.18707161 0.29107833 0.17012066
0.20234528 0.30471799 0.18335605
0.21675885 0.31885865 0.19592236
0.23005654 0.33355922 0.20749813
0.24198259 0.34887865 0.21776193
0.25228125 0.36487585 0.22639230
0.33226061 0.03815246 0.83522803
0.31650448 0.04720758 0.79171205
0.29950607 0.05659942 0.74519235
0.28148317 0.06609803 0.69638914
0.26265350 0.07547348 0.64602250
0.24323486 0.08449584 0.59481245
0.21524645 0.09354552 0.52567852
0.18208013 0.09884013 0.45034045
0.14756753 0.10156318 0.37530723
0.11390242 0.10354779 0.30287999
0.08327864 0.10662711 0.23535989
0.05788998 0.11263426 0.17504808
0.03993026 0.12340237 0.12424570
0.03159327 0.14076458 0.08525391
0.03519410 0.15680298 0.07238877
0.04297179 0.16882865 0.07165666
0.05271219 0.18070477 0.07380326
0.06415954 0.19249028 0.07850712
0.07705807 0.20424412 0.08544678
0.09115202 0.21602523 0.09430081
0.10618562 0.22789256 0.10474773
0.12190310 0.23990503 0.11646611
0.13804871 0.25212160 0.12913449
0.15436666 0.26460120 0.14243142
0.17060122 0.27740282 0.15603545
0.18649660 0.29058531 0.16962513
0.20179705 0.30420768 0.18287902
0.21624680 0.31832886 0.19547564
0.22959007 0.33300778 0.20709355
0.24157111 0.34830341 0.21741131
0.25193417 0.36427465 0.22610746
0.26042345 0.38098046 0.23286055
0.26678321 0.39847976 0.23734912
0.30015093 0.05625060 0.74694866
0.28216183 0.06574936 0.69821668
0.26335800 0.07513341 0.64789480
0.24395718 0.08417283 0.59670305
0.21641253 0.09327795 0.52842611
0.18333758 0.09870213 0.45312077
0.14883563 0.10148731 0.37803558
0.11510048 0.10346661 0.30547169
0.08432595 0.10647317 0.23773028
0.05870582 0.11234013 0.17711250
0.04043392 0.12290061 0.12591952
0.03170405 0.13998775 0.08645245
0.03494871 0.15635695 0.07247476
0.04264932 0.16838925 0.07163062
0.05232204 0.18026982 0.07367701
0.06371112 0.19205762 0.07829248
0.07656080 0.20381159 0.08515559
0.09061529 0.21559064 0.09394488
0.10561886 0.22745375 0.10433890
0.12131571 0.23945984 0.11601620
0.13745010 0.25166786 0.12865533
0.15376624 0.26413676 0.14193483
0.17000841 0.27692544 0.15553325
0.18592079 0.29009292 0.16912916
0.20124766 0.30369806 0.18240109
0.21573323 0.31779984 0.19502759
0.22912174 0.33245718 0.20668720
0.24115744 0.34772909 0.21705849
0.25158456 0.36367440 0.22581999
0.26014730 0.38035217 0.23265027
0.26658994 0.39782125 0.23722784
0.27056864 0.41585812 0.23918612
0.26951766 0.42289272 0.23776667
0.26406169 0.07479288 0.64976591
0.24467897 0.08384905 0.59859341
0.21757372 0.09300434 0.53117096
0.18459311 0.09856056 0.45590138
0.15010478 0.10141034 0.38076732
0.11630255 0.10338681 0.30806991
0.08538023 0.10632311 0.24011032
0.05953161 0.11205235 0.17918970
0.04095050 0.12240768 0.12760919
0.03183072 0.13922223 0.08766997
0.03470633 0.15591064 0.07256511
0.04232951 0.16794965 0.07160849
0.05193421 0.17983475 0.07355424
0.06326468 0.19162492 0.07808089
0.07606515 0.20337908 0.08486701
0.09007986 0.21515618 0.09359113
0.10505304 0.22701515 0.10393181
0.12072892 0.23901494 0.11556759
0.13685174 0.25121447 0.12817703
0.15316573 0.26367274 0.14143866
0.16941515 0.27644861 0.15503106
0.18534420 0.28960109 0.16863275
0.20069714 0.30318910 0.18192229
0.21521819 0.31727156 0.19457823
0.22865160 0.33190745 0.20627911
0.24074160 0.34715566 0.21670349
0.25123242 0.36307520 0.22552991
0.25986829 0.37972495 0.23243693
0.26639345 0.39716387 0.23710307
0.27055216 0.41545090 0.23920693
0.26956454 0.42263591 0.23782569
0.26807210 0.42956224 0.23604146
0.26613957 0.43637908 0.23389435
0.21872988 0.09272458 0.53391290
0.18584658 0.09841533 0.45868218
0.15137486 0.10133220 0.38350236
0.11750852 0.10330832 0.31067455
0.08644138 0.10617682 0.24249987
0.06036723 0.11177084 0.18127953
0.04147989 0.12192350 0.12931465
0.03197316 0.13846794 0.08890637
0.03446698 0.15546402 0.07265981
0.04201238 0.16750982 0.07159029
0.05154872 0.17939955 0.07343496
0.06282023 0.19119217 0.07787236
0.07557116 0.20294660 0.08458105
0.08954572 0.21472181 0.09323957
0.10448816 0.22657673 0.10352647
0.12014273 0.23857029 0.11512030
0.13625364 0.25076145 0.12769961
0.15256514 0.26320913 0.14094295
0.16882145 0.27597228 0.15452887
0.18476683 0.28910986 0.16813591
0.20014548 0.30268079 0.18144263
0.21470168 0.31674403 0.19412757
0.22817963 0.33135849 0.20586929
0.24032357 0.34658316 0.21634632
0.25087777 0.36247694 0.22523724
0.25958639 0.37909877 0.23222056
0.26619375 0.39650762 0.23697485
0.27044404 0.41476244 0.23917866
0.26961082 0.42237899 0.23788421
0.26813492 0.42930940 0.23611362
0.26621825 0.43613020 0.23397958
0.26387945 0.44284442 0.23149818
0.26113716 0.44945502 0.22868560
0.15264575 0.10125279 0.38624060
0.11871827 0.10323104 0.31328547
0.08750928 0.10603423 0.24489886
0.06121257 0.11149549 0.18338189
0.04202196 0.12144797 0.13103573
0.03213126 0.13772477 0.09016152
0.03423068 0.15501714 0.07275891
0.04169795 0.16706979 0.07157604
0.05116558 0.17896423 0.07331919
0.06237778 0.19075936 0.07766690
0.07507881 0.20251417 0.08429772
0.08901289 0.21428756 0.09289020
0.10392426 0.22613850 0.10312290
0.11955716 0.23812592 0.11467434
0.13565581 0.25030875 0.12722309
0.15196446 0.26274595 0.14044771
0.16822733 0.27549648 0.15402672
0.18418868 0.28861922 0.16763867
0.19959272 0.30217317 0.18096215
0.21418370 0.31621724 0.19367565
0.22770585 0.33081040 0.20545776
0.23990341 0.34601155 0.21598703
0.25052062 0.36187968 0.22494197
0.25930169 0.37847370 0.23200117
0.26599088 0.39585254 0.23684315
0.27033240 0.41407517 0.23914649
0.26965648 0.42212188 0.23794220
0.26819712 0.42905638 0.23618530
0.26629636 0.43588117 0.23406434
0.26397276 0.44259924 0.23159544
0.26124498 0.44921362 0.22879475
0.25813165 0.45572725 0.22567840
0.25465137 0.46214312 0.22226253
0.08858383 0.10589523 0.24730712
0.06206754 0.11122622 0.18549666
0.04257663 0.12098099 0.13277234
0.03230492 0.13699265 0.09143531
0.03399742 0.15456994 0.07286239
0.04138623 0.16662955 0.07156575
0.05078479 0.17852876 0.07320695
0.06193735 0.19032651 0.07746453
0.07458813 0.20208174 0.08401705
0.08848138 0.21385342 0.09254307
0.10336133 0.22570045 0.10272111
0.11897221 0.23768181 0.11422973
0.13505827 0.24985641 0.12674749
0.15136372 0.26228321 0.13995293
0.16763280 0.27502117 0.15352459
0.18360978 0.28812918 0.16714105
0.19903886 0.30166620 0.18048082
0.21366428 0.31569120 0.19322246
0.22723028 0.33026311 0.20504454
0.23948111 0.34544086 0.21562558
0.25016099 0.36128339 0.22464414
0.25901413 0.37784967 0.23177879
0.26578480 0.39519861 0.23670805
0.27021724 0.41338915 0.23911045
0.26970151 0.42186466 0.23799969
0.26825875 0.42880324 0.23625650
0.26637387 0.43563199 0.23414864
0.26406550 0.44235396 0.23169225
0.26135227 0.44897208 0.22890349
0.25825280 0.45548937 0.22579846
0.25478569 0.46190879 0.22239332
0.25096962 0.46823335 0.21870419
0.24682318 0.47446603 0.21474722
0.04314378 0.12052248 0.13452436
0.03249403 0.13627148 0.09272763
0.03376723 0.15412246 0.07297028
0.04107722 0.16618909 0.07155943
0.05040638 0.17809315 0.07309824
0.06149894 0.18989359 0.07726527
0.07409914 0.20164935 0.08373906
0.08795121 0.21341936 0.09219816
0.10279939 0.22526260 0.10232112
0.11838792 0.23723796 0.11378649
0.13446102 0.24940442 0.12627281
0.15076293 0.26182088 0.13945866
0.16703789 0.27454633 0.15302254
0.18303014 0.28763971 0.16664304
0.19848390 0.30115992 0.17999868
0.21314342 0.31516591 0.19276804
0.22675294 0.32971665 0.20462963
0.23905668 0.34487107 0.21526203
0.24979888 0.36068809 0.22434378
0.25872377 0.37722671 0.23155341
0.26557559 0.39454579 0.23656949
0.27009857 0.41270435 0.23907058
0.26974592 0.42160726 0.23805666
0.26831979 0.42854992 0.23632719
0.26645085 0.43538269 0.23423246
0.26415771 0.44210851 0.23178861
0.26145905 0.44873041 0.22901177
0.25837344 0.45525134 0.22591811
0.25491956 0.46167430 0.22252372
0.25111598 0.46800232 0.21884476
0.24698135 0.47423831 0.21489736
0.24253431 0.48038533 0.21069765
0.23779349 0.48644632 0.20626177
0.03354012 0.15367468 0.07308260
0.04077095 0.16574840 0.07155710
0.05003036 0.17765740 0.07299309
0.06106258 0.18946061 0.07706913
0.07361184 0.20121697 0.08346374
0.08742239 0.21298543 0.09185550
0.10223845 0.22482491 0.10192295
0.11780427 0.23679437 0.11334463
0.13386407 0.24895275 0.12579909
0.15016210 0.26135898 0.13896489
0.16644259 0.27407202 0.15252057
0.18244977 0.28715080 0.16614467
0.19792788 0.30065426 0.17951576
0.21262115 0.31464136 0.19231237
0.22627382 0.32917100 0.20421307
0.23863013 0.34430218 0.21489638
0.24943431 0.36009377 0.22404087
0.25843060 0.37660480 0.23132508
0.26536322 0.39389414 0.23642755
0.26997641 0.41202074 0.23902684
0.26978970 0.42134970 0.23811311
0.26838019 0.42829648 0.23639737
0.26652724 0.43513322 0.23431580
0.26424938 0.44186294 0.23188451
0.26156530 0.44848859 0.22911966
0.25849360 0.45501319 0.22603735
0.25505292 0.46143973 0.22265375
0.25126189 0.46777117 0.21898496
0.24713911 0.47401050 0.21504715
0.24270323 0.48016071 0.21085644
0.23797289 0.48622483 0.20642896
0.23296669 0.49220580 0.20178084
0.22770326 0.49810663 0.19692823
0.04965673 0.17722152 0.07289152
0.06062827 0.18902758 0.07687612
0.07312625 0.20078461 0.08319114
0.08689493 0.21255156 0.09151512
0.10167853 0.22438739 0.10152661
0.11722130 0.23635103 0.11290417
0.13326746 0.24850142 0.12532634
0.14956126 0.26089749 0.13847165
0.16584691 0.27359819 0.15201868
0.18186869 0.28666249 0.16564597
0.19737078 0.30014926 0.17903206
0.21209747 0.31411752 0.19185551
0.22579296 0.32862619 0.20379484
0.23820148 0.34373417 0.21452864
0.24906729 0.35950044 0.22373544
0.25813463 0.37598392 0.23109378
0.26514769 0.39324358 0.23628221
0.26985076 0.41133836 0.23897929
0.26983285 0.42109200 0.23816904
0.26844004 0.42804289 0.23646708
0.26660305 0.43488362 0.23439868
0.26434049 0.44161722 0.23197997
0.26167104 0.44824666 0.22922710
0.25861326 0.45477492 0.22615618
0.25518581 0.46120501 0.22278337
0.25140736 0.46753988 0.21912479
0.24729645 0.47378254 0.21519659
0.24287176 0.47993600 0.21101490
0.23815191 0.48600322 0.20659585
0.23315553 0.49198720 0.20195557
0.22790125 0.49789092 0.19711019
0.22240768 0.50371736 0.19207588
0.21669346 0.50946957 0.18686873
0.07264238 0.20035227 0.08292125
0.08636884 0.21211782 0.09117702
0.10111964 0.22395006 0.10113212
0.11663900 0.23590796 0.11246512
0.13267118 0.24805042 0.12485455
0.14896040 0.26043642 0.13797896
0.16525090 0.27312487 0.15151690
0.18128690 0.28617471 0.16514693
0.19681264 0.29964492 0.17854759
0.21157239 0.31359443 0.19139743
0.22531034 0.32808214 0.20337500
0.23777075 0.34316704 0.21415883
0.24869785 0.35890806 0.22342750
0.25783587 0.37536412 0.23085955
0.26492906 0.39259419 0.23613352
0.26972163 0.41065717 0.23892795
0.26987538 0.42083412 0.23822446
0.26849926 0.42778912 0.23653628
0.26667827 0.43463388 0.23448108
0.26443106 0.44137135 0.23207498
0.26177624 0.44800457 0.22933410
0.25873241 0.45453650 0.22627461
0.25531825 0.46097013 0.22291262
0.25155234 0.46730846 0.21926427
0.24745336 0.47355449 0.21534571
0.24303989 0.47971117 0.21117304
0.23833057 0.48578152 0.20676243
0.23334403 0.49176851 0.20213000
0.22809890 0.49767512 0.19729190
0.22261381 0.50350440 0.19226424
0.21690737 0.50925922 0.18706317
0.21099824 0.51494271 0.18170482
0.20490502 0.52055770 0.17620532
0.10056178 0.22351290 0.10073950
0.11605740 0.23546512 0.11202750
0.13207525 0.24759975 0.12438376
0.14835954 0.25997573 0.13748683
0.16465452 0.27265203 0.15101525
0.18070441 0.28568754 0.16464759
0.19625348 0.29914123 0.17806238
0.21104592 0.31307206 0.19093817
0.22482601 0.32753894 0.20295353
0.23733795 0.34260082 0.21378699
0.24832597 0.35831666 0.22311708
0.25753435 0.37474537 0.23062240
0.26470730 0.39194590 0.23598145
0.26958904 0.40997723 0.23887280
0.26991728 0.42057613 0.23827936
0.26855788 0.42753524 0.23660499
0.26675293 0.43438399 0.23456301
0.26452106 0.44112536 0.23216952
0.26188090 0.44776234 0.22944067
0.25885108 0.45429796 0.22639263
0.25545019 0.46073517 0.22304147
0.25169691 0.46707696 0.21940339
0.24760984 0.47332630 0.21549447
0.24320760 0.47948623 0.21133088
0.23850885 0.48555967 0.20692873
0.23353218 0.49154970 0.20230418
0.22829624 0.49745920 0.19747335
0.22281964 0.50329125 0.19245237
0.21712102 0.50904882 0.18725739
0.21121900 0.51473480 0.18190455
0.20513222 0.52035230 0.17640996
0.19887930 0.52590430 0.17078978
0.19247887 0.53139371 0.16506012
0.13147968 0.24714941 0.12391398
0.14775869 0.25951546 0.13699527
0.16405781 0.27217966 0.15051374
0.18012126 0.28520092 0.16414796
0.19569327 0.29863819 0.17757644
0.21051809 0.31255043 0.19047776
0.22433995 0.32699654 0.20253047
0.23690307 0.34203547 0.21341310
0.24795170 0.35772622 0.22280420
0.25723007 0.37412766 0.23038234
0.26448244 0.39129874 0.23582605
0.26945299 0.40929845 0.23881388
0.26995856 0.42031795 0.23833373
0.26861590 0.42728117 0.23667321
0.26682702 0.43413395 0.23464446
0.26461053 0.44087923 0.23226361
0.26198506 0.44751999 0.22954683
0.25896922 0.45405927 0.22651023
0.25558168 0.46050006 0.22316995
0.25184104 0.46684530 0.21954212
0.24776590 0.47309801 0.21564288
0.24337493 0.47926116 0.21148838
0.23868674 0.48533773 0.20709473
0.23371997 0.49133077 0.20247807
0.22849323 0.49724320 0.19765455
0.22302516 0.50307804 0.19264027
0.21733437 0.50883824 0.18745142
0.21143952 0.51452684 0.18210408
0.20535921 0.52014685 0.17661443
0.19911207 0.52570117 0.17099857
0.19271673 0.53119284 0.16527265
0.18619183 0.53662485 0.15945281
0.17955598 0.54200017 0.15355518
0.16346079 0.27170780 0.15001239
0.17953745 0.28471488 0.16364804
0.19513206 0.29813579 0.17708980
0.20998891 0.31202951 0.19001620
0.22385219 0.32645494 0.20210582
0.23646615 0.34147102 0.21303719
0.24757503 0.35713673 0.22248887
0.25692308 0.37351099 0.23013939
0.26425448 0.39065272 0.23566732
0.26931354 0.40862089 0.23875120
0.26999918 0.42005965 0.23838760
0.26867330 0.42702699 0.23674092
0.26690051 0.43388376 0.23472543
0.26469943 0.44063294 0.23235725
0.26208869 0.44727752 0.22965254
0.25908688 0.45382047 0.22662742
0.25571269 0.46026480 0.22329803
0.25198469 0.46661350 0.21968049
0.24792153 0.47286958 0.21579096
0.24354185 0.47903597 0.21164556
0.23886427 0.48511568 0.20726041
0.23390742 0.49111173 0.20265168
0.22868991 0.49702707 0.19783548
0.22323039 0.50286472 0.19282794
0.21754748 0.50862765 0.18764521
0.21165979 0.51431882 0.18230343
0.20558597 0.51994127 0.17681873
0.19934464 0.52549797 0.17120722
0.19295442 0.53099185 0.16548507
0.18643396 0.53642601 0.15966840
0.17980185 0.54180336 0.15377334
0.17307675 0.54712689 0.14781603
0.16627727 0.55239964 0.14181261
0.19456986 0.29763404 0.17660244
0.20945837 0.31150931 0.18955350
0.22336273 0.32591411 0.20167960
0.23602720 0.34090742 0.21265928
0.24719597 0.35654819 0.22217110
0.25661331 0.37289533 0.22989358
0.26402345 0.39000779 0.23550528
0.26917064 0.40794453 0.23868477
0.27003920 0.41980118 0.23844093
0.26873013 0.42677265 0.23680814
0.26697344 0.43363342 0.23480593
0.26478779 0.44038650 0.23245044
0.26219177 0.44703487 0.22975782
0.25920403 0.45358151 0.22674420
0.25584319 0.46002945 0.22342572
0.25212789 0.46638161 0.21981850
0.24807674 0.47264102 0.21593869
0.24370837 0.47881067 0.21180241
0.23904142 0.48489353 0.20742580
0.23409450 0.49089259 0.20282499
0.22888626 0.49681085 0.19801615
0.22343531 0.50265127 0.19301537
0.21776028 0.50841689 0.18783881
0.21187980 0.51411068 0.18250258
0.20581250 0.51973557 0.17702284
0.19957700 0.52529466 0.17141573
0.19319193 0.53079081 0.16569737
0.18667592 0.53622711 0.15988387
0.18004760 0.54160649 0.15399142
0.17332560 0.54693198 0.14803612
0.16652852 0.55220652 0.14203411
0.15967503 0.55743313 0.13600153
0.15278372 0.56261480 0.12995450
0.22287160 0.32537410 0.20125183
0.23558621 0.34034473 0.21227939
0.24681455 0.35596064 0.22185089
0.25630087 0.37228075 0.22964489
0.26378939 0.38936400 0.23533997
0.26902434 0.40726936 0.23861463
0.27007857 0.41954255 0.23849374
0.26878634 0.42651814 0.23687485
0.26704580 0.43338293 0.23488593
0.26487556 0.44013992 0.23254317
0.26229432 0.44679210 0.22986266
0.25932068 0.45334244 0.22686057
0.25597322 0.45979393 0.22355302
0.25227064 0.46614957 0.21995613
0.24823152 0.47241235 0.21608606
0.24387449 0.47858524 0.21195893
0.23921819 0.48467124 0.20759088
0.23428124 0.49067333 0.20299804
0.22908229 0.49659452 0.19819656
0.22363994 0.50243777 0.19320256
0.21797282 0.50820607 0.18803217
0.21209957 0.51390243 0.18270154
0.20603880 0.51952982 0.17722680
0.19980916 0.52509129 0.17162408
0.19342928 0.53058970 0.16590951
0.18691775 0.53602815 0.16009925
0.18029323 0.54140955 0.15420941
0.17357434 0.54673696 0.14825614
0.16677970 0.55201334 0.14225556
0.15992795 0.55724168 0.13622381
0.15303771 0.56242496 0.13017704
0.14612760 0.56756616 0.12413136
0.13921626 0.57266825 0.11810292
0.24643077 0.35537401 0.22152829
0.25598571 0.37166718 0.22939339
0.26355225 0.38872132 0.23517136
0.26887465 0.40659538 0.23854077
0.27011734 0.41928378 0.23854604
0.26884192 0.42626351 0.23694105
0.26711753 0.43313232 0.23496547
0.26496282 0.43989322 0.23263544
0.26239637 0.44654921 0.22996707
0.25943682 0.45310324 0.22697653
0.25610277 0.45955831 0.22367993
0.25241292 0.46591741 0.22009340
0.24838585 0.47218356 0.21623309
0.24404019 0.47835970 0.21211514
0.23939458 0.48444885 0.20775566
0.23446763 0.49045399 0.20317081
0.22927798 0.49637809 0.19837672
0.22384425 0.50222415 0.19338951
0.21818507 0.50799519 0.18822533
0.21231908 0.51369411 0.18290031
0.20626488 0.51932400 0.17743057
0.20004113 0.52488780 0.17183228
0.19366643 0.53038853 0.16612154
0.18715942 0.53582913 0.16031452
0.18053873 0.54121256 0.15442732
0.17382298 0.54654193 0.14847609
0.16703080 0.55182010 0.14247696
0.16018082 0.55705017 0.13644607
0.15329166 0.56223500 0.13039957
0.14638196 0.56737769 0.12435357
0.13947034 0.57248122 0.11832421
0.13257542 0.57754850 0.11232763
0.12571584 0.58258253 0.10637996
0.26331207 0.38807973 0.23499951
0.26872155 0.40592259 0.23846321
0.27015546 0.41902483 0.23859781
0.26889691 0.42600870 0.23700677
0.26718873 0.43288156 0.23504454
0.26504949 0.43964636 0.23272726
0.26249784 0.44630617 0.23007105
0.25955242 0.45286387 0.22709207
0.25623187 0.45932254 0.22380644
0.25255477 0.46568513 0.22023030
0.24853976 0.47195464 0.21637978
0.24420549 0.47813404 0.21227100
0.23957059 0.48422635 0.20792013
0.23465365 0.49023449 0.20334329
0.22947334 0.49616155 0.19855660
0.22404826 0.50201041 0.19357622
0.21839705 0.50778413 0.18841825
0.21253833 0.51348573 0.18309887
0.20649074 0.51911807 0.17763418
0.20027289 0.52468425 0.17204033
0.19390342 0.53018725 0.16633345
0.18740094 0.53562999 0.16052967
0.18078409 0.54101551 0.15464513
0.17407152 0.54634678 0.14869598
0.16728182 0.55162680 0.14269833
0.16043364 0.55685854 0.13666832
0.15354559 0.56204504 0.13062210
0.14663631 0.56718922 0.12457580
0.13972442 0.57229412 0.11854554
0.13282856 0.57736266 0.11254747
0.12596735 0.58239794 0.10659772
0.11915942 0.58740282 0.10071243
0.11242338 0.59238034 0.09490772
0.27019292 0.41876575 0.23864906
0.26895130 0.42575374 0.23707198
0.26725933 0.43263063 0.23512311
0.26513562 0.43939939 0.23281860
0.26259881 0.44606298 0.23017459
0.25966755 0.45262441 0.22720720
0.25636044 0.45908666 0.22393256
0.25269613 0.46545273 0.22036682
0.24869324 0.47172561 0.21652611
0.24437039 0.47790828 0.21242656
0.23974621 0.48400372 0.20808430
0.23483932 0.49001494 0.20351548
0.22966836 0.49594489 0.19873624
0.22425197 0.50179660 0.19376269
0.21860874 0.50757301 0.18861097
0.21275733 0.51327717 0.18329725
0.20671634 0.51891208 0.17783761
0.20050444 0.52448064 0.17224823
0.19414021 0.52998585 0.16654521
0.18764231 0.53543079 0.16074471
0.18102933 0.54081833 0.15486287
0.17431995 0.54615158 0.14891580
0.16753276 0.55143344 0.14291964
0.16068639 0.55666691 0.13689055
0.15379949 0.56185502 0.13084464
0.14689066 0.56700069 0.12479805
0.13997854 0.57210696 0.11876692
0.13308176 0.57717681 0.11276738
0.12621894 0.58221322 0.10681556
0.11940871 0.58721918 0.10092761
0.11266971 0.59219772 0.09511966
0.10602055 0.59715176 0.08940783
0.09947986 0.60208428 0.08380827
0.26732934 0.43237957 0.23520121
0.26522118 0.43915224 0.23290950
0.26269925 0.44581965 0.23027769
0.25978217 0.45238480 0.22732191
0.25648856 0.45885065 0.22405829
0.25283706 0.46522021 0.22050297
0.24884629 0.47149646 0.21667209
0.24453488 0.47768238 0.21258177
0.23992145 0.48378098 0.20824817
0.23502465 0.48979524 0.20368740
0.22986306 0.49572814 0.19891560
0.22445537 0.50158268 0.19394891
0.21882015 0.50736183 0.18880348
0.21297607 0.51306862 0.18349542
0.20694174 0.51870596 0.17804086
0.20073578 0.52427691 0.17245597
0.19437683 0.52978444 0.16675685
0.18788351 0.53523147 0.16095966
0.18127444 0.54062110 0.15508051
0.17456827 0.54595631 0.14913556
0.16778362 0.55123997 0.14314093
0.16093910 0.55647516 0.13711275
0.15405335 0.56166488 0.13106717
0.14714500 0.56681210 0.12502033
0.14023267 0.57191974 0.11898834
0.13333499 0.57699090 0.11298735
0.12647060 0.58202851 0.10703349
0.11965811 0.58703554 0.10114291
0.11291616 0.59201497 0.09533172
0.10626336 0.59696990 0.08961608
0.09971835 0.60190320 0.08401210
0.09329976 0.60681784 0.07853593
