Anais_Major/Anais Major.cube
# VEGAS Pro LUT
TITLE "Anais Major"
LUT_3D_SIZE 5
1.00000000 0.00000000 1.00000000
1.00000000 0.08153497 0.92987037
1.00000000 0.24260636 0.79499573
1.00000000 0.44761389 0.61894739
1.00000000 0.66095734 0.42529675
1.00000000 0.23568420 0.80083150
1.00000000 0.43970612 0.62588030
1.00000000 0.65337366 0.43245959
1.00000000 0.84108651 0.24414079
1.00000000 0.96724445 0.08449521
1.00000000 0.64575487 0.43962935
1.00000000 0.83505332 0.25070521
1.00000000 0.96410662 0.08958713
1.00000000 0.98414344 0.00000000
1.00000000 0.86939591 0.00000000
1.00000000 0.96083903 0.09474858
1.00000000 0.98692268 0.00000000
1.00000000 0.87478858 0.00000000
1.00000000 0.70536804 0.00000000
1.00000000 0.50721490 0.00000000
1.00000000 0.88010377 0.00000000
1.00000000 0.71228480 0.00000000
1.00000000 0.51468283 0.00000000
1.00000000 0.31585166 0.00000000
1.00000000 0.14434527 0.00000000
1.00000000 0.01943971 0.98239857
1.00000000 0.13549872 0.88480324
1.00000000 0.31752080 0.73145002
1.00000000 0.52990568 0.54591018
1.00000000 0.73705310 0.35175505
1.00000000 0.31006837 0.73780638
1.00000000 0.52196699 0.55303299
1.00000000 0.72993785 0.35877723
1.00000000 0.89838076 0.17861041
1.00000000 0.99169534 0.03610390
1.00000000 0.72276914 0.36581847
1.00000000 0.89329696 0.18471569
1.00000000 0.99000627 0.04040604
1.00000000 0.94884396 0.00000000
1.00000000 0.80928725 0.00000000
1.00000000 0.98816907 0.04478990
1.00000000 0.95274353 0.00000000
1.00000000 0.81539983 0.00000000
1.00000000 0.63165635 0.00000000
1.00000000 0.43006712 0.00000000
1.00000000 0.82144952 0.00000000
1.00000000 0.63890719 0.00000000
1.00000000 0.43746856 0.00000000
1.00000000 0.24568757 0.00000000
1.00000000 0.09211808 0.00000000
1.00000000 0.05364343 0.95326525
1.00000000 0.19905135 0.83163077
1.00000000 0.39684898 0.66322541
1.00000000 0.61143613 0.47162053
1.00000000 0.80721241 0.28038749
1.00000000 0.38905668 0.66997629
1.00000000 0.60365689 0.47880730
1.00000000 0.80075598 0.28714293
1.00000000 0.94475377 0.11855461
1.00000000 0.99787170 0.00000000
1.00000000 0.79422772 0.29392961
1.00000000 0.94080979 0.12407470
1.00000000 1.00000000 0.00000000
1.00000000 0.90280133 0.00000000
1.00000000 0.74258637 0.00000000
1.00000000 0.99978364 0.00348019
1.00000000 0.90766859 0.00000000
1.00000000 0.74926597 0.00000000
1.00000000 0.55535048 0.00000000
1.00000000 0.35447598 0.00000000
1.00000000 0.75589758 0.00000000
1.00000000 0.56278265 0.00000000
1.00000000 0.36165822 0.00000000
1.00000000 0.18107818 0.00000000
1.00000000 0.04959643 0.00000000
1.00000000 0.10063804 0.91390646
1.00000000 0.27021974 0.77165931
1.00000000 0.47861785 0.59162837
1.00000000 0.69023204 0.39738497
1.00000000 0.86946213 0.21250051
1.00000000 0.47067603 0.59864771
1.00000000 0.68280268 0.40450957
1.00000000 0.86385494 0.21886316
1.00000000 0.97823244 0.06527984
1.00000000 0.96886218 0.00000000
1.00000000 0.85815752 0.22526920
1.00000000 0.97561872 0.07008867
1.00000000 0.97219115 0.00000000
1.00000000 0.84759820 0.00000000
1.00000000 0.67087573 0.00000000
1.00000000 0.97541094 0.00000000
1.00000000 0.85328037 0.00000000
1.00000000 0.67796975 0.00000000
1.00000000 0.47803301 0.00000000
1.00000000 0.28202400 0.00000000
1.00000000 0.68503046 0.00000000
1.00000000 0.48549378 0.00000000
1.00000000 0.28883436 0.00000000
1.00000000 0.12360609 0.00000000
1.00000000 0.01836287 0.00000000
1.00000000 0.15845041 0.86562860
1.00000000 0.34703079 0.70619529
1.00000000 0.56085420 0.51796532
1.00000000 0.76432037 0.32450992
1.00000000 0.92182910 0.14940050
1.00000000 0.55295330 0.52512705
1.00000000 0.75743133 0.33144626
1.00000000 0.91726154 0.15524431
1.00000000 0.99684370 0.02009250
1.00000000 0.92827654 0.00000000
1.00000000 0.91258532 0.16114366
1.00000000 0.99575055 0.02406402
1.00000000 0.93265355 0.00000000
1.00000000 0.78481716 0.00000000
1.00000000 0.59573793 0.00000000
1.00000000 0.93693608 0.00000000
1.00000000 0.79116154 0.00000000
1.00000000 0.60309368 0.00000000
1.00000000 0.40128648 0.00000000
1.00000000 0.21429379 0.00000000
1.00000000 0.61043084 0.00000000
1.00000000 0.40862319 0.00000000
1.00000000 0.22057958 0.00000000
1.00000000 0.07485387 0.00000000
1.00000000 0.00000000 0.00000000
