Anais_Major/Anais Major.cube
# VEGAS Pro LUT
TITLE "Anais Major"
LUT_3D_SIZE 33
1.00000000 0.00000000 1.00000000
1.00000000 0.00462542 0.99558020
1.00000000 0.01098031 0.98982650
1.00000000 0.01899515 0.98278493
1.00000000 0.02860041 0.97450155
1.00000000 0.03972656 0.96502233
1.00000000 0.05230405 0.95439339
1.00000000 0.06626336 0.94266069
1.00000000 0.08153497 0.92987037
1.00000000 0.09804932 0.91606838
1.00000000 0.11573691 0.90130079
1.00000000 0.13452819 0.88561362
1.00000000 0.15435362 0.86905295
1.00000000 0.17514369 0.85166478
1.00000000 0.19682886 0.83349514
1.00000000 0.21933958 0.81459010
1.00000000 0.24260636 0.79499573
1.00000000 0.26655963 0.77475798
1.00000000 0.29112986 0.75392288
1.00000000 0.31624752 0.73253661
1.00000000 0.34184313 0.71064502
1.00000000 0.36784708 0.68829429
1.00000000 0.39418989 0.66553044
1.00000000 0.42080200 0.64239943
1.00000000 0.44761389 0.61894739
1.00000000 0.47455603 0.59522027
1.00000000 0.50155890 0.57126421
1.00000000 0.52855295 0.54712510
1.00000000 0.55546862 0.52284914
1.00000000 0.58223647 0.49848229
1.00000000 0.60878688 0.47407058
1.00000000 0.63505036 0.44966006
1.00000000 0.66095734 0.42529675
1.00000000 0.01071668 0.99006128
1.00000000 0.01867169 0.98306626
1.00000000 0.02821967 0.97482771
1.00000000 0.03929109 0.96539170
1.00000000 0.05181642 0.95480424
1.00000000 0.06572613 0.94311136
1.00000000 0.08095068 0.93035913
1.00000000 0.09742056 0.91659355
1.00000000 0.11506622 0.90186065
1.00000000 0.13381812 0.88620651
1.00000000 0.15360674 0.86967719
1.00000000 0.17436256 0.85231858
1.00000000 0.19601601 0.83417690
1.00000000 0.21849760 0.81529814
1.00000000 0.24173780 0.79572827
1.00000000 0.26566705 0.77551335
1.00000000 0.29021582 0.75469947
1.00000000 0.31531459 0.73333263
1.00000000 0.34089381 0.71145886
1.00000000 0.36688399 0.68912417
1.00000000 0.39321554 0.66637468
1.00000000 0.41981900 0.64325637
1.00000000 0.44662476 0.61981535
1.00000000 0.47356334 0.59609753
1.00000000 0.50056523 0.57214904
1.00000000 0.52756083 0.54801589
1.00000000 0.55448061 0.52374417
1.00000000 0.58125514 0.49937981
1.00000000 0.60781473 0.47496891
1.00000000 0.63409001 0.45055753
1.00000000 0.66001135 0.42619169
1.00000000 0.68550926 0.40191743
1.00000000 0.71051413 0.37778077
1.00000000 0.02784099 0.97515231
1.00000000 0.03885759 0.96575952
1.00000000 0.05133067 0.95521361
1.00000000 0.06519068 0.94356060
1.00000000 0.08036809 0.93084651
1.00000000 0.09679338 0.91711736
1.00000000 0.11439701 0.90241927
1.00000000 0.13310945 0.88679820
1.00000000 0.15286116 0.87030023
1.00000000 0.17358263 0.85297137
1.00000000 0.19520430 0.83485770
1.00000000 0.21765666 0.81600517
1.00000000 0.24087016 0.79645991
1.00000000 0.26477531 0.77626795
1.00000000 0.28930250 0.75547528
1.00000000 0.31438228 0.73412794
1.00000000 0.33994508 0.71227199
1.00000000 0.36592135 0.68995351
1.00000000 0.39224160 0.66721845
1.00000000 0.41883627 0.64411288
1.00000000 0.44563583 0.62068290
1.00000000 0.47257075 0.59697443
1.00000000 0.49957150 0.57303363
1.00000000 0.52656859 0.54890651
1.00000000 0.55349243 0.52463901
1.00000000 0.58027351 0.50027728
1.00000000 0.60684228 0.47586727
1.00000000 0.63312918 0.45145509
1.00000000 0.65906483 0.42708674
1.00000000 0.68457949 0.40280831
1.00000000 0.70960379 0.37866575
1.00000000 0.73406810 0.35470515
1.00000000 0.75790298 0.33097258
1.00000000 0.05084680 0.95562148
1.00000000 0.06465702 0.94400841
1.00000000 0.07978719 0.93133253
1.00000000 0.09616781 0.91763991
1.00000000 0.11372932 0.90297663
1.00000000 0.13240220 0.88738871
1.00000000 0.15211691 0.87092221
1.00000000 0.17280392 0.85362309
1.00000000 0.19439371 0.83553743
1.00000000 0.21681674 0.81671131
1.00000000 0.24000348 0.79719073
1.00000000 0.26388440 0.77702171
1.00000000 0.28838995 0.75625032
1.00000000 0.31345063 0.73492259
1.00000000 0.33899689 0.71308458
1.00000000 0.36495918 0.69078225
1.00000000 0.39126799 0.66806167
1.00000000 0.41785380 0.64496899
1.00000000 0.44464707 0.62155008
1.00000000 0.47157824 0.59785110
1.00000000 0.49857780 0.57391798
1.00000000 0.52557623 0.54979688
1.00000000 0.55250400 0.52553374
1.00000000 0.57929158 0.50117463
1.00000000 0.60586935 0.47676563
1.00000000 0.63216794 0.45235270
1.00000000 0.65811765 0.42798194
1.00000000 0.68364912 0.40369937
1.00000000 0.70869267 0.37955099
1.00000000 0.73317879 0.35558289
1.00000000 0.75703806 0.33184111
1.00000000 0.78020084 0.30837163
1.00000000 0.80259758 0.28522056
1.00000000 0.07920799 0.93181717
1.00000000 0.09554382 0.91816115
1.00000000 0.11306313 0.90353274
1.00000000 0.13169634 0.88797802
1.00000000 0.15137397 0.87154299
1.00000000 0.17202644 0.85427374
1.00000000 0.19358425 0.83621621
1.00000000 0.21597786 0.81741649
1.00000000 0.23913772 0.79792064
1.00000000 0.26299435 0.77777469
1.00000000 0.28747815 0.75702465
1.00000000 0.31251964 0.73571652
1.00000000 0.33804926 0.71389645
1.00000000 0.36399749 0.69161040
1.00000000 0.39029479 0.66890442
1.00000000 0.41687164 0.64582461
1.00000000 0.44365850 0.62241691
1.00000000 0.47058582 0.59872735
1.00000000 0.49758410 0.57480210
1.00000000 0.52458382 0.55068707
1.00000000 0.55151540 0.52642834
1.00000000 0.57830936 0.50207198
1.00000000 0.60489613 0.47766396
1.00000000 0.63120615 0.45325038
1.00000000 0.65717000 0.42887723
1.00000000 0.68271804 0.40459061
1.00000000 0.70778078 0.38043648
1.00000000 0.73228866 0.35646096
1.00000000 0.75617218 0.33271000
1.00000000 0.77936184 0.30922970
1.00000000 0.80178803 0.28606609
1.00000000 0.82338125 0.26326519
1.00000000 0.84407198 0.24087305
1.00000000 0.11239844 0.90408760
1.00000000 0.13099192 0.88856614
1.00000000 0.15063234 0.87216270
1.00000000 0.17125019 0.85492331
1.00000000 0.19277592 0.83689398
1.00000000 0.21514001 0.81812072
1.00000000 0.23827292 0.79864967
1.00000000 0.26210514 0.77852684
1.00000000 0.28656709 0.75779819
1.00000000 0.31158930 0.73650980
1.00000000 0.33710220 0.71470773
1.00000000 0.36303625 0.69243801
1.00000000 0.38932195 0.66974670
1.00000000 0.41588974 0.64667976
1.00000000 0.44267011 0.62328333
1.00000000 0.46959350 0.59960335
1.00000000 0.49659041 0.57568592
1.00000000 0.52359128 0.55157709
1.00000000 0.55052662 0.52732283
1.00000000 0.57732689 0.50296921
1.00000000 0.60392249 0.47856230
1.00000000 0.63024396 0.45414808
1.00000000 0.65622175 0.42977268
1.00000000 0.68178630 0.40548202
1.00000000 0.70686811 0.38132223
1.00000000 0.73139769 0.35733929
1.00000000 0.75530541 0.33357927
1.00000000 0.77852178 0.31008822
1.00000000 0.80097729 0.28691211
1.00000000 0.82260239 0.26409706
1.00000000 0.84332758 0.24168907
1.00000000 0.86308330 0.21973418
1.00000000 0.88180000 0.19827843
1.00000000 0.14989205 0.87278128
1.00000000 0.17047516 0.85557181
1.00000000 0.19196872 0.83757073
1.00000000 0.21430321 0.81882405
1.00000000 0.23740907 0.79937786
1.00000000 0.26121679 0.77927816
1.00000000 0.28565681 0.75857097
1.00000000 0.31065962 0.73730236
1.00000000 0.33615571 0.71551841
1.00000000 0.36207551 0.69326508
1.00000000 0.38834947 0.67058843
1.00000000 0.41490814 0.64753449
1.00000000 0.44168192 0.62414938
1.00000000 0.46860129 0.60047901
1.00000000 0.49559674 0.57656950
1.00000000 0.52259868 0.55246687
1.00000000 0.54953766 0.52821714
1.00000000 0.57634413 0.50386637
1.00000000 0.60294849 0.47946063
1.00000000 0.62928128 0.45504588
1.00000000 0.65527296 0.43066821
1.00000000 0.68085396 0.40637362
1.00000000 0.70595473 0.38220820
1.00000000 0.73050582 0.35821792
1.00000000 0.75443769 0.33444890
1.00000000 0.77768075 0.31094712
1.00000000 0.80016547 0.28775865
1.00000000 0.82182235 0.26492947
1.00000000 0.84258187 0.24250570
1.00000000 0.86237448 0.22053333
1.00000000 0.88113064 0.19905838
1.00000000 0.89878082 0.17812693
1.00000000 0.91525549 0.15778500
1.00000000 0.19116266 0.83824646
1.00000000 0.21346743 0.81952637
1.00000000 0.23654616 0.80010509
1.00000000 0.26032928 0.78002864
1.00000000 0.28474727 0.75934303
1.00000000 0.30973062 0.73809427
1.00000000 0.33520979 0.71632844
1.00000000 0.36111522 0.69409156
1.00000000 0.38737741 0.67142963
1.00000000 0.41392681 0.64838880
1.00000000 0.44069391 0.62501502
1.00000000 0.46760917 0.60135436
1.00000000 0.49460304 0.57745284
1.00000000 0.52160603 0.55335647
1.00000000 0.54854852 0.52911139
1.00000000 0.57536107 0.50476348
1.00000000 0.60197413 0.48035893
1.00000000 0.62831813 0.45594370
1.00000000 0.65432358 0.43156385
1.00000000 0.67992091 0.40726539
1.00000000 0.70504063 0.38309440
1.00000000 0.72961318 0.35909688
1.00000000 0.75356901 0.33531889
1.00000000 0.77683866 0.31180647
1.00000000 0.79935253 0.28860563
1.00000000 0.82104111 0.26576245
1.00000000 0.84183484 0.24332294
1.00000000 0.86166424 0.22133313
1.00000000 0.88045979 0.19983909
1.00000000 0.89815187 0.17888683
1.00000000 0.91467100 0.15852240
1.00000000 0.92994767 0.13879181
1.00000000 0.94391233 0.11974115
1.00000000 0.23568420 0.80083150
1.00000000 0.25944263 0.78077829
1.00000000 0.28383851 0.76011425
1.00000000 0.30880231 0.73888540
1.00000000 0.33426446 0.71713781
1.00000000 0.36015543 0.69491744
1.00000000 0.38640574 0.67227036
1.00000000 0.41294581 0.64924264
1.00000000 0.43970612 0.62588030
1.00000000 0.46661717 0.60222936
1.00000000 0.49360937 0.57833588
1.00000000 0.52061325 0.55424589
1.00000000 0.54755920 0.53000540
1.00000000 0.57437778 0.50566053
1.00000000 0.60099936 0.48125723
1.00000000 0.62735450 0.45684159
1.00000000 0.65337366 0.43245959
1.00000000 0.67898726 0.40815735
1.00000000 0.70412576 0.38398084
1.00000000 0.72871965 0.35997614
1.00000000 0.75269943 0.33618924
1.00000000 0.77599555 0.31266624
1.00000000 0.79853845 0.28945312
1.00000000 0.82025862 0.26659596
1.00000000 0.84108651 0.24414079
1.00000000 0.86095262 0.22213362
1.00000000 0.87978739 0.20062052
1.00000000 0.89752132 0.17964751
1.00000000 0.91408485 0.15926063
1.00000000 0.92940849 0.13950592
1.00000000 0.94342262 0.12042943
1.00000000 0.95605779 0.10207718
1.00000000 0.96724445 0.08449521
1.00000000 0.28293052 0.76088476
1.00000000 0.30787465 0.73967588
1.00000000 0.33331969 0.71794653
1.00000000 0.35919613 0.69574273
1.00000000 0.38543445 0.67311054
1.00000000 0.41196510 0.65009600
1.00000000 0.43871853 0.62674516
1.00000000 0.46562526 0.60310405
1.00000000 0.49261570 0.57921869
1.00000000 0.51962036 0.55513507
1.00000000 0.54656971 0.53089935
1.00000000 0.57339418 0.50655746
1.00000000 0.60002428 0.48215550
1.00000000 0.62639046 0.45773950
1.00000000 0.65242320 0.43335548
1.00000000 0.67805290 0.40904945
1.00000000 0.70321018 0.38486752
1.00000000 0.72782534 0.36085567
1.00000000 0.75182891 0.33705994
1.00000000 0.77515143 0.31352642
1.00000000 0.79772323 0.29030111
1.00000000 0.81947494 0.26743004
1.00000000 0.84033692 0.24495924
1.00000000 0.86023962 0.22293478
1.00000000 0.87911355 0.20140268
1.00000000 0.89688921 0.18040898
1.00000000 0.91349703 0.15999973
1.00000000 0.92886752 0.14022096
1.00000000 0.94293106 0.12111869
1.00000000 0.95561820 0.10273898
1.00000000 0.96685940 0.08512786
1.00000000 0.97658509 0.06833136
1.00000000 0.98472571 0.05239554
1.00000000 0.33237553 0.71875465
1.00000000 0.35823733 0.69656748
1.00000000 0.38446355 0.67395025
1.00000000 0.41098467 0.65094894
1.00000000 0.43773115 0.62760967
1.00000000 0.46463346 0.60397840
1.00000000 0.49162206 0.58010119
1.00000000 0.51862746 0.55602407
1.00000000 0.54558003 0.53179312
1.00000000 0.57241035 0.50745434
1.00000000 0.59904885 0.48305377
1.00000000 0.62542593 0.45863745
1.00000000 0.65147215 0.43425143
1.00000000 0.67711794 0.40994173
1.00000000 0.70229381 0.38575441
1.00000000 0.72693014 0.36173549
1.00000000 0.75095749 0.33793104
1.00000000 0.77430624 0.31438702
1.00000000 0.79690695 0.29114956
1.00000000 0.81869006 0.26826462
1.00000000 0.83958596 0.24577831
1.00000000 0.85952520 0.22373660
1.00000000 0.87843823 0.20218559
1.00000000 0.89625555 0.18117127
1.00000000 0.91290754 0.16073969
1.00000000 0.92832476 0.14093690
1.00000000 0.94243765 0.12180893
1.00000000 0.95517665 0.10340182
1.00000000 0.96647227 0.08576161
1.00000000 0.97625494 0.06893433
1.00000000 0.98445511 0.05296602
1.00000000 0.99100333 0.03790272
1.00000000 0.99583000 0.02379048
1.00000000 0.38349307 0.67478937
1.00000000 0.41000456 0.65180141
1.00000000 0.43674397 0.62847376
1.00000000 0.46364179 0.60485238
1.00000000 0.49062845 0.58098346
1.00000000 0.51763445 0.55691290
1.00000000 0.54459023 0.53268677
1.00000000 0.57142627 0.50835115
1.00000000 0.59807301 0.48395202
1.00000000 0.62446100 0.45953545
1.00000000 0.65052062 0.43514752
1.00000000 0.67618239 0.41083419
1.00000000 0.70137674 0.38664156
1.00000000 0.72603416 0.36261562
1.00000000 0.75008512 0.33880243
1.00000000 0.77346009 0.31524804
1.00000000 0.79608953 0.29199848
1.00000000 0.81790394 0.26909977
1.00000000 0.83883375 0.24659796
1.00000000 0.85880941 0.22453909
1.00000000 0.87776142 0.20296919
1.00000000 0.89562029 0.18193433
1.00000000 0.91231638 0.16148049
1.00000000 0.92778027 0.14165376
1.00000000 0.94194233 0.12250014
1.00000000 0.95473313 0.10406570
1.00000000 0.96608305 0.08639646
1.00000000 0.97592264 0.06953845
1.00000000 0.98418230 0.05353773
1.00000000 0.99079251 0.03844032
1.00000000 0.99568373 0.02429227
1.00000000 0.99878651 0.01113961
1.00000000 0.99940789 0.00000000
1.00000000 0.43575704 0.62933743
1.00000000 0.46265024 0.60572606
1.00000000 0.48963487 0.58186543
1.00000000 0.51664138 0.55780143
1.00000000 0.54360026 0.53358024
1.00000000 0.57044190 0.50924784
1.00000000 0.59709686 0.48485023
1.00000000 0.62349558 0.46043351
1.00000000 0.64956856 0.43604368
1.00000000 0.67524618 0.41172680
1.00000000 0.70045894 0.38752890
1.00000000 0.72513735 0.36349604
1.00000000 0.74921185 0.33967420
1.00000000 0.77261293 0.31610948
1.00000000 0.79527104 0.29284787
1.00000000 0.81711668 0.26993546
1.00000000 0.83808023 0.24741822
1.00000000 0.85809225 0.22534224
1.00000000 0.87708312 0.20375355
1.00000000 0.89498341 0.18269816
1.00000000 0.91172355 0.16222215
1.00000000 0.92723399 0.14237152
1.00000000 0.94144523 0.12319233
1.00000000 0.95428771 0.10473061
1.00000000 0.96569186 0.08703241
1.00000000 0.97558820 0.07014374
1.00000000 0.98390722 0.05411066
1.00000000 0.99057937 0.03897921
1.00000000 0.99553508 0.02479541
1.00000000 0.99870485 0.01160532
1.00000000 0.99966967 0.00000000
1.00000000 0.99187636 0.00000000
1.00000000 0.98271066 0.00000000
1.00000000 0.48864132 0.58274710
1.00000000 0.51564825 0.55868983
1.00000000 0.54261011 0.53447360
1.00000000 0.56945729 0.51014441
1.00000000 0.59612036 0.48574841
1.00000000 0.62252975 0.46133158
1.00000000 0.64861590 0.43693995
1.00000000 0.67430931 0.41261959
1.00000000 0.69954044 0.38841650
1.00000000 0.72423971 0.36437672
1.00000000 0.74833769 0.34054631
1.00000000 0.77176476 0.31697130
1.00000000 0.79445142 0.29369774
1.00000000 0.81632817 0.27077165
1.00000000 0.83732545 0.24823907
1.00000000 0.85737365 0.22614604
1.00000000 0.87640339 0.20453861
1.00000000 0.89434505 0.18346280
1.00000000 0.91112906 0.16296464
1.00000000 0.92668599 0.14309020
1.00000000 0.94094622 0.12388549
1.00000000 0.95384026 0.10539656
1.00000000 0.96529859 0.08766945
1.00000000 0.97525167 0.07075018
1.00000000 0.98362994 0.05468482
1.00000000 0.99036390 0.03951938
1.00000000 0.99538398 0.02529990
1.00000000 0.99862069 0.01207243
1.00000000 0.99992949 0.00000000
1.00000000 0.99218774 0.00000000
1.00000000 0.98307157 0.00000000
1.00000000 0.97263670 0.00000000
1.00000000 0.96093887 0.00000000
1.00000000 0.54161978 0.53536677
1.00000000 0.56847245 0.51104093
1.00000000 0.59514356 0.48664659
1.00000000 0.62156349 0.46222970
1.00000000 0.64766276 0.43783632
1.00000000 0.67337185 0.41351253
1.00000000 0.69862121 0.38930431
1.00000000 0.72334129 0.36525771
1.00000000 0.74746263 0.34141877
1.00000000 0.77091563 0.31783357
1.00000000 0.79363072 0.29454809
1.00000000 0.81553853 0.27160841
1.00000000 0.83656937 0.24906053
1.00000000 0.85665375 0.22695051
1.00000000 0.87572217 0.20532440
1.00000000 0.89370507 0.18422821
1.00000000 0.91053289 0.16370799
1.00000000 0.92613620 0.14380978
1.00000000 0.94044536 0.12457962
1.00000000 0.95339090 0.10606354
1.00000000 0.96490330 0.08830758
1.00000000 0.97491294 0.07135779
1.00000000 0.98335040 0.05526019
1.00000000 0.99014610 0.04006082
1.00000000 0.99523044 0.02580573
1.00000000 0.99853402 0.01254095
1.00000000 0.99998719 0.00031252
1.00000000 0.99249727 0.00000000
1.00000000 0.98343062 0.00000000
1.00000000 0.97304326 0.00000000
1.00000000 0.96139097 0.00000000
1.00000000 0.94852942 0.00000000
1.00000000 0.93451446 0.00000000
1.00000000 0.59416634 0.48754472
1.00000000 0.62059677 0.46312785
1.00000000 0.64670908 0.43873280
1.00000000 0.67243373 0.41440561
1.00000000 0.69770122 0.39019233
1.00000000 0.72244203 0.36613896
1.00000000 0.74658662 0.34229159
1.00000000 0.77006543 0.31869623
1.00000000 0.79280895 0.29539889
1.00000000 0.81474763 0.27244568
1.00000000 0.83581197 0.24988258
1.00000000 0.85593241 0.22775564
1.00000000 0.87503946 0.20611089
1.00000000 0.89306349 0.18499440
1.00000000 0.90993512 0.16445218
1.00000000 0.92558467 0.14453027
1.00000000 0.93994272 0.12527472
1.00000000 0.95293963 0.10673155
1.00000000 0.96450597 0.08894681
1.00000000 0.97457212 0.07196654
1.00000000 0.98306865 0.05583677
1.00000000 0.98992598 0.04060355
1.00000000 0.99507451 0.02631290
1.00000000 0.99844480 0.01301087
1.00000000 0.99996734 0.00074350
1.00000000 0.99280488 0.00000000
1.00000000 0.98378795 0.00000000
1.00000000 0.97344816 0.00000000
1.00000000 0.96184140 0.00000000
1.00000000 0.94902337 0.00000000
1.00000000 0.93504989 0.00000000
1.00000000 0.91997665 0.00000000
1.00000000 0.90385950 0.00000000
1.00000000 0.64575487 0.43962935
1.00000000 0.67149502 0.41529885
1.00000000 0.69678056 0.39108056
1.00000000 0.72154200 0.36702052
1.00000000 0.74570972 0.34316474
1.00000000 0.76921427 0.31955928
1.00000000 0.79198605 0.29625019
1.00000000 0.81395561 0.27328348
1.00000000 0.83505332 0.25070521
1.00000000 0.85520971 0.22856140
1.00000000 0.87435526 0.20689811
1.00000000 0.89242041 0.18576136
1.00000000 0.90933561 0.16519719
1.00000000 0.92503136 0.14525166
1.00000000 0.93943816 0.12597077
1.00000000 0.95248640 0.10740058
1.00000000 0.96410662 0.08958713
1.00000000 0.97422922 0.07257645
1.00000000 0.98278469 0.05641457
1.00000000 0.98970354 0.04114755
1.00000000 0.99491620 0.02682141
1.00000000 0.99835312 0.01348220
1.00000000 0.99994487 0.00117594
1.00000000 0.99311066 0.00000000
1.00000000 0.98414344 0.00000000
1.00000000 0.97385138 0.00000000
1.00000000 0.96229023 0.00000000
1.00000000 0.94951576 0.00000000
1.00000000 0.93558377 0.00000000
1.00000000 0.92055005 0.00000000
1.00000000 0.90447026 0.00000000
1.00000000 0.88740033 0.00000000
1.00000000 0.86939591 0.00000000
1.00000000 0.69585919 0.39196900
1.00000000 0.72064114 0.36790231
1.00000000 0.74483192 0.34403822
1.00000000 0.76836210 0.32042274
1.00000000 0.79116207 0.29710191
1.00000000 0.81316239 0.27412182
1.00000000 0.83429343 0.25152844
1.00000000 0.85448569 0.22936782
1.00000000 0.87366962 0.20768604
1.00000000 0.89177579 0.18652911
1.00000000 0.90873450 0.16594306
1.00000000 0.92447639 0.14597395
1.00000000 0.93893176 0.12666780
1.00000000 0.95203125 0.10807064
1.00000000 0.96370518 0.09022853
1.00000000 0.97388417 0.07318750
1.00000000 0.98249853 0.05699359
1.00000000 0.98947883 0.04169282
1.00000000 0.99475545 0.02733126
1.00000000 0.99825895 0.01395492
1.00000000 0.99991977 0.00160984
1.00000000 0.99341458 0.00000000
1.00000000 0.98449713 0.00000000
1.00000000 0.97425282 0.00000000
1.00000000 0.96273738 0.00000000
1.00000000 0.95000660 0.00000000
1.00000000 0.93611616 0.00000000
1.00000000 0.92112195 0.00000000
1.00000000 0.90507972 0.00000000
1.00000000 0.88804519 0.00000000
1.00000000 0.87007415 0.00000000
1.00000000 0.85122240 0.00000000
1.00000000 0.83154565 0.00000000
1.00000000 0.74395323 0.34491202
1.00000000 0.76750898 0.32128659
1.00000000 0.79033703 0.29795411
1.00000000 0.81236798 0.27496067
1.00000000 0.83353221 0.25235224
1.00000000 0.85376024 0.23017490
1.00000000 0.87298256 0.20847468
1.00000000 0.89112955 0.18729763
1.00000000 0.90813178 0.16668975
1.00000000 0.92391962 0.14669713
1.00000000 0.93842357 0.12736577
1.00000000 0.95157415 0.10874172
1.00000000 0.96330178 0.09087102
1.00000000 0.97353697 0.07379970
1.00000000 0.98221010 0.05757380
1.00000000 0.98925173 0.04223937
1.00000000 0.99459231 0.02784243
1.00000000 0.99816227 0.01442903
1.00000000 0.99989212 0.00204521
1.00000000 0.99371660 0.00000000
1.00000000 0.98484910 0.00000000
1.00000000 0.97465259 0.00000000
1.00000000 0.96318293 0.00000000
1.00000000 0.95049584 0.00000000
1.00000000 0.93664712 0.00000000
1.00000000 0.92169249 0.00000000
1.00000000 0.90568781 0.00000000
1.00000000 0.88868880 0.00000000
1.00000000 0.87075126 0.00000000
1.00000000 0.85193092 0.00000000
1.00000000 0.83228350 0.00000000
1.00000000 0.81186485 0.00000000
1.00000000 0.79073077 0.00000000
1.00000000 0.78951091 0.29880679
1.00000000 0.81157237 0.27580002
1.00000000 0.83276975 0.25317663
1.00000000 0.85303348 0.23098262
1.00000000 0.87229401 0.20926403
1.00000000 0.89048177 0.18806691
1.00000000 0.90752733 0.16743729
1.00000000 0.92336112 0.14742121
1.00000000 0.93791354 0.12806471
1.00000000 0.95111513 0.10941382
1.00000000 0.96289635 0.09151459
1.00000000 0.97318769 0.07441305
1.00000000 0.98191953 0.05815523
1.00000000 0.98902243 0.04278718
1.00000000 0.99442679 0.02835494
1.00000000 0.99806315 0.01490454
1.00000000 0.99986190 0.00248202
1.00000000 0.99401677 0.00000000
1.00000000 0.98519921 0.00000000
1.00000000 0.97505057 0.00000000
1.00000000 0.96362674 0.00000000
1.00000000 0.95098346 0.00000000
1.00000000 0.93717653 0.00000000
1.00000000 0.92226166 0.00000000
1.00000000 0.90629458 0.00000000
1.00000000 0.88933116 0.00000000
1.00000000 0.87142712 0.00000000
1.00000000 0.85263824 0.00000000
1.00000000 0.83302033 0.00000000
1.00000000 0.81262910 0.00000000
1.00000000 0.79152030 0.00000000
1.00000000 0.76974976 0.00000000
1.00000000 0.74737322 0.00000000
1.00000000 0.83200604 0.25400162
1.00000000 0.85230535 0.23179097
1.00000000 0.87160403 0.21005408
1.00000000 0.88983250 0.18883696
1.00000000 0.90692127 0.16818565
1.00000000 0.92280084 0.14814618
1.00000000 0.93740165 0.12876460
1.00000000 0.95065421 0.11008694
1.00000000 0.96248889 0.09215923
1.00000000 0.97283626 0.07502753
1.00000000 0.98162675 0.05873786
1.00000000 0.98879075 0.04333626
1.00000000 0.99425888 0.02886878
1.00000000 0.99796152 0.01538144
1.00000000 0.99982911 0.00292029
1.00000000 0.99431509 0.00000000
1.00000000 0.98554748 0.00000000
1.00000000 0.97544688 0.00000000
1.00000000 0.96406901 0.00000000
1.00000000 0.95146960 0.00000000
1.00000000 0.93770444 0.00000000
1.00000000 0.92282933 0.00000000
1.00000000 0.90689999 0.00000000
1.00000000 0.88997227 0.00000000
1.00000000 0.87210184 0.00000000
1.00000000 0.85334456 0.00000000
1.00000000 0.83375609 0.00000000
1.00000000 0.81339228 0.00000000
1.00000000 0.79230893 0.00000000
1.00000000 0.77056175 0.00000000
1.00000000 0.74820650 0.00000000
1.00000000 0.72529900 0.00000000
1.00000000 0.70189494 0.00000000
1.00000000 0.87091255 0.21084484
1.00000000 0.88918167 0.18960778
1.00000000 0.90631360 0.16893484
1.00000000 0.92223889 0.14887205
1.00000000 0.93688798 0.12946545
1.00000000 0.95019138 0.11076107
1.00000000 0.96207947 0.09280496
1.00000000 0.97248274 0.07564316
1.00000000 0.98133171 0.05932169
1.00000000 0.98855686 0.04388661
1.00000000 0.99408859 0.02938394
1.00000000 0.99785739 0.01585973
1.00000000 0.99979371 0.00336001
1.00000000 0.99461150 0.00000000
1.00000000 0.98589402 0.00000000
1.00000000 0.97584146 0.00000000
1.00000000 0.96450955 0.00000000
1.00000000 0.95195413 0.00000000
1.00000000 0.93823087 0.00000000
1.00000000 0.92339557 0.00000000
1.00000000 0.90750408 0.00000000
1.00000000 0.89061207 0.00000000
1.00000000 0.87277532 0.00000000
1.00000000 0.85404968 0.00000000
1.00000000 0.83449084 0.00000000
1.00000000 0.81415457 0.00000000
1.00000000 0.79309666 0.00000000
1.00000000 0.77137291 0.00000000
1.00000000 0.74903905 0.00000000
1.00000000 0.72615087 0.00000000
1.00000000 0.70276415 0.00000000
1.00000000 0.67893457 0.00000000
