Anais_Major/Anais Major.cube
# VEGAS Pro LUT
TITLE "Anais Major"
LUT_3D_SIZE 9
1.00000000 0.00000000 1.00000000
1.00000000 0.02860041 0.97450155
1.00000000 0.08153497 0.92987037
1.00000000 0.15435362 0.86905295
1.00000000 0.24260636 0.79499573
1.00000000 0.34184313 0.71064502
1.00000000 0.44761389 0.61894739
1.00000000 0.55546862 0.52284914
1.00000000 0.66095734 0.42529675
1.00000000 0.07920799 0.93181717
1.00000000 0.15137397 0.87154299
1.00000000 0.23913772 0.79792064
1.00000000 0.33804926 0.71389645
1.00000000 0.44365850 0.62241691
1.00000000 0.55151540 0.52642834
1.00000000 0.65717000 0.42887723
1.00000000 0.75617218 0.33271000
1.00000000 0.84407198 0.24087305
1.00000000 0.23568420 0.80083150
1.00000000 0.33426446 0.71713781
1.00000000 0.43970612 0.62588030
1.00000000 0.54755920 0.53000540
1.00000000 0.65337366 0.43245959
1.00000000 0.75269943 0.33618924
1.00000000 0.84108651 0.24414079
1.00000000 0.91408485 0.15926063
1.00000000 0.96724445 0.08449521
1.00000000 0.43575704 0.62933743
1.00000000 0.54360026 0.53358024
1.00000000 0.64956856 0.43604368
1.00000000 0.74921185 0.33967420
1.00000000 0.83808023 0.24741822
1.00000000 0.91172355 0.16222215
1.00000000 0.96569186 0.08703241
1.00000000 0.99553508 0.02479541
1.00000000 0.98271066 0.00000000
1.00000000 0.64575487 0.43962935
1.00000000 0.74570972 0.34316474
1.00000000 0.83505332 0.25070521
1.00000000 0.90933561 0.16519719
1.00000000 0.96410662 0.08958713
1.00000000 0.99491620 0.02682141
1.00000000 0.98414344 0.00000000
1.00000000 0.93558377 0.00000000
1.00000000 0.86939591 0.00000000
1.00000000 0.83200604 0.25400162
1.00000000 0.90692127 0.16818565
1.00000000 0.96248889 0.09215923
1.00000000 0.99425888 0.02886878
1.00000000 0.98554748 0.00000000
1.00000000 0.93770444 0.00000000
1.00000000 0.87210184 0.00000000
1.00000000 0.79230893 0.00000000
1.00000000 0.70189494 0.00000000
1.00000000 0.96083903 0.09474858
1.00000000 0.99356329 0.03093737
1.00000000 0.98692268 0.00000000
1.00000000 0.93980110 0.00000000
1.00000000 0.87478858 0.00000000
1.00000000 0.79545450 0.00000000
1.00000000 0.70536804 0.00000000
1.00000000 0.60809839 0.00000000
1.00000000 0.50721490 0.00000000
1.00000000 0.98826885 0.00000000
1.00000000 0.94187349 0.00000000
1.00000000 0.87745595 0.00000000
1.00000000 0.79858553 0.00000000
1.00000000 0.70883137 0.00000000
1.00000000 0.61176276 0.00000000
1.00000000 0.51094896 0.00000000
1.00000000 0.40995920 0.00000000
1.00000000 0.31236267 0.00000000
1.00000000 0.88010377 0.00000000
1.00000000 0.80170178 0.00000000
1.00000000 0.71228480 0.00000000
1.00000000 0.61542207 0.00000000
1.00000000 0.51468283 0.00000000
1.00000000 0.41363627 0.00000000
1.00000000 0.31585166 0.00000000
1.00000000 0.22489825 0.00000000
1.00000000 0.14434527 0.00000000
1.00000000 0.00775103 0.99272245
1.00000000 0.04615423 0.95958167
1.00000000 0.10719491 0.90843165
1.00000000 0.18642302 0.84221876
1.00000000 0.27938852 0.76388937
1.00000000 0.38164142 0.67638999
1.00000000 0.48873162 0.58266699
1.00000000 0.59620917 0.48566678
1.00000000 0.69962394 0.38833579
1.00000000 0.10459977 0.91059834
1.00000000 0.18323763 0.84488738
1.00000000 0.27577659 0.76695156
1.00000000 0.37776664 0.67973733
1.00000000 0.48475775 0.58619106
1.00000000 0.59229988 0.48925924
1.00000000 0.69594300 0.39188823
1.00000000 0.79123706 0.29702446
1.00000000 0.87373203 0.20761438
1.00000000 0.27217746 0.77000123
1.00000000 0.37389866 0.68307608
1.00000000 0.48078460 0.58971059
1.00000000 0.58838528 0.49285111
1.00000000 0.69225073 0.39544407
1.00000000 0.78793079 0.30043587
1.00000000 0.87097549 0.21077293
1.00000000 0.93693477 0.12940170
1.00000000 0.98135865 0.05926857
1.00000000 0.47681242 0.59322542
1.00000000 0.58446568 0.49644226
1.00000000 0.68854737 0.39900315
1.00000000 0.78460741 0.30385447
1.00000000 0.86819577 0.21394269
1.00000000 0.93486249 0.13221420
1.00000000 0.98015749 0.06161544
1.00000000 0.99963069 0.00509280
1.00000000 0.96621585 0.00000000
1.00000000 0.68483311 0.40256530
1.00000000 0.78126711 0.30728018
1.00000000 0.86539316 0.21712354
1.00000000 0.93276125 0.13504179
1.00000000 0.97892135 0.06398136
1.00000000 0.99942338 0.00688867
1.00000000 0.96793550 0.00000000
1.00000000 0.91223371 0.00000000
1.00000000 0.84026450 0.00000000
1.00000000 0.86256790 0.22031531
1.00000000 0.93063134 0.13788429
1.00000000 0.97765052 0.06636619
1.00000000 0.99917537 0.00870743
1.00000000 0.96962827 0.00000000
1.00000000 0.91459298 0.00000000
1.00000000 0.84315908 0.00000000
1.00000000 0.75889564 0.00000000
1.00000000 0.66537201 0.00000000
1.00000000 0.97634518 0.06876977
1.00000000 0.99888676 0.01054893
1.00000000 0.97129399 0.00000000
1.00000000 0.91693014 0.00000000
1.00000000 0.84603626 0.00000000
1.00000000 0.76218158 0.00000000
1.00000000 0.66893536 0.00000000
1.00000000 0.56986690 0.00000000
1.00000000 0.46854535 0.00000000
1.00000000 0.97293258 0.00000000
1.00000000 0.91924489 0.00000000
1.00000000 0.84889585 0.00000000
1.00000000 0.76545477 0.00000000
1.00000000 0.67249084 0.00000000
1.00000000 0.57357335 0.00000000
1.00000000 0.47227141 0.00000000
1.00000000 0.37215438 0.00000000
1.00000000 0.27679148 0.00000000
1.00000000 0.85173780 0.00000000
1.00000000 0.76871508 0.00000000
1.00000000 0.67603827 0.00000000
1.00000000 0.57727653 0.00000000
1.00000000 0.47599912 0.00000000
1.00000000 0.37577525 0.00000000
1.00000000 0.28017420 0.00000000
1.00000000 0.19276516 0.00000000
1.00000000 0.11711740 0.00000000
1.00000000 0.01943971 0.98239857
1.00000000 0.06699881 0.94204390
1.00000000 0.13549872 0.88480324
1.00000000 0.22048938 0.81362319
1.00000000 0.31752080 0.73145002
1.00000000 0.42214289 0.64123017
1.00000000 0.52990568 0.54591018
1.00000000 0.63635910 0.44843629
1.00000000 0.73705310 0.35175505
1.00000000 0.13265921 0.88717413
1.00000000 0.21712205 0.81645465
1.00000000 0.31378934 0.73463368
1.00000000 0.41821101 0.64465773
1.00000000 0.52593708 0.54947311
1.00000000 0.63251752 0.45202631
1.00000000 0.73350227 0.35526368
1.00000000 0.82444131 0.26213172
1.00000000 0.90088463 0.17557681
1.00000000 0.31006837 0.73780638
1.00000000 0.41428363 0.64807820
1.00000000 0.52196699 0.55303299
1.00000000 0.62866843 0.45561722
1.00000000 0.72993785 0.35877723
1.00000000 0.82132530 0.26545951
1.00000000 0.89838076 0.17861041
1.00000000 0.95665413 0.10117640
1.00000000 0.99169534 0.03610390
1.00000000 0.51799554 0.55658972
1.00000000 0.62481195 0.45920891
1.00000000 0.72636008 0.36229554
1.00000000 0.81818992 0.26879603
1.00000000 0.89585149 0.18165675
1.00000000 0.95489466 0.10382417
1.00000000 0.99086946 0.03824468
1.00000000 0.99144876 0.00000000
1.00000000 0.94685656 0.00000000
1.00000000 0.72276914 0.36581847
1.00000000 0.81503534 0.27214116
1.00000000 0.89329696 0.18471569
1.00000000 0.95310396 0.10648852
1.00000000 0.99000627 0.04040604
1.00000000 0.99269325 0.00000000
1.00000000 0.94884396 0.00000000
1.00000000 0.88651890 0.00000000
1.00000000 0.80928725 0.00000000
1.00000000 0.89071751 0.18778709
1.00000000 0.95128226 0.10916930
1.00000000 0.98910606 0.04258783
1.00000000 0.99390787 0.00000000
1.00000000 0.95080632 0.00000000
1.00000000 0.88909775 0.00000000
1.00000000 0.81235129 0.00000000
1.00000000 0.72413623 0.00000000
1.00000000 0.62802178 0.00000000
1.00000000 0.98816907 0.04478990
1.00000000 0.99509245 0.00000000
1.00000000 0.95274353 0.00000000
1.00000000 0.89165628 0.00000000
1.00000000 0.81539983 0.00000000
1.00000000 0.72754341 0.00000000
1.00000000 0.63165635 0.00000000
1.00000000 0.53130782 0.00000000
1.00000000 0.43006712 0.00000000
1.00000000 0.95465541 0.00000000
1.00000000 0.89419425 0.00000000
1.00000000 0.81843263 0.00000000
1.00000000 0.73093975 0.00000000
1.00000000 0.63528490 0.00000000
1.00000000 0.53503728 0.00000000
1.00000000 0.43376613 0.00000000
1.00000000 0.33504069 0.00000000
1.00000000 0.24243023 0.00000000
1.00000000 0.82144952 0.00000000
1.00000000 0.73432499 0.00000000
1.00000000 0.63890719 0.00000000
1.00000000 0.53876531 0.00000000
1.00000000 0.43746856 0.00000000
1.00000000 0.33858624 0.00000000
1.00000000 0.24568757 0.00000000
1.00000000 0.16234177 0.00000000
1.00000000 0.09211808 0.00000000
1.00000000 0.03481939 0.96919173
1.00000000 0.09088749 0.92205143
1.00000000 0.16619974 0.85914856
1.00000000 0.25630608 0.78342956
1.00000000 0.35675648 0.69784093
1.00000000 0.46310094 0.60532898
1.00000000 0.57088935 0.50884026
1.00000000 0.67567182 0.41132104
1.00000000 0.77299815 0.31571788
1.00000000 0.16313969 0.86170781
1.00000000 0.25278062 0.78640813
1.00000000 0.35292929 0.70113039
1.00000000 0.45913577 0.60882097
1.00000000 0.56694990 0.51242632
1.00000000 0.67192179 0.41489282
1.00000000 0.76960129 0.31916693
1.00000000 0.85553837 0.22819507
1.00000000 0.92528307 0.14492364
1.00000000 0.34911034 0.70441031
1.00000000 0.45517278 0.61230737
1.00000000 0.56300664 0.51601082
1.00000000 0.66816187 0.41846702
1.00000000 0.76618850 0.32262242
1.00000000 0.85263646 0.23142347
1.00000000 0.92305571 0.14781654
1.00000000 0.97299623 0.07474808
1.00000000 0.99800801 0.01516450
1.00000000 0.55905974 0.51959360
1.00000000 0.66439235 0.42204350
1.00000000 0.76276010 0.32608423
1.00000000 0.84971285 0.23466213
1.00000000 0.92080063 0.15072370
1.00000000 0.97157341 0.07721533
1.00000000 0.99758112 0.01708345
1.00000000 0.97683799 0.00000000
1.00000000 0.92483056 0.00000000
1.00000000 0.75931621 0.32955214
1.00000000 0.84676778 0.23791094
1.00000000 0.91851807 0.15364498
1.00000000 0.97011703 0.07970069
1.00000000 0.99711472 0.01902449
1.00000000 0.97838122 0.00000000
1.00000000 0.92706662 0.00000000
1.00000000 0.85863715 0.00000000
1.00000000 0.77666193 0.00000000
1.00000000 0.91620821 0.15658022
1.00000000 0.96862739 0.08220401
1.00000000 0.99660897 0.02098748
1.00000000 0.97989637 0.00000000
1.00000000 0.92927957 0.00000000
1.00000000 0.86141646 0.00000000
1.00000000 0.77987635 0.00000000
1.00000000 0.68822849 0.00000000
1.00000000 0.59004211 0.00000000
1.00000000 0.99606413 0.02297227
1.00000000 0.98138344 0.00000000
1.00000000 0.93146914 0.00000000
1.00000000 0.86417729 0.00000000
1.00000000 0.78307712 0.00000000
1.00000000 0.69173789 0.00000000
1.00000000 0.59372878 0.00000000
1.00000000 0.49261910 0.00000000
1.00000000 0.39197806 0.00000000
1.00000000 0.93363518 0.00000000
1.00000000 0.86691940 0.00000000
1.00000000 0.78626400 0.00000000
1.00000000 0.69523823 0.00000000
1.00000000 0.59741127 0.00000000
1.00000000 0.49635240 0.00000000
1.00000000 0.39563087 0.00000000
1.00000000 0.29881591 0.00000000
1.00000000 0.20947674 0.00000000
1.00000000 0.78943688 0.00000000
1.00000000 0.69872934 0.00000000
1.00000000 0.60108936 0.00000000
1.00000000 0.50008619 0.00000000
1.00000000 0.39928898 0.00000000
1.00000000 0.30226707 0.00000000
1.00000000 0.21258962 0.00000000
1.00000000 0.13382591 0.00000000
1.00000000 0.06954516 0.00000000
1.00000000 0.05364343 0.95326525
1.00000000 0.11757366 0.89976758
1.00000000 0.19905135 0.83163077
1.00000000 0.29362646 0.75180125
1.00000000 0.39684898 0.66322541
1.00000000 0.50426888 0.56884968
1.00000000 0.61143613 0.47162053
1.00000000 0.71390063 0.37448433
1.00000000 0.80721241 0.28038749
1.00000000 0.19579454 0.83436269
1.00000000 0.28996664 0.75491112
1.00000000 0.39294988 0.66660488
1.00000000 0.50029421 0.57239032
1.00000000 0.60754955 0.47521392
1.00000000 0.71026593 0.37802210
1.00000000 0.80399328 0.28376123
1.00000000 0.88428164 0.19537780
1.00000000 0.94668084 0.11581818
1.00000000 0.38905668 0.66997629
1.00000000 0.49631941 0.57592690
1.00000000 0.60365689 0.47880730
1.00000000 0.70661908 0.38156381
1.00000000 0.80075598 0.28714293
1.00000000 0.88161755 0.19849107
1.00000000 0.94475377 0.11855461
1.00000000 0.98571455 0.05028001
1.00000000 0.99787170 0.00000000
1.00000000 0.59975827 0.48240048
1.00000000 0.70296031 0.38510936
1.00000000 0.79750073 0.29053244
1.00000000 0.87892956 0.20161612
1.00000000 0.94279671 0.12130684
1.00000000 0.98465216 0.05255100
1.00000000 0.99895126 0.00000000
1.00000000 0.95923948 0.00000000
1.00000000 0.90033567 0.00000000
1.00000000 0.79422772 0.29392961
1.00000000 0.87621772 0.20475285
1.00000000 0.94080979 0.12407470
1.00000000 0.98355389 0.05484162
1.00000000 1.00000000 0.00000000
1.00000000 0.96106231 0.00000000
1.00000000 0.90280133 0.00000000
1.00000000 0.82878625 0.00000000
1.00000000 0.74258637 0.00000000
1.00000000 0.93879336 0.12685806
1.00000000 0.98242009 0.05715171
1.00000000 0.99991250 0.00172843
1.00000000 0.96285903 0.00000000
1.00000000 0.90524572 0.00000000
1.00000000 0.83174700 0.00000000
1.00000000 0.74593210 0.00000000
1.00000000 0.65137029 0.00000000
1.00000000 0.55163080 0.00000000
1.00000000 0.99978364 0.00348019
1.00000000 0.96462941 0.00000000
1.00000000 0.90766859 0.00000000
1.00000000 0.83469105 0.00000000
1.00000000 0.74926597 0.00000000
1.00000000 0.65496272 0.00000000
1.00000000 0.55535048 0.00000000
1.00000000 0.45399848 0.00000000
1.00000000 0.35447598 0.00000000
1.00000000 0.91006976 0.00000000
1.00000000 0.83761823 0.00000000
1.00000000 0.75258785 0.00000000
1.00000000 0.65854800 0.00000000
1.00000000 0.55906785 0.00000000
1.00000000 0.45771658 0.00000000
1.00000000 0.35806352 0.00000000
1.00000000 0.26367787 0.00000000
1.00000000 0.17812884 0.00000000
1.00000000 0.75589758 0.00000000
1.00000000 0.66212595 0.00000000
1.00000000 0.56278265 0.00000000
1.00000000 0.46143702 0.00000000
1.00000000 0.36165822 0.00000000
1.00000000 0.26701555 0.00000000
1.00000000 0.18107818 0.00000000
1.00000000 0.10741540 0.00000000
1.00000000 0.04959643 0.00000000
1.00000000 0.07566520 0.93478239
1.00000000 0.14681065 0.87535566
1.00000000 0.23380689 0.80241323
1.00000000 0.33220389 0.71890146
1.00000000 0.43755165 0.62776679
1.00000000 0.54540008 0.53195560
1.00000000 0.65129918 0.43441436
1.00000000 0.75079894 0.33808944
1.00000000 0.83944929 0.24592729
1.00000000 0.23037712 0.80530208
1.00000000 0.32843354 0.72212690
1.00000000 0.43360442 0.63122046
1.00000000 0.54143971 0.53552914
1.00000000 0.64748937 0.43799931
1.00000000 0.74730343 0.34157744
1.00000000 0.83643174 0.24920994
1.00000000 0.91042435 0.16384323
1.00000000 0.96483123 0.08842373
1.00000000 0.42966080 0.63466769
1.00000000 0.53747690 0.53910017
1.00000000 0.64367115 0.44158578
1.00000000 0.74379337 0.34507096
1.00000000 0.83339369 0.25250208
1.00000000 0.90802199 0.16682561
1.00000000 0.96322823 0.09098795
1.00000000 0.99456239 0.02793552
1.00000000 0.98491287 0.00000000
1.00000000 0.63984466 0.44517359
1.00000000 0.74026912 0.34856978
1.00000000 0.83033538 0.25580356
1.00000000 0.90559334 0.16982131
1.00000000 0.96159297 0.09356948
1.00000000 0.99388421 0.02999448
1.00000000 0.98630118 0.00000000
1.00000000 0.93885106 0.00000000
1.00000000 0.87356973 0.00000000
1.00000000 0.82725704 0.25911421
1.00000000 0.90313864 0.17283018
1.00000000 0.95992559 0.09616816
1.00000000 0.99316788 0.03207459
1.00000000 0.98766059 0.00000000
1.00000000 0.94093448 0.00000000
1.00000000 0.87624592 0.00000000
1.00000000 0.79716414 0.00000000
1.00000000 0.70725834 0.00000000
1.00000000 0.95822632 0.09878386
1.00000000 0.99241370 0.03417570
1.00000000 0.98899084 0.00000000
1.00000000 0.94299364 0.00000000
1.00000000 0.87890267 0.00000000
1.00000000 0.80028713 0.00000000
1.00000000 0.71071631 0.00000000
1.00000000 0.61375940 0.00000000
1.00000000 0.51298565 0.00000000
1.00000000 0.99029171 0.00000000
1.00000000 0.94502825 0.00000000
1.00000000 0.88153970 0.00000000
1.00000000 0.80339533 0.00000000
1.00000000 0.71416426 0.00000000
1.00000000 0.61741585 0.00000000
1.00000000 0.51671928 0.00000000
1.00000000 0.41564381 0.00000000
1.00000000 0.31775868 0.00000000
1.00000000 0.88415694 0.00000000
1.00000000 0.80648845 0.00000000
1.00000000 0.71760207 0.00000000
1.00000000 0.62106699 0.00000000
1.00000000 0.52045244 0.00000000
1.00000000 0.41932765 0.00000000
1.00000000 0.32126188 0.00000000
1.00000000 0.22982438 0.00000000
1.00000000 0.14858437 0.00000000
1.00000000 0.72102952 0.00000000
1.00000000 0.62471259 0.00000000
1.00000000 0.52418482 0.00000000
1.00000000 0.42301559 0.00000000
1.00000000 0.32477406 0.00000000
1.00000000 0.23302947 0.00000000
1.00000000 0.15135106 0.00000000
1.00000000 0.08330806 0.00000000
1.00000000 0.03246972 0.00000000
1.00000000 0.10063804 0.91390646
1.00000000 0.17835183 0.84897906
1.00000000 0.27021974 0.77165931
1.00000000 0.37179175 0.68489361
1.00000000 0.47861785 0.59162837
1.00000000 0.58624792 0.49481001
1.00000000 0.69023204 0.39738497
1.00000000 0.78612012 0.30229968
1.00000000 0.86946213 0.21250051
1.00000000 0.26664081 0.77468926
1.00000000 0.36793464 0.68821883
1.00000000 0.47464627 0.59514052
1.00000000 0.58232564 0.49840069
1.00000000 0.68652272 0.40094575
1.00000000 0.78278750 0.30572218
1.00000000 0.86666989 0.21567634
1.00000000 0.93371993 0.13375467
1.00000000 0.97948754 0.06290359
1.00000000 0.47067603 0.59864771
1.00000000 0.57839864 0.50199038
1.00000000 0.68280268 0.40450957
1.00000000 0.77943814 0.30915168
1.00000000 0.86385494 0.21886316
1.00000000 0.93160307 0.13659041
1.00000000 0.97823244 0.06527984
1.00000000 0.99929315 0.00787789
1.00000000 0.96886218 0.00000000
1.00000000 0.67907214 0.40807626
1.00000000 0.77607220 0.31258807
1.00000000 0.86101741 0.22206083
1.00000000 0.92945755 0.13944097
1.00000000 0.97694278 0.06767491
1.00000000 0.99902296 0.00970907
1.00000000 0.97054023 0.00000000
1.00000000 0.91587055 0.00000000
1.00000000 0.84473062 0.00000000
1.00000000 0.85815752 0.22526920
1.00000000 0.92728376 0.14230624
1.00000000 0.97561872 0.07008867
1.00000000 0.99871236 0.01156292
1.00000000 0.97219115 0.00000000
1.00000000 0.91819549 0.00000000
1.00000000 0.84759820 0.00000000
1.00000000 0.76396853 0.00000000
1.00000000 0.67087573 0.00000000
1.00000000 0.97426045 0.07252095
1.00000000 0.99836159 0.01343929
1.00000000 0.97381479 0.00000000
1.00000000 0.92049795 0.00000000
1.00000000 0.85044819 0.00000000
1.00000000 0.76723474 0.00000000
1.00000000 0.67442679 0.00000000
1.00000000 0.57559365 0.00000000
1.00000000 0.47430453 0.00000000
1.00000000 0.97541094 0.00000000
1.00000000 0.92277777 0.00000000
1.00000000 0.85328037 0.00000000
1.00000000 0.77048796 0.00000000
1.00000000 0.67796975 0.00000000
1.00000000 0.57929504 0.00000000
1.00000000 0.47803301 0.00000000
1.00000000 0.37775290 0.00000000
1.00000000 0.28202400 0.00000000
1.00000000 0.85609454 0.00000000
1.00000000 0.77372801 0.00000000
1.00000000 0.68150437 0.00000000
1.00000000 0.58299291 0.00000000
1.00000000 0.48176283 0.00000000
1.00000000 0.38138336 0.00000000
1.00000000 0.28542379 0.00000000
1.00000000 0.19745328 0.00000000
1.00000000 0.12104111 0.00000000
1.00000000 0.68503046 0.00000000
1.00000000 0.58668709 0.00000000
1.00000000 0.48549378 0.00000000
1.00000000 0.38501981 0.00000000
1.00000000 0.28883436 0.00000000
1.00000000 0.20050672 0.00000000
1.00000000 0.12360609 0.00000000
1.00000000 0.06170173 0.00000000
1.00000000 0.01836287 0.00000000
1.00000000 0.12831533 0.89080071
1.00000000 0.21195056 0.82080096
1.00000000 0.30804324 0.73953223
1.00000000 0.41214338 0.64994091
1.00000000 0.51980090 0.55497342
1.00000000 0.62656575 0.45757625
1.00000000 0.72798800 0.36069572
1.00000000 0.81961751 0.26727834
1.00000000 0.89700431 0.18027048
1.00000000 0.30433896 0.74268752
1.00000000 0.40822333 0.65335017
1.00000000 0.51582885 0.55852830
1.00000000 0.62270540 0.46116829
1.00000000 0.72440302 0.36421657
1.00000000 0.81647164 0.27061957
1.00000000 0.89446121 0.18332371
1.00000000 0.95392179 0.10527540
1.00000000 0.99040323 0.03942107
1.00000000 0.51185578 0.56207973
1.00000000 0.61883801 0.46476090
1.00000000 0.72080499 0.36774197
1.00000000 0.81330669 0.27396935
1.00000000 0.89189309 0.18638946
1.00000000 0.95211416 0.10794874
1.00000000 0.98951983 0.04159359
1.00000000 0.99335945 0.00000000
1.00000000 0.94991744 0.00000000
1.00000000 0.71719414 0.37127176
1.00000000 0.81012291 0.27732748
1.00000000 0.88930011 0.18946758
1.00000000 0.95027566 0.11063842
1.00000000 0.98859954 0.04378645
1.00000000 0.99455774 0.00000000
1.00000000 0.95186615 0.00000000
1.00000000 0.89049584 0.00000000
1.00000000 0.81401604 0.00000000
1.00000000 0.88668245 0.19255792
1.00000000 0.94840652 0.11334433
1.00000000 0.98764259 0.04599952
1.00000000 0.99572587 0.00000000
1.00000000 0.95378953 0.00000000
1.00000000 0.89304316 0.00000000
1.00000000 0.81705600 0.00000000
1.00000000 0.72939730 0.00000000
1.00000000 0.63363630 0.00000000
1.00000000 0.98664916 0.04823263
1.00000000 0.99686372 0.00000000
1.00000000 0.95568746 0.00000000
1.00000000 0.89556986 0.00000000
1.00000000 0.82008016 0.00000000
1.00000000 0.73278761 0.00000000
1.00000000 0.63726145 0.00000000
1.00000000 0.53707093 0.00000000
1.00000000 0.43578523 0.00000000
1.00000000 0.95755976 0.00000000
1.00000000 0.89807576 0.00000000
1.00000000 0.82308835 0.00000000
1.00000000 0.73616678 0.00000000
1.00000000 0.64088029 0.00000000
1.00000000 0.54079813 0.00000000
1.00000000 0.43948945 0.00000000
1.00000000 0.34052360 0.00000000
1.00000000 0.24746977 0.00000000
1.00000000 0.82608038 0.00000000
1.00000000 0.73953462 0.00000000
1.00000000 0.64449263 0.00000000
1.00000000 0.54452366 0.00000000
1.00000000 0.44319689 0.00000000
1.00000000 0.34408161 0.00000000
1.00000000 0.25074703 0.00000000
1.00000000 0.16676238 0.00000000
1.00000000 0.09569693 0.00000000
1.00000000 0.64809835 0.00000000
1.00000000 0.54824734 0.00000000
1.00000000 0.44690731 0.00000000
1.00000000 0.34764740 0.00000000
1.00000000 0.25403693 0.00000000
1.00000000 0.16964507 0.00000000
1.00000000 0.09804109 0.00000000
1.00000000 0.04279421 0.00000000
1.00000000 0.00747369 0.00000000
1.00000000 0.15845041 0.86562860
1.00000000 0.24736020 0.79098475
1.00000000 0.34703079 0.70619529
1.00000000 0.45301214 0.61420667
1.00000000 0.56085420 0.51796532
1.00000000 0.66610694 0.42041755
1.00000000 0.76432037 0.32450992
1.00000000 0.85104448 0.23318875
1.00000000 0.92182910 0.14940050
1.00000000 0.34322491 0.70946026
1.00000000 0.44905293 0.61768425
1.00000000 0.55690539 0.52154714
1.00000000 0.66233230 0.42399526
1.00000000 0.76088351 0.32797506
1.00000000 0.84810913 0.23643295
1.00000000 0.91955900 0.15231538
1.00000000 0.97078317 0.07856875
1.00000000 0.99733162 0.01813947
1.00000000 0.55295330 0.52512705
1.00000000 0.65854824 0.42757502
1.00000000 0.75743133 0.33144626
1.00000000 0.84515238 0.23968722
1.00000000 0.91726154 0.15524431
1.00000000 0.96930861 0.08106392
1.00000000 0.99684370 0.02009250
1.00000000 0.97921115 0.00000000
1.00000000 0.92827654 0.00000000
1.00000000 0.75396401 0.33492339
1.00000000 0.84217459 0.24295139
1.00000000 0.91493690 0.15818711
1.00000000 0.96780092 0.08357697
1.00000000 0.99631661 0.02206740
1.00000000 0.98071098 0.00000000
1.00000000 0.93047678 0.00000000
1.00000000 0.86292464 0.00000000
1.00000000 0.78162396 0.00000000
1.00000000 0.91258532 0.16114366
1.00000000 0.96626025 0.08610775
1.00000000 0.99575055 0.02406402
1.00000000 0.98218262 0.00000000
1.00000000 0.93265355 0.00000000
1.00000000 0.86567533 0.00000000
1.00000000 0.78481716 0.00000000
1.00000000 0.69364828 0.00000000
1.00000000 0.59573793 0.00000000
1.00000000 0.99514568 0.02608220
1.00000000 0.98362577 0.00000000
1.00000000 0.93480670 0.00000000
1.00000000 0.86840719 0.00000000
1.00000000 0.78799641 0.00000000
1.00000000 0.69714361 0.00000000
1.00000000 0.59941804 0.00000000
1.00000000 0.49838898 0.00000000
1.00000000 0.39762557 0.00000000
1.00000000 0.93693608 0.00000000
1.00000000 0.87112010 0.00000000
1.00000000 0.79116154 0.00000000
1.00000000 0.70062965 0.00000000
1.00000000 0.60309368 0.00000000
1.00000000 0.50212288 0.00000000
1.00000000 0.40128648 0.00000000
1.00000000 0.30415371 0.00000000
1.00000000 0.21429379 0.00000000
1.00000000 0.79431236 0.00000000
1.00000000 0.70410621 0.00000000
1.00000000 0.60676467 0.00000000
1.00000000 0.50585699 0.00000000
1.00000000 0.40495244 0.00000000
1.00000000 0.30762017 0.00000000
1.00000000 0.21742944 0.00000000
1.00000000 0.13794951 0.00000000
1.00000000 0.07274961 0.00000000
1.00000000 0.61043084 0.00000000
1.00000000 0.50959116 0.00000000
1.00000000 0.40862319 0.00000000
1.00000000 0.31109625 0.00000000
1.00000000 0.22057958 0.00000000
1.00000000 0.14064236 0.00000000
1.00000000 0.07485387 0.00000000
1.00000000 0.02678334 0.00000000
1.00000000 0.00000000 0.00000000
