Blue_Ocean_Wave/Blue Ocean Wave (Gradient Map Only).cube
# VEGAS Pro LUT
TITLE "Blue Ocean Wave (Gradient Map Only)"
LUT_3D_SIZE 9
0.00000000 0.00000000 0.00000000
0.00000000 0.02174840 0.02723362
0.00000000 0.06192069 0.07753786
0.00000000 0.11697699 0.14648004
0.00000000 0.18337744 0.22962752
0.00000000 0.25758219 0.32254761
0.00000000 0.33605134 0.42080766
0.00000000 0.41524503 0.51997501
0.00000000 0.49162340 0.61561692
0.00000000 0.06015739 0.07532983
0.00000000 0.11472885 0.14366488
0.00000000 0.18077467 0.22636829
0.00000000 0.25475502 0.31900740
0.00000000 0.33313000 0.41714951
0.00000000 0.41235974 0.51636201
0.00000000 0.48890442 0.61221218
0.00000000 0.55922413 0.70026743
0.00000000 0.61977905 0.77609497
0.00000000 0.17818263 0.22312251
0.00000000 0.25193378 0.31547460
0.00000000 0.33020982 0.41349283
0.00000000 0.40947086 0.51274449
0.00000000 0.48617703 0.60879689
0.00000000 0.55678844 0.69721740
0.00000000 0.61776531 0.77357340
0.00000000 0.66556770 0.83343214
0.00000000 0.69665575 0.87236100
0.00000000 0.32729095 0.40983781
0.00000000 0.40657848 0.50912261
0.00000000 0.48344135 0.60537130
0.00000000 0.55433977 0.69415110
0.00000000 0.61573374 0.77102947
0.00000000 0.66408354 0.83157367
0.00000000 0.69584924 0.87135106
0.00000000 0.68730778 0.85969371
0.00000000 0.61046952 0.75673819
0.00000000 0.48069763 0.60193557
0.00000000 0.55187815 0.69106871
0.00000000 0.61368454 0.76846343
0.00000000 0.66257697 0.82968712
0.00000000 0.69501549 0.87030703
0.00000000 0.68913800 0.86212248
0.00000000 0.61410975 0.76162422
0.00000000 0.49905476 0.60771233
0.00000000 0.36301675 0.42816570
0.00000000 0.61161786 0.76587552
0.00000000 0.66104811 0.82777262
0.00000000 0.69415468 0.86922908
0.00000000 0.69088835 0.86444139
0.00000000 0.61769575 0.76643795
0.00000000 0.50377595 0.61399895
0.00000000 0.36817247 0.43490320
0.00000000 0.22992900 0.25692967
0.00000000 0.10808923 0.10785718
0.00000000 0.69326699 0.86811751
0.00000000 0.69255769 0.86664903
0.00000000 0.62122667 0.77117801
0.00000000 0.50846773 0.62024945
0.00000000 0.37332460 0.44164222
0.00000000 0.23484086 0.26313522
0.00000000 0.11206019 0.11250729
0.00000000 0.02402626 0.01753736
0.00000000 0.00525065 0.02822495
0.00000000 0.62470156 0.77584302
0.00000000 0.51312929 0.62646252
0.00000000 0.37847221 0.44838139
0.00000000 0.23977396 0.26937851
0.00000000 0.11607817 0.11723274
0.00000000 0.02642852 0.01972301
0.00000000 0.00448771 0.02564191
0.00000000 0.04344535 0.12384625
0.00000000 0.11218442 0.26684451
0.00000000 0.38361436 0.45511931
0.00000000 0.24472736 0.27565813
0.00000000 0.12014224 0.12203214
0.00000000 0.02890264 0.02202020
0.00000000 0.00378173 0.02314706
0.00000000 0.04140915 0.11931500
0.00000000 0.10927051 0.26102620
0.00000000 0.19506520 0.42791182
0.00000000 0.28649256 0.59960300
0.00000000 0.00589361 0.00738006
0.00000000 0.03508404 0.04393267
0.00000000 0.08134870 0.10186586
0.00000000 0.14114773 0.17674695
0.00000000 0.21094127 0.26414326
0.00000000 0.28718942 0.35962218
0.00000000 0.36635235 0.45875096
0.00000000 0.44489020 0.55709702
0.00000000 0.51926303 0.65022767
0.00000000 0.07938518 0.09940711
0.00000000 0.13874902 0.17374323
0.00000000 0.20823757 0.26075768
0.00000000 0.28431100 0.35601777
0.00000000 0.36342943 0.45509082
0.00000000 0.44205296 0.55354422
0.00000000 0.51664180 0.64694524
0.00000000 0.58365595 0.73086125
0.00000000 0.63955569 0.80085957
0.00000000 0.20554279 0.25738323
0.00000000 0.28143668 0.35241851
0.00000000 0.36050579 0.45142984
0.00000000 0.43921027 0.54998457
0.00000000 0.51401025 0.64365000
0.00000000 0.58136582 0.72799349
0.00000000 0.63773715 0.79858238
0.00000000 0.67958438 0.85098404
0.00000000 0.70336765 0.88076574
0.00000000 0.35758168 0.44776821
0.00000000 0.43636230 0.54641825
0.00000000 0.51136863 0.64034212
0.00000000 0.57906079 0.72510713
0.00000000 0.63589895 0.79628056
0.00000000 0.67834324 0.84942985
0.00000000 0.70285380 0.88012224
0.00000000 0.66386217 0.82838744
0.00000000 0.56978381 0.70217991
0.00000000 0.50871712 0.63702190
0.00000000 0.57674110 0.72220236
0.00000000 0.63404131 0.79395437
0.00000000 0.67707783 0.84784526
0.00000000 0.70231086 0.87944239
0.00000000 0.66646516 0.83187360
0.00000000 0.57392961 0.70773375
0.00000000 0.44862819 0.54077148
0.00000000 0.30960453 0.35876578
0.00000000 0.63216430 0.79160398
0.00000000 0.67578828 0.84623051
0.00000000 0.70173901 0.87872630
0.00000000 0.66899800 0.83526427
0.00000000 0.57803106 0.71322960
0.00000000 0.45359766 0.54735053
0.00000000 0.31474143 0.36540610
0.00000000 0.18050598 0.19517513
0.00000000 0.06993502 0.06443649
0.00000000 0.70113850 0.87797433
0.00000000 0.67145979 0.83855796
0.00000000 0.58208728 0.71866608
0.00000000 0.45854765 0.55390787
0.00000000 0.31988457 0.37206227
0.00000000 0.18514173 0.20090817
0.00000000 0.07336276 0.06822446
0.00000000 0.00359131 0.00179002
0.00000000 0.01636264 0.05994183
0.00000000 0.58609718 0.72404182
0.00000000 0.46347713 0.56044203
0.00000000 0.32503304 0.37873292
0.00000000 0.18980856 0.20669329
0.00000000 0.07684735 0.07210210
0.00000000 0.00519306 0.00273821
0.00000000 0.01504550 0.05650450
0.00000000 0.06680881 0.17418998
0.00000000 0.14366367 0.32890335
0.00000000 0.33018586 0.38541663
0.00000000 0.19450553 0.21252911
0.00000000 0.08038785 0.07606801
0.00000000 0.00687650 0.00381227
0.00000000 0.01377896 0.05314484
0.00000000 0.06438459 0.16907965
0.00000000 0.14053428 0.32279167
0.00000000 0.22992744 0.49391204
0.00000000 0.32026339 0.66207188
0.00000000 0.01478385 0.01851252
0.00000000 0.05090172 0.06373976
0.00000000 0.10274418 0.12865753
0.00000000 0.16677135 0.20883316
0.00000000 0.23944338 0.29983398
0.00000000 0.31722039 0.39722732
0.00000000 0.39656252 0.49658051
0.00000000 0.47392991 0.59346092
0.00000000 0.54578269 0.68343586
0.00000000 0.10059936 0.12597178
0.00000000 0.16424099 0.20566460
0.00000000 0.23665771 0.29634571
0.00000000 0.31430963 0.39358240
0.00000000 0.39365691 0.49294207
0.00000000 0.47115964 0.58999199
0.00000000 0.54327804 0.68029946
0.00000000 0.60647213 0.75943196
0.00000000 0.65720212 0.82295668
0.00000000 0.23387910 0.29286632
0.00000000 0.31140116 0.38994038
0.00000000 0.39074877 0.48930046
0.00000000 0.46838209 0.58651388
0.00000000 0.54076129 0.67714798
0.00000000 0.60434645 0.75677007
0.00000000 0.65559769 0.82094759
0.00000000 0.69097519 0.86524773
0.00000000 0.69630641 0.87158728
0.00000000 0.38783833 0.48565596
0.00000000 0.46559745 0.58302689
0.00000000 0.53823262 0.67398161
0.00000000 0.60220402 0.75408739
0.00000000 0.65397173 0.81891155
0.00000000 0.68999594 0.86402154
0.00000000 0.69768900 0.87339985
0.00000000 0.63298702 0.78696656
0.00000000 0.52443683 0.64154524
0.00000000 0.53569227 0.67080051
0.00000000 0.60004508 0.75138396
0.00000000 0.65232456 0.81684887
0.00000000 0.68899065 0.86276263
0.00000000 0.69898653 0.87509501
0.00000000 0.63626087 0.79136163
0.00000000 0.52898639 0.64761823
0.00000000 0.39620686 0.47164381
0.00000000 0.25696585 0.29121718
0.00000000 0.65065616 0.81475973
0.00000000 0.68795943 0.86147130
0.00000000 0.70019799 0.87667137
0.00000000 0.63947439 0.79567546
0.00000000 0.53350145 0.65364760
0.00000000 0.40132281 0.47836676
0.00000000 0.26198211 0.29761174
0.00000000 0.13452300 0.13916148
0.00000000 0.03798918 0.03079485
0.00000000 0.70132244 0.87812752
0.00000000 0.64262670 0.79990667
0.00000000 0.53798103 0.65963203
0.00000000 0.40642908 0.48508230
0.00000000 0.26701444 0.30403650
0.00000000 0.13878082 0.14427347
0.00000000 0.04077186 0.03357212
0.00000000 0.00134486 0.01313162
0.00000000 0.03284446 0.09989340
0.00000000 0.54242420 0.66557002
0.00000000 0.41152468 0.49178907
0.00000000 0.27206191 0.31049007
0.00000000 0.14307953 0.14945187
0.00000000 0.04362122 0.03645338
0.00000000 0.00096033 0.01113568
0.00000000 0.03103889 0.09571069
0.00000000 0.09381976 0.22991638
0.00000000 0.17700231 0.39338386
0.00000000 0.27712357 0.31697103
0.00000000 0.14741820 0.15469529
0.00000000 0.04653631 0.03943727
0.00000000 0.00063671 0.00923449
0.00000000 0.02927758 0.09159517
0.00000000 0.09107330 0.22433586
0.00000000 0.17372322 0.38708773
0.00000000 0.26492670 0.55948186
0.00000000 0.35238314 0.72114944
0.00000000 0.02647451 0.03315171
0.00000000 0.06900524 0.08640922
0.00000000 0.12591091 0.15766720
0.00000000 0.19365165 0.24249300
0.00000000 0.26868761 0.33645394
0.00000000 0.34747887 0.43511736
0.00000000 0.42648563 0.53405058
0.00000000 0.50216800 0.62882096
0.00000000 0.57098609 0.71499586
0.00000000 0.12360374 0.15477814
0.00000000 0.19100858 0.23918332
0.00000000 0.26583886 0.33288673
0.00000000 0.34455469 0.43145567
0.00000000 0.42361626 0.53045750
0.00000000 0.49948362 0.62545961
0.00000000 0.56861699 0.71202922
0.00000000 0.62747639 0.78573376
0.00000000 0.67252207 0.84214050
0.00000000 0.26299539 0.32932609
0.00000000 0.34163100 0.42779458
0.00000000 0.42074254 0.52685905
0.00000000 0.49679014 0.62208682
0.00000000 0.56623393 0.70904517
0.00000000 0.62553406 0.78330153
0.00000000 0.67115068 0.84042323
0.00000000 0.69954383 0.87597752
0.00000000 0.67719501 0.84622288
0.00000000 0.41786471 0.52325535
0.00000000 0.49408776 0.61870283
0.00000000 0.56383723 0.70604396
0.00000000 0.62357324 0.78084618
0.00000000 0.66975594 0.83867675
0.00000000 0.69884551 0.87510300
0.00000000 0.67940402 0.84917104
0.00000000 0.59573770 0.73697078
0.00000000 0.47548407 0.57637376
0.00000000 0.56142694 0.70302576
0.00000000 0.62159407 0.77836782
0.00000000 0.66833812 0.83690131
0.00000000 0.69811922 0.87419355
0.00000000 0.68153769 0.85201615
0.00000000 0.59958059 0.74212611
0.00000000 0.48033556 0.58281744
0.00000000 0.34284621 0.40186891
0.00000000 0.20615622 0.22705953
0.00000000 0.66689730 0.83509707
0.00000000 0.69736516 0.87324935
0.00000000 0.68359512 0.85475677
0.00000000 0.60337305 0.74721462
0.00000000 0.48516238 0.58923179
0.00000000 0.34800681 0.40858722
0.00000000 0.21094999 0.23305978
0.00000000 0.09303556 0.09042838
0.00000000 0.01330720 0.00847189
0.00000000 0.68557537 0.85739154
0.00000000 0.60711402 0.75223482
0.00000000 0.48996353 0.59561545
0.00000000 0.35316753 0.41531244
0.00000000 0.21576965 0.23910457
0.00000000 0.09681358 0.09477075
0.00000000 0.01534297 0.01008989
0.00000000 0.00876796 0.03914937
0.00000000 0.05401434 0.14695072
0.00000000 0.49473810 0.60196710
0.00000000 0.35832742 0.42204320
0.00000000 0.22061428 0.24519248
0.00000000 0.10064234 0.09919386
0.00000000 0.01745525 0.01182623
0.00000000 0.00778825 0.03623130
0.00000000 0.05178614 0.14213158
0.00000000 0.12379646 0.28989649
0.00000000 0.21151857 0.45915714
0.00000000 0.22548293 0.25132215
0.00000000 0.10452088 0.10369633
0.00000000 0.01964309 0.01367951
0.00000000 0.00686311 0.03339745
0.00000000 0.04959584 0.13736911
0.00000000 0.12079354 0.28395474
0.00000000 0.20815557 0.45278546
0.00000000 0.29938129 0.62349242
0.00000000 0.38217008 0.77570671
0.00000000 0.04076940 0.05105195
0.00000000 0.08919841 0.11169536
0.00000000 0.15065271 0.18864919
0.00000000 0.22159243 0.27748078
0.00000000 0.29847771 0.37375748
0.00000000 0.37776867 0.47304663
0.00000000 0.45592546 0.57091552
0.00000000 0.52940822 0.66293156
0.00000000 0.59467703 0.74466199
0.00000000 0.14820211 0.18558052
0.00000000 0.21885559 0.27405369
0.00000000 0.29558486 0.37013504
0.00000000 0.37485003 0.46939188
0.00000000 0.45311126 0.56739157
0.00000000 0.52682871 0.65970141
0.00000000 0.59246242 0.74188882
0.00000000 0.64647263 0.80952102
0.00000000 0.68531936 0.85816544
0.00000000 0.29269543 0.36651686
0.00000000 0.37193003 0.46573541
0.00000000 0.45029092 0.56385988
0.00000000 0.52423823 0.65645760
0.00000000 0.59023207 0.73909593
0.00000000 0.64473259 0.80734217
0.00000000 0.68419993 0.85676366
0.00000000 0.70370746 0.88118333
0.00000000 0.65009856 0.80993354
0.00000000 0.44746462 0.56032073
0.00000000 0.52163702 0.65320033
0.00000000 0.58798617 0.73628360
0.00000000 0.64297223 0.80513781
0.00000000 0.68305534 0.85533041
0.00000000 0.70452404 0.88221359
0.00000000 0.65303206 0.81386876
0.00000000 0.55316985 0.67993969
0.00000000 0.42398104 0.50820512
0.00000000 0.58572489 0.73345196
0.00000000 0.64119172 0.80290824
0.00000000 0.68188584 0.85386592
0.00000000 0.70426732 0.88189232
0.00000000 0.65590000 0.81771523
0.00000000 0.55747992 0.68570673
0.00000000 0.42903262 0.51487088
0.00000000 0.28960180 0.33298647
0.00000000 0.15823112 0.16783245
0.00000000 0.68069148 0.85237038
0.00000000 0.70380944 0.88131893
0.00000000 0.65870160 0.82147157
0.00000000 0.56174934 0.69142127
0.00000000 0.43406931 0.52152163
0.00000000 0.29470515 0.33955154
0.00000000 0.16270055 0.17328984
0.00000000 0.05709913 0.05051544
0.00000000 0.00000000 0.00340989
0.00000000 0.66143578 0.82513636
0.00000000 0.56597722 0.69708192
0.00000000 0.43909019 0.52815610
0.00000000 0.29981849 0.34613785
0.00000000 0.16720571 0.17880607
0.00000000 0.06029552 0.05393963
0.00000000 0.00000000 0.00194305
0.00000000 0.02198549 0.07410492
0.00000000 0.07919054 0.19998486
0.00000000 0.44409433 0.53477281
0.00000000 0.30494082 0.35274407
0.00000000 0.17174564 0.18437979
0.00000000 0.06355247 0.05745889
0.00000000 0.00000000 0.00057648
0.00000000 0.02047639 0.07037364
0.00000000 0.07660548 0.19463822
0.00000000 0.15605713 0.35300139
0.00000000 0.24653070 0.52509421
0.00000000 0.17631944 0.19000959
0.00000000 0.06686903 0.06107185
0.00000000 0.00076367 0.00033439
0.00000000 0.01901550 0.06671607
0.00000000 0.07405198 0.18933775
0.00000000 0.15286355 0.34680733
0.00000000 0.24314958 0.51875597
0.00000000 0.33260942 0.68481475
0.00000000 0.40894243 0.82461482
0.00000000 0.05747233 0.07196756
0.00000000 0.11128503 0.13935250
0.00000000 0.17677338 0.22135782
0.00000000 0.25039750 0.31355086
0.00000000 0.32861754 0.41149896
0.00000000 0.40789360 0.51076943
0.00000000 0.48468584 0.60692966
0.00000000 0.55545443 0.69554693
0.00000000 0.61665940 0.77218854
0.00000000 0.17419828 0.21813326
0.00000000 0.24758582 0.31003004
0.00000000 0.32569948 0.40784493
0.00000000 0.40499943 0.50714529
0.00000000 0.48194578 0.60349846
0.00000000 0.55299866 0.69247180
0.00000000 0.61461818 0.76963252
0.00000000 0.66326457 0.83054811
0.00000000 0.69539785 0.87078577
0.00000000 0.32278305 0.40419295
0.00000000 0.40210205 0.50351721
0.00000000 0.47919771 0.60005730
0.00000000 0.55053014 0.68938065
0.00000000 0.61255944 0.76705456
0.00000000 0.66174579 0.82864630
0.00000000 0.69454926 0.86972326
0.00000000 0.69010270 0.86340106
0.00000000 0.61607254 0.76425898
0.00000000 0.47644186 0.59660643
0.00000000 0.54804903 0.68627375
0.00000000 0.61048329 0.76445478
0.00000000 0.66020483 0.82671672
0.00000000 0.69367379 0.86862695
0.00000000 0.69180900 0.86565942
0.00000000 0.61962861 0.76903266
0.00000000 0.50633883 0.61741287
0.00000000 0.37098321 0.43857893
0.00000000 0.60838997 0.76183343
0.00000000 0.65864193 0.82475960
0.00000000 0.69277149 0.86749709
0.00000000 0.69343388 0.86780578
0.00000000 0.62312907 0.77373195
0.00000000 0.51101422 0.62364316
0.00000000 0.37613299 0.44531822
0.00000000 0.23752905 0.26653606
0.00000000 0.11424605 0.11507556
0.00000000 0.69184262 0.86633390
0.00000000 0.69497639 0.86983871
0.00000000 0.62657291 0.77835542
0.00000000 0.51565886 0.62983519
0.00000000 0.38127777 0.45205685
0.00000000 0.24247335 0.27279934
0.00000000 0.11828928 0.11984152
0.00000000 0.02776919 0.02096228
0.00000000 0.00409553 0.02427009
0.00000000 0.62995923 0.78290170
0.00000000 0.52027166 0.63598764
0.00000000 0.38641652 0.45879349
0.00000000 0.24743745 0.27909821
0.00000000 0.12237808 0.12468066
0.00000000 0.03028210 0.02331973
0.00000000 0.00342087 0.02182377
0.00000000 0.04031569 0.11686933
0.00000000 0.10769130 0.25786689
0.00000000 0.39154837 0.46552676
0.00000000 0.25242037 0.28543130
0.00000000 0.12651148 0.12959161
0.00000000 0.03286540 0.02578659
0.00000000 0.00280412 0.01946722
0.00000000 0.03834298 0.11243377
0.00000000 0.10481516 0.25210169
0.00000000 0.18992004 0.41810212
0.00000000 0.28135696 0.59006613
0.00000000 0.13068856 0.13457300
0.00000000 0.03551814 0.02836147
0.00000000 0.00224588 0.01720145
0.00000000 0.03641214 0.10806142
0.00000000 0.10196425 0.24637213
0.00000000 0.18660158 0.41176468
0.00000000 0.27802348 0.58387023
0.00000000 0.36392933 0.74231988
0.00000000 0.43201849 0.86674476
0.00000000 0.07638709 0.09565286
0.00000000 0.13506892 0.16913497
0.00000000 0.20407674 0.25554740
0.00000000 0.27987069 0.35045752
0.00000000 0.35891089 0.44943264
0.00000000 0.43765748 0.54804009
0.00000000 0.51257056 0.64184725
0.00000000 0.58011037 0.72642142
0.00000000 0.63673693 0.79732990
0.00000000 0.20139608 0.25219065
0.00000000 0.27700308 0.34686670
0.00000000 0.35598657 0.44577080
0.00000000 0.43480667 0.54447031
0.00000000 0.50992358 0.63853258
0.00000000 0.57779729 0.72352499
0.00000000 0.63488811 0.79501474
0.00000000 0.67765599 0.84856927
0.00000000 0.70256126 0.87975591
0.00000000 0.35306203 0.44210866
0.00000000 0.43195090 0.54089427
0.00000000 0.50726670 0.63520569
0.00000000 0.57546967 0.72061026
0.00000000 0.63301986 0.79267532
0.00000000 0.67637742 0.84696823
0.00000000 0.70200253 0.87905627
0.00000000 0.66785544 0.83373499
0.00000000 0.57617235 0.71073872
0.00000000 0.50460023 0.63186669
0.00000000 0.57312757 0.71767747
0.00000000 0.63113242 0.79031181
0.00000000 0.67507482 0.84533709
0.00000000 0.70141500 0.87832057
0.00000000 0.67034966 0.83707297
0.00000000 0.58024925 0.71620238
0.00000000 0.45630014 0.55093008
0.00000000 0.31754607 0.36903486
0.00000000 0.62922591 0.78792453
0.00000000 0.67374843 0.84367615
0.00000000 0.70079893 0.87754911
0.00000000 0.67277229 0.84031320
0.00000000 0.58428031 0.72160590
0.00000000 0.46123907 0.55747491
0.00000000 0.32269225 0.37569910
0.00000000 0.18768349 0.20405732
0.00000000 0.07525646 0.07032850
0.00000000 0.70015436 0.87674195
0.00000000 0.67512232 0.84345436
0.00000000 0.58826458 0.72694802
0.00000000 0.46615699 0.56399590
0.00000000 0.32784319 0.38237706
0.00000000 0.19236687 0.20987026
0.00000000 0.07877166 0.07425447
0.00000000 0.00610123 0.00330854
0.00000000 0.01434834 0.05466226
0.00000000 0.59220117 0.73222721
0.00000000 0.47105300 0.57049167
0.00000000 0.33299801 0.38906732
0.00000000 0.19707987 0.21573314
0.00000000 0.08234226 0.07826796
0.00000000 0.00782882 0.00445069
0.00000000 0.01310967 0.05134540
0.00000000 0.06307681 0.16631366
0.00000000 0.13883486 0.31946790
0.00000000 0.33815569 0.39576855
0.00000000 0.20182154 0.22164455
0.00000000 0.08596729 0.08236760
0.00000000 0.00963662 0.00571658
0.00000000 0.01192256 0.04810780
0.00000000 0.06070627 0.16128276
0.00000000 0.13573344 0.31339306
0.00000000 0.22470342 0.48406976
0.00000000 0.31531557 0.65294403
0.00000000 0.08964583 0.08655199
0.00000000 0.01152370 0.00710483
0.00000000 0.01078761 0.04495046
0.00000000 0.05837126 0.15630457
0.00000000 0.13265088 0.30734333
0.00000000 0.22132586 0.47769791
0.00000000 0.31209552 0.64699942
0.00000000 0.39265928 0.79487896
0.00000000 0.45071644 0.90096766
0.00000000 0.09731750 0.12186219
0.00000000 0.16035387 0.20079710
0.00000000 0.23236656 0.29097229
0.00000000 0.30981573 0.38795513
0.00000000 0.38916153 0.48731291
0.00000000 0.46686408 0.58461297
0.00000000 0.53938347 0.67542267
0.00000000 0.60317993 0.75530934
0.00000000 0.65471345 0.81984031
0.00000000 0.22959927 0.28750706
0.00000000 0.30691117 0.38431796
0.00000000 0.38624990 0.48366693
0.00000000 0.46407560 0.58112121
0.00000000 0.53684843 0.67224824
0.00000000 0.60102850 0.75261533
0.00000000 0.65307587 0.81778973
0.00000000 0.68945086 0.86333889
0.00000000 0.69840735 0.87433916
0.00000000 0.38333622 0.48001838
0.00000000 0.46128032 0.57762092
0.00000000 0.53430176 0.66905928
0.00000000 0.59886062 0.74990070
0.00000000 0.65141714 0.81571263
0.00000000 0.68843132 0.86206228
0.00000000 0.69965804 0.87596965
0.00000000 0.63802123 0.79372478
0.00000000 0.53145349 0.65091252
0.00000000 0.53174359 0.66585594
0.00000000 0.59667653 0.74716574
0.00000000 0.64973730 0.81360912
0.00000000 0.68738604 0.86075336
0.00000000 0.70082217 0.87748063
0.00000000 0.64120150 0.79799372
0.00000000 0.53594935 0.65691751
0.00000000 0.40410930 0.48203081
0.00000000 0.26472509 0.30111250
0.00000000 0.64803666 0.81147951
0.00000000 0.68631506 0.85941225
0.00000000 0.70189875 0.87887061
0.00000000 0.64432001 0.80217934
0.00000000 0.54040915 0.66287673
0.00000000 0.40920988 0.48874173
0.00000000 0.26976579 0.30755314
0.00000000 0.14112055 0.14708991
0.00000000 0.04231784 0.03513091
0.00000000 0.70288682 0.88013828
0.00000000 0.64737582 0.80628020
0.00000000 0.54483211 0.66878885
0.00000000 0.41429931 0.49544311
0.00000000 0.27482110 0.31402183
0.00000000 0.14544119 0.15230395
0.00000000 0.04520318 0.03806832
0.00000000 0.00077622 0.01008686
0.00000000 0.03007265 0.09345747
0.00000000 0.54921710 0.67465240
0.00000000 0.41937661 0.50213355
0.00000000 0.27989012 0.32051718
0.00000000 0.14980125 0.15758224
0.00000000 0.04815372 0.04110760
0.00000000 0.00048608 0.00823777
0.00000000 0.02833574 0.08937901
0.00000000 0.08958709 0.22130901
0.00000000 0.17193948 0.38365892
0.00000000 0.28497183 0.32703784
0.00000000 0.15419982 0.16292343
0.00000000 0.05116854 0.04424735
0.00000000 0.00025779 0.00648500
0.00000000 0.02664405 0.08536928
0.00000000 0.08688451 0.21579169
0.00000000 0.16867854 0.37738335
0.00000000 0.25972551 0.54977542
0.00000000 0.34772477 0.71259898
0.00000000 0.05424668 0.04748620
0.00000000 0.00009198 0.00482954
0.00000000 0.02499817 0.08142931
0.00000000 0.08421110 0.21031657
0.00000000 0.16543014 0.37112242
0.00000000 0.25635463 0.54347801
0.00000000 0.34468397 0.70701450
0.00000000 0.41811749 0.84136295
0.00000000 0.46435454 0.92615455
0.00000000 0.12006737 0.15034984
0.00000000 0.18694368 0.23409319
0.00000000 0.26144668 0.32738680
0.00000000 0.34003651 0.42579794
0.00000000 0.41917333 0.52489406
0.00000000 0.49531722 0.62024236
0.00000000 0.56492835 0.70741028
0.00000000 0.62446684 0.78196508
0.00000000 0.67039281 0.83947420
0.00000000 0.25861168 0.32383677
0.00000000 0.33711389 0.42213818
0.00000000 0.41629329 0.52128762
0.00000000 0.49261001 0.61685234
0.00000000 0.56252420 0.70439976
0.00000000 0.62249595 0.77949715
0.00000000 0.66898543 0.83771187
0.00000000 0.69845277 0.87461126
0.00000000 0.68057722 0.85073578
0.00000000 0.41340938 0.51767635
0.00000000 0.48989412 0.61345148
0.00000000 0.56010658 0.70137239
0.00000000 0.62050682 0.77700639
0.00000000 0.66755503 0.83592069
0.00000000 0.69771135 0.87368280
0.00000000 0.68266940 0.85352409
0.00000000 0.60165554 0.74491000
0.00000000 0.48297149 0.58631986
0.00000000 0.55767566 0.69832844
0.00000000 0.61849964 0.77449292
0.00000000 0.66610181 0.83410096
0.00000000 0.69694227 0.87271976
0.00000000 0.68468487 0.85620713
0.00000000 0.60541999 0.74996144
0.00000000 0.48778442 0.59271771
0.00000000 0.35082179 0.41225475
0.00000000 0.21357575 0.23635150
0.00000000 0.66462582 0.83225274
0.00000000 0.69614565 0.87172228
0.00000000 0.68662262 0.85878354
0.00000000 0.60913259 0.75494379
0.00000000 0.49257120 0.59908408
0.00000000 0.35598218 0.41898316
0.00000000 0.21840915 0.24241999
0.00000000 0.09889577 0.09717344
0.00000000 0.01648570 0.01102240
0.00000000 0.68848169 0.86125195
0.00000000 0.61279225 0.75985581
0.00000000 0.49733087 0.60541761
0.00000000 0.36114123 0.42571637
0.00000000 0.22326699 0.24853085
0.00000000 0.10275179 0.10164000
0.00000000 0.01863931 0.01282270
0.00000000 0.00727683 0.03467506
0.00000000 0.05058669 0.13952678
0.00000000 0.50206250 0.61171699
0.00000000 0.36629802 0.43245298
0.00000000 0.22814833 0.25468272
0.00000000 0.10665710 0.10618517
0.00000000 0.02086796 0.01473920
0.00000000 0.00638170 0.03188759
0.00000000 0.04841734 0.13479564
0.00000000 0.11916477 0.28072640
0.00000000 0.20632337 0.44931102
0.00000000 0.23305221 0.26087421
0.00000000 0.11061071 0.11080755
0.00000000 0.02317071 0.01677051
0.00000000 0.00554208 0.02918591
0.00000000 0.04628684 0.13012272
0.00000000 0.11619593 0.27483162
0.00000000 0.20296873 0.44294369
0.00000000 0.29430458 0.61409009
0.00000000 0.37790284 0.76790196
0.00000000 0.02554661 0.01891525
0.00000000 0.00475858 0.02657105
0.00000000 0.04419582 0.12550905
0.00000000 0.11324992 0.26896849
0.00000000 0.19962025 0.43658048
0.00000000 0.29100618 0.60797614
0.00000000 0.37510705 0.76278663
0.00000000 0.43962222 0.88064301
0.00000000 0.47225109 0.94117647
