Blue_Ocean_Wave/Blue Ocean Wave (Gradient Map Only).cube
# VEGAS Pro LUT
TITLE "Blue Ocean Wave (Gradient Map Only)"
LUT_3D_SIZE 33
0.00000000 0.00000000 0.00000000
0.00000000 0.00351628 0.00440312
0.00000000 0.00834998 0.01045594
0.00000000 0.01444579 0.01808920
0.00000000 0.02174840 0.02723362
0.00000000 0.03020251 0.03781996
0.00000000 0.03975280 0.04977896
0.00000000 0.05034397 0.06304134
0.00000000 0.06192069 0.07753786
0.00000000 0.07442766 0.09319925
0.00000000 0.08780959 0.10995625
0.00000000 0.10201113 0.12773961
0.00000000 0.11697699 0.14648004
0.00000000 0.13265187 0.16610833
0.00000000 0.14898044 0.18655516
0.00000000 0.16590741 0.20775132
0.00000000 0.18337744 0.22962752
0.00000000 0.20133525 0.25211450
0.00000000 0.21972552 0.27514303
0.00000000 0.23849294 0.29864380
0.00000000 0.25758219 0.32254761
0.00000000 0.27693796 0.34678516
0.00000000 0.29650494 0.37128717
0.00000000 0.31622785 0.39598444
0.00000000 0.33605134 0.42080766
0.00000000 0.35592011 0.44568756
0.00000000 0.37577885 0.47055495
0.00000000 0.39557227 0.49534050
0.00000000 0.41524503 0.51997501
0.00000000 0.43474182 0.54438913
0.00000000 0.45400739 0.56851369
0.00000000 0.47298634 0.59227937
0.00000000 0.49162340 0.61561692
0.00000000 0.00814945 0.01020484
0.00000000 0.01419981 0.01778117
0.00000000 0.02145901 0.02687123
0.00000000 0.02987173 0.03740575
0.00000000 0.03938267 0.04931547
0.00000000 0.04993653 0.06253114
0.00000000 0.06147797 0.07698348
0.00000000 0.07395171 0.09260324
0.00000000 0.08730241 0.10932116
0.00000000 0.10147478 0.12706798
0.00000000 0.11641351 0.14577444
0.00000000 0.13206328 0.16537128
0.00000000 0.14836879 0.18578924
0.00000000 0.16527471 0.20695905
0.00000000 0.18272576 0.22881146
0.00000000 0.20066661 0.25127721
0.00000000 0.21904193 0.27428702
0.00000000 0.23779646 0.29777166
0.00000000 0.25687483 0.32166186
0.00000000 0.27622178 0.34588835
0.00000000 0.29578200 0.37038189
0.00000000 0.31550014 0.39507318
0.00000000 0.33532089 0.41989300
0.00000000 0.35518900 0.44477206
0.00000000 0.37504908 0.46964112
0.00000000 0.39484587 0.49443090
0.00000000 0.41452405 0.51907218
0.00000000 0.43402833 0.54349566
0.00000000 0.45330334 0.56763208
0.00000000 0.47229382 0.59141219
0.00000000 0.49094445 0.61476672
0.00000000 0.50919992 0.63762647
0.00000000 0.52700490 0.65992212
0.00000000 0.02117117 0.02651080
0.00000000 0.02954244 0.03699341
0.00000000 0.03901396 0.04885376
0.00000000 0.04953042 0.06202261
0.00000000 0.06103651 0.07643068
0.00000000 0.07347693 0.09200872
0.00000000 0.08679635 0.10868747
0.00000000 0.10093947 0.12639767
0.00000000 0.11585099 0.14507005
0.00000000 0.13147558 0.16463536
0.00000000 0.14775795 0.18502434
0.00000000 0.16464277 0.20616771
0.00000000 0.18207473 0.22799623
0.00000000 0.19999853 0.25044066
0.00000000 0.21835886 0.27343169
0.00000000 0.23710041 0.29690006
0.00000000 0.25616786 0.32077658
0.00000000 0.27550590 0.34499192
0.00000000 0.29505923 0.36947685
0.00000000 0.31477255 0.39416209
0.00000000 0.33459052 0.41897842
0.00000000 0.35445786 0.44385654
0.00000000 0.37431923 0.46872717
0.00000000 0.39411932 0.49352112
0.00000000 0.41380286 0.51816905
0.00000000 0.43331450 0.54260176
0.00000000 0.45259893 0.56674999
0.00000000 0.47160086 0.59054446
0.00000000 0.49026498 0.61391592
0.00000000 0.50853598 0.63679504
0.00000000 0.52635849 0.65911263
0.00000000 0.54367727 0.68079948
0.00000000 0.56043702 0.70178622
0.00000000 0.03864665 0.04839382
0.00000000 0.04912565 0.06151575
0.00000000 0.06059632 0.07587946
0.00000000 0.07300334 0.09141569
0.00000000 0.08629140 0.10805517
0.00000000 0.10040521 0.12572865
0.00000000 0.11528943 0.14436686
0.00000000 0.13088877 0.16390054
0.00000000 0.14714791 0.18426044
0.00000000 0.16401155 0.20537730
0.00000000 0.18142436 0.22718184
0.00000000 0.19933106 0.24960482
0.00000000 0.21767631 0.27257696
0.00000000 0.23640481 0.29602903
0.00000000 0.25546125 0.31989175
0.00000000 0.27479032 0.34409586
0.00000000 0.29433671 0.36857209
0.00000000 0.31404513 0.39325121
0.00000000 0.33386022 0.41806391
0.00000000 0.35372671 0.44294098
0.00000000 0.37358928 0.46781313
0.00000000 0.39339262 0.49261114
0.00000000 0.41308141 0.51726568
0.00000000 0.43260035 0.54170752
0.00000000 0.45189413 0.56586742
0.00000000 0.47090745 0.58967614
0.00000000 0.48958495 0.61306435
0.00000000 0.50787139 0.63596284
0.00000000 0.52571142 0.65830237
0.00000000 0.54304969 0.68001360
0.00000000 0.55983102 0.70102733
0.00000000 0.57599992 0.72127426
0.00000000 0.59150124 0.74068516
0.00000000 0.06015739 0.07532983
0.00000000 0.07253095 0.09082415
0.00000000 0.08578758 0.10742427
0.00000000 0.09987198 0.12506093
0.00000000 0.11472885 0.14366488
0.00000000 0.13030285 0.16316685
0.00000000 0.14653870 0.18349758
0.00000000 0.16338107 0.20458782
0.00000000 0.18077467 0.22636829
0.00000000 0.19866417 0.24876975
0.00000000 0.21699427 0.27172291
0.00000000 0.23570965 0.29515857
0.00000000 0.25475502 0.31900740
0.00000000 0.27407503 0.34320015
0.00000000 0.29361442 0.36766762
0.00000000 0.31331784 0.39234048
0.00000000 0.33313000 0.41714951
0.00000000 0.35299557 0.44202545
0.00000000 0.37285927 0.46689901
0.00000000 0.39266577 0.49170095
0.00000000 0.41235974 0.51636201
0.00000000 0.43188593 0.54081291
0.00000000 0.45118895 0.56498444
0.00000000 0.47021356 0.58880728
0.00000000 0.48890442 0.61221218
0.00000000 0.50720620 0.63512993
0.00000000 0.52506363 0.65749121
0.00000000 0.54242140 0.67922682
0.00000000 0.55922413 0.70026743
0.00000000 0.57541656 0.72054380
0.00000000 0.59094346 0.73998672
0.00000000 0.60574937 0.75852686
0.00000000 0.61977905 0.77609497
0.00000000 0.08528487 0.10679477
0.00000000 0.09933980 0.12439453
0.00000000 0.11416923 0.14296412
0.00000000 0.12971783 0.16243428
0.00000000 0.14593031 0.18273574
0.00000000 0.16275135 0.20379926
0.00000000 0.18012565 0.22555557
0.00000000 0.19799788 0.24793541
0.00000000 0.21631275 0.27086952
0.00000000 0.23501495 0.29428864
0.00000000 0.25404915 0.31812349
0.00000000 0.27336004 0.34230483
0.00000000 0.29289234 0.36676341
0.00000000 0.31259069 0.39142996
0.00000000 0.33239985 0.41623521
0.00000000 0.35226443 0.44110990
0.00000000 0.37212917 0.46598476
0.00000000 0.39193875 0.49079058
0.00000000 0.41163787 0.51545805
0.00000000 0.43117118 0.53991789
0.00000000 0.45048341 0.56410092
0.00000000 0.46951923 0.58793783
0.00000000 0.48822334 0.61135936
0.00000000 0.50654042 0.63429624
0.00000000 0.52441519 0.65667921
0.00000000 0.54179227 0.67843902
0.00000000 0.55861646 0.69950646
0.00000000 0.57483232 0.71981221
0.00000000 0.59038466 0.73928696
0.00000000 0.60521805 0.75786155
0.00000000 0.61927730 0.77546668
0.00000000 0.63250697 0.79203314
0.00000000 0.64485186 0.80749154
0.00000000 0.11361058 0.14226457
0.00000000 0.12913370 0.16170283
0.00000000 0.14532274 0.18197495
0.00000000 0.16212238 0.20301165
0.00000000 0.17947730 0.22474369
0.00000000 0.19733219 0.24710183
0.00000000 0.21563175 0.27001676
0.00000000 0.23432067 0.29341927
0.00000000 0.25334364 0.31724006
0.00000000 0.27264535 0.34140989
0.00000000 0.29217046 0.36585948
0.00000000 0.31186369 0.39051959
0.00000000 0.33166975 0.41532096
0.00000000 0.35153329 0.44019434
0.00000000 0.37139899 0.46507043
0.00000000 0.39121160 0.48988000
0.00000000 0.41091573 0.51455379
0.00000000 0.43045613 0.53902251
0.00000000 0.44977748 0.56321698
0.00000000 0.46882448 0.58706784
0.00000000 0.48754176 0.61050582
0.00000000 0.50587410 0.63346177
0.00000000 0.52376610 0.65586638
0.00000000 0.54116249 0.67765033
0.00000000 0.55800796 0.69874448
0.00000000 0.57424718 0.71907943
0.00000000 0.58982486 0.73858601
0.00000000 0.60468572 0.75719500
0.00000000 0.61877441 0.77483702
0.00000000 0.63203561 0.79144287
0.00000000 0.64441407 0.80694324
0.00000000 0.65585440 0.82126898
0.00000000 0.66630131 0.83435076
0.00000000 0.14471601 0.18121518
0.00000000 0.16149415 0.20222498
0.00000000 0.17882963 0.22393268
0.00000000 0.19666710 0.24626899
0.00000000 0.21495129 0.26916468
0.00000000 0.23362687 0.29255047
0.00000000 0.25263852 0.31635711
0.00000000 0.27193096 0.34051532
0.00000000 0.29144883 0.36495584
0.00000000 0.31113687 0.38960946
0.00000000 0.33093974 0.41440684
0.00000000 0.35080215 0.43927878
0.00000000 0.37066877 0.46415603
0.00000000 0.39048427 0.48896927
0.00000000 0.41019341 0.51364928
0.00000000 0.42974082 0.53812677
0.00000000 0.44907120 0.56233251
0.00000000 0.46812925 0.58619726
0.00000000 0.48685965 0.60965168
0.00000000 0.50520712 0.63262659
0.00000000 0.52311629 0.65505272
0.00000000 0.54053187 0.67686075
0.00000000 0.55739862 0.69798148
0.00000000 0.57366115 0.71834558
0.00000000 0.58926415 0.73788387
0.00000000 0.60415232 0.75652707
0.00000000 0.61827040 0.77420592
0.00000000 0.63156307 0.79085112
0.00000000 0.64397496 0.80639338
0.00000000 0.65545076 0.82076359
0.00000000 0.66593522 0.83389235
0.00000000 0.67537296 0.84571046
0.00000000 0.68370879 0.85614860
0.00000000 0.17818263 0.22312251
0.00000000 0.19600263 0.24543692
0.00000000 0.21427135 0.26831326
0.00000000 0.23293351 0.29168224
0.00000000 0.25193378 0.31547460
0.00000000 0.27121687 0.33962113
0.00000000 0.29072744 0.36405250
0.00000000 0.31041017 0.38869947
0.00000000 0.33020982 0.41349283
0.00000000 0.35007101 0.43836325
0.00000000 0.36993843 0.46324152
0.00000000 0.38975683 0.48805833
0.00000000 0.40947086 0.51274449
0.00000000 0.42902517 0.53723067
0.00000000 0.44836453 0.56144762
0.00000000 0.46743357 0.58532614
0.00000000 0.48617703 0.60879689
0.00000000 0.50453955 0.63179070
0.00000000 0.52246583 0.65423816
0.00000000 0.53990054 0.67607021
0.00000000 0.55678844 0.69721740
0.00000000 0.57307422 0.71761060
0.00000000 0.58870244 0.73718053
0.00000000 0.60361791 0.75585788
0.00000000 0.61776531 0.77357340
0.00000000 0.63108927 0.79025787
0.00000000 0.64353454 0.80584198
0.00000000 0.65504581 0.82025647
0.00000000 0.66556770 0.83343214
0.00000000 0.67504495 0.84529966
0.00000000 0.68342227 0.85578984
0.00000000 0.69064432 0.86483335
0.00000000 0.69665575 0.87236100
0.00000000 0.21359195 0.26746249
0.00000000 0.23224062 0.29081458
0.00000000 0.25122944 0.31459260
0.00000000 0.27050307 0.33872733
0.00000000 0.29000625 0.36314943
0.00000000 0.30968365 0.38778973
0.00000000 0.32947996 0.41257891
0.00000000 0.34933987 0.43744773
0.00000000 0.36920807 0.46232691
0.00000000 0.38902923 0.48714724
0.00000000 0.40874806 0.51183939
0.00000000 0.42830926 0.53633416
0.00000000 0.44765750 0.56056225
0.00000000 0.46673748 0.58445448
0.00000000 0.48549387 0.60794145
0.00000000 0.50387138 0.63095403
0.00000000 0.52181470 0.65342283
0.00000000 0.53926849 0.67527872
0.00000000 0.55617750 0.69645238
0.00000000 0.57248634 0.71687454
0.00000000 0.58813977 0.73647594
0.00000000 0.60308248 0.75518733
0.00000000 0.61725909 0.77293950
0.00000000 0.63061434 0.78966314
0.00000000 0.64309293 0.80528891
0.00000000 0.65463948 0.81974769
0.00000000 0.66519880 0.83297014
0.00000000 0.67471546 0.84488708
0.00000000 0.68313420 0.85542911
0.00000000 0.69039971 0.86452711
0.00000000 0.69645667 0.87211174
0.00000000 0.70124984 0.87811375
0.00000000 0.70447123 0.88214731
0.00000000 0.25052544 0.31371108
0.00000000 0.26978961 0.33783391
0.00000000 0.28928533 0.36224669
0.00000000 0.30895731 0.38688016
0.00000000 0.32875022 0.41166508
0.00000000 0.34860876 0.43653220
0.00000000 0.36847761 0.46141225
0.00000000 0.38830149 0.48623595
0.00000000 0.40802509 0.51093405
0.00000000 0.42759305 0.53543735
0.00000000 0.44695011 0.55967647
0.00000000 0.46604094 0.58358222
0.00000000 0.48481020 0.60708535
0.00000000 0.50320262 0.63011658
0.00000000 0.52116293 0.65260667
0.00000000 0.53863573 0.67448634
0.00000000 0.55556571 0.69568628
0.00000000 0.57189763 0.71613735
0.00000000 0.58757615 0.73577017
0.00000000 0.60254598 0.75451553
0.00000000 0.61675173 0.77230418
0.00000000 0.63013822 0.78906691
0.00000000 0.64265001 0.80473435
0.00000000 0.65423185 0.81923723
0.00000000 0.66482842 0.83250642
0.00000000 0.67438447 0.84447259
0.00000000 0.68284458 0.85506648
0.00000000 0.69015348 0.86421877
0.00000000 0.69625592 0.87186033
0.00000000 0.70109653 0.87792176
0.00000000 0.70462000 0.88233387
0.00000000 0.69747472 0.87311935
0.00000000 0.68636298 0.85843855
0.00000000 0.28856462 0.36134422
0.00000000 0.30823109 0.38597080
0.00000000 0.32802054 0.41075140
0.00000000 0.34787765 0.43561670
0.00000000 0.36774713 0.46049750
0.00000000 0.38757363 0.48532450
0.00000000 0.40730187 0.51002848
0.00000000 0.42687657 0.53454012
0.00000000 0.44624236 0.55879021
0.00000000 0.46534395 0.58270949
0.00000000 0.48412603 0.60622865
0.00000000 0.50253332 0.62927848
0.00000000 0.52051044 0.65178967
0.00000000 0.53800219 0.67369300
0.00000000 0.55495316 0.69491923
0.00000000 0.57130802 0.71539903
0.00000000 0.58701158 0.73506320
0.00000000 0.60200846 0.75384247
0.00000000 0.61624330 0.77166754
0.00000000 0.62966090 0.78846920
0.00000000 0.64220583 0.80417812
0.00000000 0.65382290 0.81872517
0.00000000 0.66445673 0.83204091
0.00000000 0.67405200 0.84405625
0.00000000 0.68255341 0.85470182
0.00000000 0.68990564 0.86390841
0.00000000 0.69605345 0.87160677
0.00000000 0.70094144 0.87772757
0.00000000 0.70451432 0.88220161
0.00000000 0.69781053 0.87355888
0.00000000 0.68683785 0.85906947
0.00000000 0.67222804 0.83958542
0.00000000 0.65427858 0.81554073
0.00000000 0.32729095 0.40983781
0.00000000 0.34714657 0.43470123
0.00000000 0.36701655 0.45958269
0.00000000 0.38684562 0.48441291
0.00000000 0.40657848 0.50912261
0.00000000 0.42615977 0.53364259
0.00000000 0.44553423 0.55790353
0.00000000 0.46464655 0.58183616
0.00000000 0.48344135 0.60537130
0.00000000 0.50186342 0.62843961
0.00000000 0.51985735 0.65097183
0.00000000 0.53736788 0.67289877
0.00000000 0.55433977 0.69415110
0.00000000 0.57071757 0.71465963
0.00000000 0.58644605 0.73435503
0.00000000 0.60146987 0.75316805
0.00000000 0.61573374 0.77102947
0.00000000 0.62918240 0.78786999
0.00000000 0.64176041 0.80362040
0.00000000 0.65341258 0.81821138
0.00000000 0.66408354 0.83157367
0.00000000 0.67371804 0.84363806
0.00000000 0.68226063 0.85433525
0.00000000 0.68965614 0.86359602
0.00000000 0.69584924 0.87135106
0.00000000 0.70078456 0.87753111
0.00000000 0.70440686 0.88206697
0.00000000 0.69814098 0.87399101
0.00000000 0.68730778 0.85969371
0.00000000 0.67282647 0.84038568
0.00000000 0.65499467 0.81650108
0.00000000 0.63410980 0.78847390
0.00000000 0.61046952 0.75673819
0.00000000 0.36628595 0.45866781
0.00000000 0.38611749 0.48350114
0.00000000 0.40585488 0.50821650
0.00000000 0.42544273 0.53274465
0.00000000 0.44482577 0.55701637
0.00000000 0.46394870 0.58096230
0.00000000 0.48275617 0.60451329
0.00000000 0.50119293 0.62760001
0.00000000 0.51920360 0.65015322
0.00000000 0.53673291 0.67210364
0.00000000 0.55372554 0.69338202
0.00000000 0.57012618 0.71391910
0.00000000 0.58587956 0.73364562
0.00000000 0.60093027 0.75249237
0.00000000 0.61522311 0.77039003
0.00000000 0.62870270 0.78726935
0.00000000 0.64131373 0.80306107
0.00000000 0.65300095 0.81769592
0.00000000 0.66370898 0.83110464
0.00000000 0.67338258 0.84321803
0.00000000 0.68196636 0.85396671
0.00000000 0.68940508 0.86328155
0.00000000 0.69564337 0.87109321
0.00000000 0.70062596 0.87733251
0.00000000 0.70429748 0.88193005
0.00000000 0.69846606 0.87441581
0.00000000 0.68777281 0.86031115
0.00000000 0.67342043 0.84117979
0.00000000 0.65570658 0.81745583
0.00000000 0.63492876 0.78957337
0.00000000 0.61138463 0.75796640
0.00000000 0.58537161 0.72306901
0.00000000 0.55718732 0.68531519
0.00000000 0.40513104 0.50731015
0.00000000 0.42472538 0.53184640
0.00000000 0.44411695 0.55612874
0.00000000 0.46325043 0.58008796
0.00000000 0.48207051 0.60365468
0.00000000 0.50052184 0.62675965
0.00000000 0.51854920 0.64933372
0.00000000 0.53609717 0.67130756
0.00000000 0.55311054 0.69261187
0.00000000 0.56953394 0.71317750
0.00000000 0.58531213 0.73293507
0.00000000 0.60038966 0.75181538
0.00000000 0.61471134 0.76974922
0.00000000 0.62822187 0.78666723
0.00000000 0.64086586 0.80250013
0.00000000 0.65258801 0.81717879
0.00000000 0.66333306 0.83063388
0.00000000 0.67304564 0.84279615
0.00000000 0.68167055 0.85359627
0.00000000 0.68915230 0.86296511
0.00000000 0.69543576 0.87083328
0.00000000 0.70046550 0.87713158
0.00000000 0.70418626 0.88179082
0.00000000 0.69878584 0.87483329
0.00000000 0.68823284 0.86092174
0.00000000 0.67400980 0.84196764
0.00000000 0.65641439 0.81840497
0.00000000 0.63574404 0.79066783
0.00000000 0.61229634 0.75919020
0.00000000 0.58636892 0.72440612
0.00000000 0.55825925 0.68674970
0.00000000 0.52826488 0.64665496
0.00000000 0.49668345 0.60455596
0.00000000 0.44340777 0.55524075
0.00000000 0.46255174 0.57921302
0.00000000 0.48138431 0.60279542
0.00000000 0.49985021 0.62591863
0.00000000 0.51789415 0.64851344
0.00000000 0.53546077 0.67051059
0.00000000 0.55249476 0.69184077
0.00000000 0.56894088 0.71243477
0.00000000 0.58474374 0.73222333
0.00000000 0.59984803 0.75113714
0.00000000 0.61419851 0.76910698
0.00000000 0.62773985 0.78606361
0.00000000 0.64041668 0.80193770
0.00000000 0.65217376 0.81666005
0.00000000 0.66295570 0.83016133
0.00000000 0.67270726 0.84237242
0.00000000 0.68137312 0.85322392
0.00000000 0.68889797 0.86264658
0.00000000 0.69522649 0.87057120
0.00000000 0.70030332 0.87692851
0.00000000 0.70407325 0.88164926
0.00000000 0.69910026 0.87524325
0.00000000 0.68868792 0.86152554
0.00000000 0.67459464 0.84274924
0.00000000 0.65711802 0.81934845
0.00000000 0.63655549 0.79175717
0.00000000 0.61320472 0.76040947
0.00000000 0.58736324 0.72573936
0.00000000 0.55932856 0.68818092
0.00000000 0.52939832 0.64816821
0.00000000 0.49787000 0.60613525
0.00000000 0.46504119 0.56251603
0.00000000 0.43120944 0.51774472
0.00000000 0.48069763 0.60193557
0.00000000 0.49917799 0.62507689
0.00000000 0.51723844 0.64769238
0.00000000 0.53482360 0.66971272
0.00000000 0.55187815 0.69106871
0.00000000 0.56834686 0.71169102
0.00000000 0.58417439 0.73151040
0.00000000 0.59930539 0.75045764
0.00000000 0.61368454 0.76846343
0.00000000 0.62725663 0.78545851
0.00000000 0.63996625 0.80137366
0.00000000 0.65175813 0.81613964
0.00000000 0.66257697 0.82968712
0.00000000 0.67236739 0.84194684
0.00000000 0.68107420 0.85284954
0.00000000 0.68864197 0.86232603
0.00000000 0.69501549 0.87030703
0.00000000 0.70013934 0.87672323
0.00000000 0.70395833 0.88150537
0.00000000 0.69940925 0.87564582
0.00000000 0.68913800 0.86212248
0.00000000 0.67517489 0.84352463
0.00000000 0.65781742 0.82028627
0.00000000 0.63736320 0.79284143
0.00000000 0.61410975 0.76162422
0.00000000 0.58835459 0.72706866
0.00000000 0.56039536 0.68960881
0.00000000 0.53052956 0.64967871
0.00000000 0.49905476 0.60771233
0.00000000 0.46626851 0.56414384
0.00000000 0.43246838 0.51940721
0.00000000 0.39795196 0.47393647
0.00000000 0.36301675 0.42816570
0.00000000 0.51658207 0.64687049
0.00000000 0.53418571 0.66891396
0.00000000 0.55126077 0.69029558
0.00000000 0.56775200 0.71094614
0.00000000 0.58360410 0.73079628
0.00000000 0.59876168 0.74977684
0.00000000 0.61316955 0.76781851
0.00000000 0.62677228 0.78485203
0.00000000 0.63951463 0.80080813
0.00000000 0.65134120 0.81561756
0.00000000 0.66219682 0.82921106
0.00000000 0.67202610 0.84151942
0.00000000 0.68077374 0.85247332
0.00000000 0.68838441 0.86200351
0.00000000 0.69480282 0.87004071
0.00000000 0.69997364 0.87651569
0.00000000 0.70384163 0.88135916
0.00000000 0.69971287 0.87604094
0.00000000 0.68958312 0.86271256
0.00000000 0.67575055 0.84429371
0.00000000 0.65851271 0.82121837
0.00000000 0.63816714 0.79392064
0.00000000 0.61501133 0.76283449
0.00000000 0.58934301 0.72839409
0.00000000 0.56145954 0.69103336
0.00000000 0.53165865 0.65118641
0.00000000 0.50023776 0.60928732
0.00000000 0.46749449 0.56577003
0.00000000 0.43372640 0.52106869
0.00000000 0.39923102 0.47561729
0.00000000 0.36430594 0.42984986
0.00000000 0.32924873 0.38420051
0.00000000 0.29435688 0.33910322
0.00000000 0.55064261 0.68952149
0.00000000 0.56715631 0.71020019
0.00000000 0.58303285 0.73008102
0.00000000 0.59821701 0.74909478
0.00000000 0.61265337 0.76717222
0.00000000 0.62628675 0.78424400
0.00000000 0.63906169 0.80024099
0.00000000 0.65092301 0.81509387
0.00000000 0.66181529 0.82873333
0.00000000 0.67168331 0.84109020
0.00000000 0.68047172 0.85209513
0.00000000 0.68812519 0.86167890
0.00000000 0.69458842 0.86977226
0.00000000 0.69980615 0.87630594
0.00000000 0.70372301 0.88121068
0.00000000 0.70001107 0.87642860
0.00000000 0.69002324 0.86329579
0.00000000 0.67632163 0.84505647
0.00000000 0.65920377 0.82214475
0.00000000 0.63896722 0.79499465
0.00000000 0.61590958 0.76404023
0.00000000 0.59032840 0.72971553
0.00000000 0.56252116 0.69245452
0.00000000 0.53278548 0.65269136
0.00000000 0.50141895 0.61086005
0.00000000 0.46871907 0.56739467
0.00000000 0.43498340 0.52272916
0.00000000 0.40050954 0.47729766
0.00000000 0.36559498 0.43153420
0.00000000 0.33053735 0.38587278
0.00000000 0.29563415 0.34074751
0.00000000 0.26118296 0.29659238
0.00000000 0.22748135 0.25384146
0.00000000 0.58246070 0.72936451
0.00000000 0.59767133 0.74841142
0.00000000 0.61213619 0.76652455
0.00000000 0.62580001 0.78363460
0.00000000 0.63860756 0.79967231
0.00000000 0.65050346 0.81456852
0.00000000 0.66143239 0.82825387
0.00000000 0.67133904 0.84065908
0.00000000 0.68016815 0.85171503
0.00000000 0.68786436 0.86135232
0.00000000 0.69437242 0.86950171
0.00000000 0.69963694 0.87609404
0.00000000 0.70360261 0.88105994
0.00000000 0.70030379 0.87680876
0.00000000 0.69045830 0.86387205
0.00000000 0.67688805 0.84581292
0.00000000 0.65989059 0.82306540
0.00000000 0.63976353 0.79606354
0.00000000 0.61680442 0.76524138
0.00000000 0.59131074 0.73103297
0.00000000 0.56358016 0.69387233
0.00000000 0.53391016 0.65419352
0.00000000 0.50259835 0.61243063
0.00000000 0.46994224 0.56901765
0.00000000 0.43623942 0.52438861
0.00000000 0.40178743 0.47897759
0.00000000 0.36688381 0.43321866
0.00000000 0.33182618 0.38754579
0.00000000 0.29691201 0.34239310
0.00000000 0.26243892 0.29819459
0.00000000 0.22870447 0.25538433
0.00000000 0.19600618 0.21439636
0.00000000 0.16464163 0.17566471
0.00000000 0.61161786 0.76587552
0.00000000 0.62531221 0.78302372
0.00000000 0.63815218 0.79910213
0.00000000 0.65008259 0.81404150
0.00000000 0.66104811 0.82777262
0.00000000 0.67099333 0.84022623
0.00000000 0.67986310 0.85133296
0.00000000 0.68760192 0.86102372
0.00000000 0.69415468 0.86922908
0.00000000 0.69946593 0.87587988
0.00000000 0.70348036 0.88090688
0.00000000 0.70059115 0.87718135
0.00000000 0.69088835 0.86444139
0.00000000 0.67744982 0.84656304
0.00000000 0.66057318 0.82398033
0.00000000 0.64055598 0.79712731
0.00000000 0.61769575 0.76643795
0.00000000 0.59229010 0.73234642
0.00000000 0.56463653 0.69528675
0.00000000 0.53503263 0.65569288
0.00000000 0.50377595 0.61399895
0.00000000 0.47116402 0.57063895
0.00000000 0.43749443 0.52604699
0.00000000 0.40306473 0.48065707
0.00000000 0.36817247 0.43490320
0.00000000 0.33311519 0.38921952
0.00000000 0.29819050 0.34403998
0.00000000 0.26369593 0.29979870
0.00000000 0.22992900 0.25692967
0.00000000 0.19718732 0.21586695
0.00000000 0.16576843 0.17704460
0.00000000 0.13596988 0.14089666
0.00000000 0.10808923 0.10785718
0.00000000 0.63769561 0.79853034
0.00000000 0.64966047 0.81351286
0.00000000 0.66066241 0.82728970
0.00000000 0.67064619 0.83979148
0.00000000 0.67955649 0.85094905
0.00000000 0.68733793 0.86069310
0.00000000 0.69393528 0.86895436
0.00000000 0.69929314 0.87566358
0.00000000 0.70335633 0.88075149
0.00000000 0.70087302 0.87754643
0.00000000 0.69131327 0.86500376
0.00000000 0.67800695 0.84730679
0.00000000 0.66125154 0.82488942
0.00000000 0.64134461 0.79818583
0.00000000 0.61858368 0.76762992
0.00000000 0.59326643 0.73365587
0.00000000 0.56569028 0.69669771
0.00000000 0.53615284 0.65718937
0.00000000 0.50495166 0.61556500
0.00000000 0.47238433 0.57225865
0.00000000 0.43874839 0.52770430
0.00000000 0.40434137 0.48233601
0.00000000 0.36946085 0.43658787
0.00000000 0.33440441 0.39089391
0.00000000 0.29946956 0.34568813
0.00000000 0.26495388 0.30140463
0.00000000 0.23115492 0.25847745
0.00000000 0.19837025 0.21734059
0.00000000 0.16689742 0.17842813
0.00000000 0.13703398 0.14217411
0.00000000 0.10907751 0.10901257
0.00000000 0.08332554 0.07937756
