Blue_Ocean_Wave/Blue Ocean Wave (Gradient Map Only).cube
# VEGAS Pro LUT
TITLE "Blue Ocean Wave (Gradient Map Only)"
LUT_3D_SIZE 5
0.00000000 0.00000000 0.00000000
0.00000000 0.06192069 0.07753786
0.00000000 0.18337744 0.22962752
0.00000000 0.33605134 0.42080766
0.00000000 0.49162340 0.61561692
0.00000000 0.17818263 0.22312251
0.00000000 0.33020982 0.41349283
0.00000000 0.48617703 0.60879689
0.00000000 0.61776531 0.77357340
0.00000000 0.69665575 0.87236100
0.00000000 0.48069763 0.60193557
0.00000000 0.61368454 0.76846343
0.00000000 0.69501549 0.87030703
0.00000000 0.61410975 0.76162422
0.00000000 0.36301675 0.42816570
0.00000000 0.69326699 0.86811751
0.00000000 0.62122667 0.77117801
0.00000000 0.37332460 0.44164222
0.00000000 0.11206019 0.11250729
0.00000000 0.00525065 0.02822495
0.00000000 0.38361436 0.45511931
0.00000000 0.12014224 0.12203214
0.00000000 0.00378173 0.02314706
0.00000000 0.10927051 0.26102620
0.00000000 0.28649256 0.59960300
0.00000000 0.01478385 0.01851252
0.00000000 0.10274418 0.12865753
0.00000000 0.23944338 0.29983398
0.00000000 0.39656252 0.49658051
0.00000000 0.54578269 0.68343586
0.00000000 0.23387910 0.29286632
0.00000000 0.39074877 0.48930046
0.00000000 0.54076129 0.67714798
0.00000000 0.65559769 0.82094759
0.00000000 0.69630641 0.87158728
0.00000000 0.53569227 0.67080051
0.00000000 0.65232456 0.81684887
0.00000000 0.69898653 0.87509501
0.00000000 0.52898639 0.64761823
0.00000000 0.25696585 0.29121718
0.00000000 0.70132244 0.87812752
0.00000000 0.53798103 0.65963203
0.00000000 0.26701444 0.30403650
0.00000000 0.04077186 0.03357212
0.00000000 0.03284446 0.09989340
0.00000000 0.27712357 0.31697103
0.00000000 0.04653631 0.03943727
0.00000000 0.02927758 0.09159517
0.00000000 0.17372322 0.38708773
0.00000000 0.35238314 0.72114944
0.00000000 0.04076940 0.05105195
0.00000000 0.15065271 0.18864919
0.00000000 0.29847771 0.37375748
0.00000000 0.45592546 0.57091552
0.00000000 0.59467703 0.74466199
0.00000000 0.29269543 0.36651686
0.00000000 0.45029092 0.56385988
0.00000000 0.59023207 0.73909593
0.00000000 0.68419993 0.85676366
0.00000000 0.65009856 0.80993354
0.00000000 0.58572489 0.73345196
0.00000000 0.68188584 0.85386592
0.00000000 0.65590000 0.81771523
0.00000000 0.42903262 0.51487088
0.00000000 0.15823112 0.16783245
0.00000000 0.66143578 0.82513636
0.00000000 0.43909019 0.52815610
0.00000000 0.16720571 0.17880607
0.00000000 0.00000000 0.00194305
0.00000000 0.07919054 0.19998486
0.00000000 0.17631944 0.19000959
0.00000000 0.00076367 0.00033439
0.00000000 0.07405198 0.18933775
0.00000000 0.24314958 0.51875597
0.00000000 0.40894243 0.82461482
0.00000000 0.07638709 0.09565286
0.00000000 0.20407674 0.25554740
0.00000000 0.35891089 0.44943264
0.00000000 0.51257056 0.64184725
0.00000000 0.63673693 0.79732990
0.00000000 0.35306203 0.44210866
0.00000000 0.50726670 0.63520569
0.00000000 0.63301986 0.79267532
0.00000000 0.70200253 0.87905627
0.00000000 0.57617235 0.71073872
0.00000000 0.62922591 0.78792453
0.00000000 0.70079893 0.87754911
0.00000000 0.58428031 0.72160590
0.00000000 0.32269225 0.37569910
0.00000000 0.07525646 0.07032850
0.00000000 0.59220117 0.73222721
0.00000000 0.33299801 0.38906732
0.00000000 0.08234226 0.07826796
0.00000000 0.01310967 0.05134540
0.00000000 0.13883486 0.31946790
0.00000000 0.08964583 0.08655199
0.00000000 0.01078761 0.04495046
0.00000000 0.13265088 0.30734333
0.00000000 0.31209552 0.64699942
0.00000000 0.45071644 0.90096766
0.00000000 0.12006737 0.15034984
0.00000000 0.26144668 0.32738680
0.00000000 0.41917333 0.52489406
0.00000000 0.56492835 0.70741028
0.00000000 0.67039281 0.83947420
0.00000000 0.41340938 0.51767635
0.00000000 0.56010658 0.70137239
0.00000000 0.66755503 0.83592069
0.00000000 0.68266940 0.85352409
0.00000000 0.48297149 0.58631986
0.00000000 0.66462582 0.83225274
0.00000000 0.68662262 0.85878354
0.00000000 0.49257120 0.59908408
0.00000000 0.21840915 0.24241999
0.00000000 0.01648570 0.01102240
0.00000000 0.50206250 0.61171699
0.00000000 0.22814833 0.25468272
0.00000000 0.02086796 0.01473920
0.00000000 0.04841734 0.13479564
0.00000000 0.20632337 0.44931102
0.00000000 0.02554661 0.01891525
0.00000000 0.04419582 0.12550905
0.00000000 0.19962025 0.43658048
0.00000000 0.37510705 0.76278663
0.00000000 0.47225109 0.94117647
