Posterized_Mirror/Posterized Mirror (Without Mirror).cube
# VEGAS Pro LUT
TITLE "Posterized Mirror (Without Mirror)"
LUT_3D_SIZE 9
0.01228384 -0.04644377 0.20693095
0.01228334 0.18855932 0.45693427
0.01228334 0.18855932 0.45693427
0.01228333 0.42356294 0.70693809
0.01228333 0.42356294 0.70693809
0.01228333 0.65855217 0.95692664
0.01228333 0.65855217 0.95692664
0.01228334 0.89355582 1.20693040
0.01228334 0.89355582 1.20693040
0.26228717 -0.04644427 0.44193399
0.26228717 -0.04644427 0.44193399
0.02728358 -0.04644427 0.45693427
0.01228334 0.17355916 0.70693809
0.01228334 0.17355916 0.70693809
0.01228334 0.40854847 0.95692664
0.01228334 0.40854847 0.95692664
0.01228334 0.64355212 1.20693052
0.01228334 0.64355212 1.20693052
0.26228717 -0.04644427 0.44193399
0.26228717 -0.04644427 0.44193399
0.02728358 -0.04644427 0.45693427
0.01228334 0.17355916 0.70693809
0.01228334 0.17355916 0.70693809
0.01228334 0.40854847 0.95692664
0.01228334 0.40854847 0.95692664
0.01228334 0.64355212 1.20693052
0.01228334 0.64355212 1.20693052
0.51229095 -0.04644426 0.67693752
0.51229095 -0.04644426 0.67693752
0.29228756 -0.04644425 0.70693809
0.29228756 -0.04644425 0.70693809
0.04228383 -0.04644427 0.70693809
0.01228332 0.15854456 0.95692664
0.01228332 0.15854456 0.95692664
0.01228334 0.39354798 1.20693040
0.01228334 0.39354798 1.20693040
0.51229095 -0.04644426 0.67693752
0.51229095 -0.04644426 0.67693752
0.29228756 -0.04644425 0.70693809
0.29228756 -0.04644425 0.70693809
0.04228383 -0.04644427 0.70693809
0.01228332 0.15854456 0.95692664
0.01228332 0.15854456 0.95692664
0.01228333 0.14355974 1.20693040
0.01228334 0.39354798 1.20693040
0.76227951 -0.04644423 0.91192675
0.76227951 -0.04644423 0.91192675
0.55727547 -0.04644426 0.95692670
0.55727547 -0.04644426 0.95692670
0.30727157 -0.04644425 0.95692664
0.30727157 -0.04644425 0.95692664
0.05728316 -0.04644427 0.95692664
0.01228333 0.14355974 1.20693040
0.01228333 0.14355974 1.20693040
0.76227951 -0.04644423 0.91192675
0.76227951 -0.04644423 0.91192675
0.55727547 -0.04644426 0.95692670
0.55727547 -0.04644426 0.95692670
0.30727157 -0.04644425 0.95692664
0.30727157 -0.04644425 0.95692664
0.05728316 -0.04644427 0.95692664
0.07228339 -0.04644426 1.20693052
0.01228333 0.14355974 1.20693040
1.01228333 -0.04644423 1.14693022
1.01228333 -0.04644423 1.14693022
0.82227945 -0.04644426 1.20693052
0.82227945 -0.04644426 1.20693052
0.57227576 -0.04644426 1.20693040
0.57227576 -0.04644426 1.20693040
0.32228711 -0.04644427 1.20693040
0.32228711 -0.04644427 1.20693040
0.07228339 -0.04644426 1.20693052
1.01228333 -0.04644423 1.14693022
1.01228333 -0.04644423 1.14693022
0.82227945 -0.04644426 1.20693052
0.82227945 -0.04644426 1.20693052
0.57227576 -0.04644426 1.20693040
0.57227576 -0.04644426 1.20693040
0.32228711 -0.04644427 1.20693040
0.32228711 -0.04644427 1.20693040
0.07228339 -0.04644426 1.20693052
0.24728683 0.20355953 0.20693044
0.01228334 0.18855932 0.45693427
0.01228334 0.18855932 0.45693427
0.01228333 0.42356294 0.70693809
0.01228333 0.42356294 0.70693809
0.01228333 0.65855217 0.95692664
0.01228333 0.65855217 0.95692664
0.01228334 0.89355582 1.20693040
0.01228334 0.89355582 1.20693040
0.26228717 -0.03144405 0.20693044
0.26228714 0.20355955 0.45693427
0.26228714 0.20355955 0.45693427
0.26228714 0.43856314 0.70693809
0.26228714 0.43856314 0.70693809
0.26228714 0.67355245 0.95692664
0.26228714 0.67355245 0.95692664
0.26228714 0.90855604 1.20693040
0.26228714 0.90855604 1.20693040
0.26228717 -0.03144405 0.20693044
0.26228714 0.20355955 0.45693427
0.26228714 0.20355955 0.45693427
0.26228714 0.43856314 0.70693809
0.26228714 0.43856314 0.70693809
0.26228714 0.67355245 0.95692664
0.26228714 0.67355245 0.95692664
0.26228714 0.90855604 1.20693040
0.26228714 0.90855604 1.20693040
0.51229095 -0.04644426 0.42693377
0.51229095 0.20355955 0.69193780
0.51229095 0.20355955 0.69193780
0.51229095 0.20355955 0.69193780
0.27728739 0.20355955 0.70693809
0.26228714 0.42354858 0.95692664
0.26228714 0.42354858 0.95692664
0.26228714 0.65855229 1.20693040
0.26228714 0.65855229 1.20693040
0.51229095 -0.04644426 0.42693377
0.51229095 0.20355955 0.69193780
0.51229095 0.20355955 0.69193780
0.51229095 0.20355955 0.69193780
0.27728739 0.20355955 0.70693809
0.26228714 0.42354858 0.95692664
0.26228714 0.42354858 0.95692664
0.26228714 0.65855229 1.20693040
0.26228714 0.65855229 1.20693040
0.76227957 -0.04644427 0.66192305
0.76227951 0.20355958 0.92692703
0.76227951 0.20355958 0.92692703
0.76227951 0.20355958 0.92692703
0.54227531 0.20355956 0.95692664
0.54227531 0.20355956 0.95692664
0.29228672 0.20355952 0.95692664
0.26228717 0.40856367 1.20693040
0.26228717 0.40856367 1.20693040
0.76227957 -0.04644427 0.66192305
0.76227951 0.20355958 0.92692703
0.76227951 0.20355958 0.92692703
0.76227951 0.20355958 0.92692703
0.54227531 0.20355956 0.95692664
0.54227531 0.20355956 0.95692664
0.29228672 0.20355952 0.95692664
0.26228717 0.40856367 1.20693040
0.26228717 0.40856367 1.20693040
1.01228333 -0.04644425 0.89692658
1.01228333 0.20355953 1.16193056
1.01228333 0.20355953 1.16193056
1.01228333 0.20355953 1.16193056
0.80727929 0.20355953 1.20693052
0.80727929 0.20355953 1.20693052
0.55729091 0.20355958 1.20693052
0.55729091 0.20355958 1.20693052
0.30728695 0.20355953 1.20693040
1.01228333 -0.04644425 0.89692658
1.01228333 0.20355953 1.16193056
1.01228333 0.20355953 1.16193056
1.01228333 0.20355953 1.16193056
0.80727929 0.20355953 1.20693052
0.80727929 0.20355953 1.20693052
0.55729091 0.20355958 1.20693052
0.55729091 0.20355958 1.20693052
0.30728695 0.20355953 1.20693040
0.24728683 0.20355953 0.20693044
0.01228333 0.20355953 0.22193073
0.01228333 0.20355953 0.22193073
0.01228331 0.45356336 0.48693493
0.01228331 0.45356336 0.48693493
0.01228334 0.70355195 0.75192267
0.01228334 0.70355195 0.75192267
0.01228330 0.95355576 1.01692700
0.01228334 0.89355582 1.20693040
0.26228717 -0.03144405 0.20693044
0.26228714 0.20355955 0.45693427
0.26228714 0.20355955 0.45693427
0.26228714 0.43856314 0.70693809
0.26228714 0.43856314 0.70693809
0.26228714 0.67355245 0.95692664
0.26228714 0.67355245 0.95692664
0.26228714 0.90855604 1.20693040
0.26228714 0.90855604 1.20693040
0.26228717 -0.03144405 0.20693044
0.26228714 0.20355955 0.45693427
0.26228714 0.20355955 0.45693427
0.26228714 0.43856314 0.70693809
0.26228714 0.43856314 0.70693809
0.26228714 0.67355245 0.95692664
0.26228714 0.67355245 0.95692664
0.26228714 0.90855604 1.20693040
0.26228714 0.90855604 1.20693040
0.51229095 -0.04644426 0.42693377
0.51229095 0.20355955 0.69193780
0.51229095 0.20355955 0.69193780
0.27728739 0.20355955 0.70693809
0.27728739 0.20355955 0.70693809
0.26228714 0.42354858 0.95692664
0.26228714 0.42354858 0.95692664
0.26228714 0.65855229 1.20693040
0.26228714 0.65855229 1.20693040
0.51229095 -0.04644426 0.42693377
0.51229095 0.20355955 0.69193780
0.51229095 0.20355955 0.69193780
0.51229095 0.20355955 0.69193780
0.27728739 0.20355955 0.70693809
0.26228714 0.42354858 0.95692664
0.26228714 0.42354858 0.95692664
0.26228714 0.65855229 1.20693040
0.26228714 0.65855229 1.20693040
0.76227957 -0.04644427 0.66192305
0.76227951 0.20355958 0.92692703
0.76227951 0.20355958 0.92692703
0.76227951 0.20355958 0.92692703
0.54227531 0.20355956 0.95692664
0.54227531 0.20355956 0.95692664
0.29228672 0.20355952 0.95692664
0.26228717 0.40856367 1.20693040
0.26228717 0.40856367 1.20693040
0.76227957 -0.04644427 0.66192305
0.76227951 0.20355958 0.92692703
0.76227951 0.20355958 0.92692703
0.76227951 0.20355958 0.92692703
0.54227531 0.20355956 0.95692664
0.54227531 0.20355956 0.95692664
0.29228672 0.20355952 0.95692664
0.26228717 0.40856367 1.20693040
0.26228717 0.40856367 1.20693040
1.01228333 -0.04644425 0.89692658
1.01228333 0.20355953 1.16193056
1.01228333 0.20355953 1.16193056
1.01228333 0.20355953 1.16193056
0.80727929 0.20355953 1.20693052
0.80727929 0.20355953 1.20693052
0.55729091 0.20355958 1.20693052
0.55729091 0.20355958 1.20693052
0.30728695 0.20355953 1.20693040
1.01228333 -0.04644425 0.89692658
1.01228333 0.20355953 1.16193056
1.01228333 0.20355953 1.16193056
1.01228333 0.20355953 1.16193056
0.80727929 0.20355953 1.20693052
0.80727929 0.20355953 1.20693052
0.55729091 0.20355958 1.20693052
0.55729091 0.20355958 1.20693052
0.30728695 0.20355953 1.20693040
0.48229033 0.45356336 0.20693044
0.23228671 0.45356339 0.20693044
0.23228671 0.45356339 0.20693044
0.01228331 0.45356336 0.48693493
0.01228331 0.45356336 0.48693493
0.01228334 0.70355195 0.75192267
0.01228334 0.70355195 0.75192267
0.01228330 0.95355576 1.01692700
0.01228330 0.95355576 1.01692700
0.51229095 0.23356006 0.20693044
0.49729061 0.45356336 0.45693427
0.49729061 0.45356336 0.45693427
0.26228714 0.43856314 0.70693809
0.26228714 0.43856314 0.70693809
0.26228714 0.67355245 0.95692664
0.26228714 0.67355245 0.95692664
0.26228714 0.90855604 1.20693040
0.26228714 0.90855604 1.20693040
0.51229095 0.23356006 0.20693044
0.49729061 0.45356336 0.45693427
0.49729061 0.45356336 0.45693427
0.26228714 0.43856314 0.70693809
0.26228714 0.43856314 0.70693809
0.26228714 0.67355245 0.95692664
0.26228714 0.67355245 0.95692664
0.26228714 0.90855604 1.20693040
0.26228714 0.90855604 1.20693040
0.51229095 -0.01644384 0.20693046
0.51229095 0.21855976 0.45693427
0.51229095 0.21855976 0.45693427
0.51229095 0.45356336 0.70693809
0.51229095 0.45356336 0.70693809
0.51229095 0.68855274 0.95692664
0.51229095 0.68855274 0.95692664
0.51229095 0.92355627 1.20693040
0.51229095 0.92355627 1.20693040
0.51229095 -0.01644384 0.20693046
0.51229095 0.21855976 0.45693427
0.51229095 0.21855976 0.45693427
0.51229095 0.45356336 0.70693809
0.51229095 0.45356336 0.70693809
0.51229095 0.68855274 0.95692664
0.51229095 0.68855274 0.95692664
0.51229095 0.92355627 1.20693040
0.51229095 0.92355627 1.20693040
0.76227957 -0.04644428 0.41191912
0.76227951 0.20355958 0.67692316
0.76227951 0.20355958 0.67692316
0.76227951 0.45356339 0.94192731
0.76227951 0.45356339 0.94192731
0.52729028 0.45356333 0.95692664
0.52729028 0.45356333 0.95692664
0.51229095 0.67356765 1.20693040
0.51229095 0.67356765 1.20693040
0.76227957 -0.04644428 0.41191912
0.76227951 0.20355958 0.67692316
0.76227951 0.20355958 0.67692316
0.76227951 0.45356339 0.94192731
0.76227951 0.45356339 0.94192731
0.52729028 0.45356333 0.95692664
0.52729028 0.45356333 0.95692664
0.51229095 0.67356765 1.20693040
0.51229095 0.67356765 1.20693040
1.01228333 -0.04644424 0.64692289
1.01228333 0.20355950 0.91192687
1.01228333 0.20355950 0.91192687
1.01228333 0.45356336 1.17693090
1.01228333 0.45356336 1.17693090
1.01228333 0.45356336 1.17693090
0.79229432 0.45356345 1.20693040
0.79229432 0.45356345 1.20693040
0.54229051 0.45356336 1.20693040
1.01228333 -0.04644424 0.64692289
1.01228333 0.20355950 0.91192687
1.01228333 0.20355950 0.91192687
1.01228333 0.45356336 1.17693090
1.01228333 0.45356336 1.17693090
1.01228333 0.45356336 1.17693090
0.79229432 0.45356345 1.20693040
0.79229432 0.45356345 1.20693040
0.54229051 0.45356336 1.20693040
0.48229033 0.45356336 0.20693044
0.23228671 0.45356339 0.20693044
0.23228671 0.45356339 0.20693044
0.01228333 0.45356333 0.23693098
0.01228333 0.45356333 0.23693098
0.01228333 0.70355195 0.50191903
0.01228333 0.70355195 0.50191903
0.01228334 0.95355570 0.76692301
0.01228330 0.95355576 1.01692700
0.51229095 0.23356006 0.20693044
0.49729061 0.45356336 0.45693427
0.49729061 0.45356336 0.45693427
0.26228714 0.45356333 0.47193456
0.26228714 0.45356333 0.47193456
0.26228714 0.70355195 0.73692232
0.26228714 0.70355195 0.73692232
0.26228711 0.95355564 1.00192642
0.26228711 0.95355564 1.00192642
0.51229095 0.23356006 0.20693044
0.49729061 0.45356336 0.45693427
0.49729061 0.45356336 0.45693427
0.26228714 0.45356333 0.47193456
0.26228714 0.45356333 0.47193456
0.26228714 0.70355195 0.73692232
0.26228714 0.70355195 0.73692232
0.26228711 0.95355564 1.00192642
0.26228711 0.95355564 1.00192642
0.51229095 -0.01644384 0.20693046
0.51229095 0.21855976 0.45693427
0.51229095 0.21855976 0.45693427
0.51229095 0.45356336 0.70693809
0.51229095 0.45356336 0.70693809
0.51229095 0.68855274 0.95692664
0.51229095 0.68855274 0.95692664
0.51229095 0.92355627 1.20693040
0.51229095 0.92355627 1.20693040
0.51229095 -0.01644384 0.20693046
0.51229095 0.21855976 0.45693427
0.51229095 0.21855976 0.45693427
0.51229095 0.45356336 0.70693809
0.51229095 0.45356336 0.70693809
0.51229095 0.68855274 0.95692664
0.51229095 0.68855274 0.95692664
0.51229095 0.92355627 1.20693040
0.51229095 0.92355627 1.20693040
0.76227957 -0.04644428 0.41191912
0.76227951 0.20355958 0.67692316
0.76227951 0.20355958 0.67692316
0.76227951 0.45356339 0.94192731
0.76227951 0.45356339 0.94192731
0.52729028 0.45356333 0.95692664
0.52729028 0.45356333 0.95692664
0.51229095 0.67356765 1.20693040
0.51229095 0.67356765 1.20693040
0.76227957 -0.04644428 0.41191912
0.76227951 0.20355958 0.67692316
0.76227951 0.20355958 0.67692316
0.76227951 0.45356339 0.94192731
0.76227951 0.45356339 0.94192731
0.52729028 0.45356333 0.95692664
0.52729028 0.45356333 0.95692664
0.51229095 0.67356765 1.20693040
0.51229095 0.67356765 1.20693040
1.01228333 -0.04644424 0.64692289
1.01228333 0.20355950 0.91192687
1.01228333 0.20355950 0.91192687
1.01228333 0.45356336 1.17693090
1.01228333 0.45356336 1.17693090
0.79229432 0.45356345 1.20693040
0.79229432 0.45356345 1.20693040
0.54229051 0.45356336 1.20693040
0.54229051 0.45356336 1.20693040
1.01228333 -0.04644424 0.64692289
1.01228333 0.20355950 0.91192687
1.01228333 0.20355950 0.91192687
1.01228333 0.45356336 1.17693090
1.01228333 0.45356336 1.17693090
1.01228333 0.45356336 1.17693090
0.79229432 0.45356345 1.20693040
0.79229432 0.45356345 1.20693040
0.54229051 0.45356336 1.20693040
0.71727943 0.70355201 0.20693046
0.46727574 0.70355189 0.20693044
0.21727209 0.70355195 0.20693043
0.21727209 0.70355195 0.20693043
0.01228333 0.70355195 0.25193036
0.01228333 0.70355195 0.50191903
0.01228333 0.70355195 0.50191903
0.01228334 0.95355570 0.76692301
0.01228334 0.95355570 0.76692301
0.76227951 0.49854773 0.20693046
0.73227978 0.70355189 0.45693427
0.73227978 0.70355189 0.45693427
0.48227593 0.70355195 0.45693427
0.48227593 0.70355195 0.45693427
0.26228714 0.70355195 0.73692232
0.26228714 0.70355195 0.73692232
0.26228711 0.95355564 1.00192642
0.26228711 0.95355564 1.00192642
0.76227951 0.49854773 0.20693046
0.73227978 0.70355189 0.45693427
0.73227978 0.70355189 0.45693427
0.48227593 0.70355195 0.45693427
0.48227593 0.70355195 0.45693427
0.26228714 0.70355195 0.73692232
0.26228714 0.70355195 0.73692232
0.26228711 0.95355564 1.00192642
0.26228711 0.95355564 1.00192642
0.76227951 0.24854414 0.20693044
0.76227951 0.48354787 0.45693427
0.76227951 0.48354787 0.45693427
0.74728012 0.70355195 0.70693809
0.74728012 0.70355195 0.70693809
0.51229095 0.68855274 0.95692664
0.51229095 0.68855274 0.95692664
0.51229095 0.92355627 1.20693040
0.51229095 0.92355627 1.20693040
0.76227951 0.24854414 0.20693044
0.76227951 0.48354787 0.45693427
0.76227951 0.48354787 0.45693427
0.74728012 0.70355195 0.70693809
0.74728012 0.70355195 0.70693809
0.51229095 0.70355195 0.72193742
0.51229095 0.68855274 0.95692664
0.51229095 0.92355627 1.20693040
0.51229095 0.92355627 1.20693040
0.76227957 -0.00144454 0.20693046
0.76227951 0.23355907 0.45693427
0.76227951 0.23355907 0.45693427
0.76227951 0.46856263 0.70693809
0.76227951 0.46856263 0.70693809
0.76227951 0.70355189 0.95692664
0.76227951 0.70355189 0.95692664
0.76227951 0.93855554 1.20693040
0.51229095 0.67356765 1.20693040
0.76227957 -0.00144454 0.20693046
0.76227951 0.23355907 0.45693427
0.76227951 0.23355907 0.45693427
0.76227951 0.46856263 0.70693809
0.76227951 0.46856263 0.70693809
0.76227951 0.70355189 0.95692664
0.76227951 0.70355189 0.95692664
0.76227951 0.93855554 1.20693040
0.51229095 0.67356765 1.20693040
1.01228344 -0.04644430 0.39693421
1.01228344 0.20355952 0.66193819
1.01228344 0.20355952 0.66193819
1.01228333 0.45356342 0.92694241
1.01228333 0.45356342 0.92694241
1.01228333 0.70355189 1.19193017
1.01228333 0.70355189 1.19193017
0.77727973 0.70355195 1.20693040
0.54229051 0.45356336 1.20693040
1.01228344 -0.04644430 0.39693421
1.01228344 0.20355952 0.66193819
1.01228344 0.20355952 0.66193819
1.01228333 0.45356342 0.92694241
1.01228333 0.45356342 0.92694241
1.01228333 0.45356342 0.92694241
0.79229432 0.45356345 1.20693040
0.79229432 0.45356345 1.20693040
0.54229051 0.45356336 1.20693040
0.71727943 0.70355201 0.20693046
0.46727574 0.70355189 0.20693044
0.21727209 0.70355195 0.20693043
0.21727209 0.70355195 0.20693043
0.01228333 0.70355195 0.25193036
0.01228333 0.70355195 0.25193036
0.01228333 0.70355195 0.25193036
0.01228332 0.95355570 0.51693469
0.01228334 0.95355570 0.76692301
0.76227951 0.49854773 0.20693046
0.73227978 0.70355189 0.45693427
0.48227593 0.70355195 0.45693427
0.48227593 0.70355195 0.45693427
0.26228714 0.70355189 0.48693392
0.26228714 0.70355189 0.48693392
0.26228714 0.70355189 0.48693392
0.26228714 0.95355576 0.75193787
0.26228711 0.95355564 1.00192642
0.76227951 0.49854773 0.20693046
0.73227978 0.70355189 0.45693427
0.73227978 0.70355189 0.45693427
0.48227593 0.70355195 0.45693427
0.48227593 0.70355195 0.45693427
0.26228714 0.70355189 0.48693392
0.26228714 0.70355189 0.48693392
0.26228714 0.95355576 0.75193787
0.26228714 0.95355576 0.75193787
0.76227951 0.24854414 0.20693044
0.76227951 0.48354787 0.45693427
0.76227951 0.48354787 0.45693427
0.74728012 0.70355195 0.70693809
0.74728012 0.70355195 0.70693809
0.51229095 0.70355195 0.72193742
0.51229095 0.70355195 0.72193742
0.51229095 0.95355570 0.98694152
0.51229095 0.95355570 0.98694152
0.76227951 0.24854414 0.20693044
0.76227951 0.48354787 0.45693427
0.76227951 0.48354787 0.45693427
0.74728012 0.70355195 0.70693809
0.74728012 0.70355195 0.70693809
0.51229095 0.70355195 0.72193742
0.51229095 0.70355195 0.72193742
0.51229095 0.95355570 0.98694152
0.51229095 0.95355570 0.98694152
0.76227957 -0.00144454 0.20693046
0.76227951 0.23355907 0.45693427
0.76227951 0.23355907 0.45693427
0.76227951 0.46856263 0.70693809
0.76227951 0.46856263 0.70693809
0.76227951 0.70355189 0.95692664
0.76227951 0.70355189 0.95692664
0.76227951 0.93855554 1.20693040
0.51229095 0.95355570 0.98694152
0.76227957 -0.00144454 0.20693046
0.76227951 0.23355907 0.45693427
0.76227951 0.23355907 0.45693427
0.76227951 0.46856263 0.70693809
0.76227951 0.46856263 0.70693809
0.76227951 0.70355189 0.95692664
0.76227951 0.70355189 0.95692664
0.76227951 0.93855554 1.20693040
0.76227951 0.93855554 1.20693040
1.01228344 -0.04644430 0.39693421
1.01228344 0.20355952 0.66193819
1.01228344 0.20355952 0.66193819
1.01228333 0.45356342 0.92694241
1.01228333 0.45356342 0.92694241
1.01228333 0.70355189 1.19193017
1.01228333 0.70355189 1.19193017
0.77727973 0.70355195 1.20693040
0.77727973 0.70355195 1.20693040
1.01228344 -0.04644430 0.39693421
1.01228344 0.20355952 0.66193819
1.01228344 0.20355952 0.66193819
1.01228333 0.45356342 0.92694241
1.01228333 0.45356342 0.92694241
1.01228333 0.45356342 0.92694241
1.01228333 0.70355189 1.19193017
1.01228333 0.70355189 1.19193017
0.77727973 0.70355195 1.20693040
0.95228291 0.95355570 0.20693043
0.70227957 0.95355564 0.20693043
0.45227551 0.95355570 0.20693047
0.45227551 0.95355570 0.20693047
0.20228718 0.95355570 0.20693044
0.20228718 0.95355570 0.20693044
0.01228335 0.95355576 0.26693064
0.01228332 0.95355570 0.51693469
0.01228332 0.95355570 0.51693469
1.01228333 0.76355213 0.20693046
0.96728325 0.95355582 0.45693427
0.71727955 0.95355570 0.45693427
0.71727955 0.95355570 0.45693427
0.46729091 0.95355570 0.45693427
0.46729091 0.95355570 0.45693427
0.26228714 0.95355570 0.50193417
0.26228714 0.95355576 0.75193787
0.26228714 0.95355576 0.75193787
1.01228333 0.76355213 0.20693046
0.96728325 0.95355582 0.45693427
0.96728325 0.95355582 0.45693427
0.71727955 0.95355570 0.45693427
0.46729091 0.95355570 0.45693427
0.46729091 0.95355570 0.45693427
0.26228714 0.95355570 0.50193417
0.26228714 0.95355576 0.75193787
0.26228714 0.95355576 0.75193787
1.01228333 0.51354802 0.20693046
1.01228333 0.74855155 0.45693427
1.01228333 0.74855155 0.45693427
0.98228359 0.95355570 0.70693809
0.98228359 0.95355570 0.70693809
0.73229516 0.95355570 0.70693809
0.51229095 0.95355570 0.73693770
0.51229095 0.95355570 0.98694152
0.51229095 0.95355570 0.98694152
1.01228333 0.51354802 0.20693046
1.01228333 0.74855155 0.45693427
1.01228333 0.74855155 0.45693427
0.98228359 0.95355570 0.70693809
0.98228359 0.95355570 0.70693809
0.73229516 0.95355570 0.70693809
0.73229516 0.95355570 0.70693809
0.51229095 0.95355570 0.98694152
0.51229095 0.95355570 0.98694152
1.01228333 0.26355976 0.20693046
1.01228333 0.49856347 0.45693427
1.01228333 0.49856347 0.45693427
1.01228333 0.73356676 0.70693809
1.01228333 0.73356676 0.70693809
0.99728298 0.95355576 0.95692664
0.99728298 0.95355576 0.95692664
0.76227951 0.95355576 0.97192693
0.51229095 0.95355570 0.98694152
1.01228333 0.26355976 0.20693046
1.01228333 0.49856347 0.45693427
1.01228333 0.49856347 0.45693427
1.01228333 0.73356676 0.70693809
1.01228333 0.73356676 0.70693809
0.99728298 0.95355576 0.95692664
0.99728298 0.95355576 0.95692664
0.76227951 0.95355576 0.97192693
0.76227951 0.93855554 1.20693040
1.01228344 0.01355566 0.20693044
1.01228333 0.24855931 0.45693427
1.01228333 0.24855931 0.45693427
1.01228333 0.48356283 0.70693809
1.01228333 0.48356283 0.70693809
1.01228333 0.71855217 0.95692664
1.01228333 0.71855217 0.95692664
1.01228380 0.95355618 1.20693088
0.77727973 0.70355195 1.20693040
1.01228344 0.01355566 0.20693044
1.01228333 0.24855931 0.45693427
1.01228333 0.24855931 0.45693427
1.01228333 0.48356283 0.70693809
1.01228333 0.48356283 0.70693809
1.01228333 0.48356283 0.70693809
1.01228333 0.71855217 0.95692664
1.01228333 0.71855217 0.95692664
0.77727973 0.70355195 1.20693040
0.95228291 0.95355570 0.20693043
0.70227957 0.95355564 0.20693043
0.45227551 0.95355570 0.20693047
0.45227551 0.95355570 0.20693047
0.20228718 0.95355570 0.20693044
0.20228718 0.95355570 0.20693044
0.01228335 0.95355576 0.26693064
0.01228335 0.95355576 0.26693064
0.01228332 0.95355570 0.51693469
0.95228291 0.95355570 0.20693043
0.96728325 0.95355582 0.45693427
0.71727955 0.95355570 0.45693427
0.71727955 0.95355570 0.45693427
0.46729091 0.95355570 0.45693427
0.46729091 0.95355570 0.45693427
0.26228714 0.95355570 0.50193417
0.26228714 0.95355570 0.50193417
0.26228714 0.95355576 0.75193787
1.01228333 0.76355213 0.20693046
0.96728325 0.95355582 0.45693427
0.96728325 0.95355582 0.45693427
0.71727955 0.95355570 0.45693427
0.46729091 0.95355570 0.45693427
0.46729091 0.95355570 0.45693427
0.46729091 0.95355570 0.45693427
0.26228714 0.95355570 0.50193417
0.26228714 0.95355570 0.50193417
1.01228333 0.76355213 0.20693046
0.96728325 0.95355582 0.45693427
0.96728325 0.95355582 0.45693427
0.98228359 0.95355570 0.70693809
0.98228359 0.95355570 0.70693809
0.73229516 0.95355570 0.70693809
0.73229516 0.95355570 0.70693809
0.51229095 0.95355570 0.73693770
0.51229095 0.95355570 0.73693770
1.01228333 0.51354802 0.20693046
1.01228333 0.74855155 0.45693427
1.01228333 0.74855155 0.45693427
0.98228359 0.95355570 0.70693809
0.98228359 0.95355570 0.70693809
0.73229516 0.95355570 0.70693809
0.73229516 0.95355570 0.70693809
0.51229095 0.95355570 0.73693770
0.51229095 0.95355570 0.73693770
1.01228333 0.51354802 0.20693046
1.01228333 0.74855155 0.45693427
1.01228333 0.74855155 0.45693427
0.98228359 0.95355570 0.70693809
0.98228359 0.95355570 0.70693809
0.98228359 0.95355570 0.70693809
0.73229516 0.95355570 0.70693809
0.51229095 0.95355570 0.73693770
0.51229095 0.95355570 0.73693770
1.01228333 0.26355976 0.20693046
1.01228333 0.49856347 0.45693427
1.01228333 0.49856347 0.45693427
1.01228333 0.73356676 0.70693809
1.01228333 0.73356676 0.70693809
1.01228333 0.73356676 0.70693809
0.99728298 0.95355576 0.95692664
0.76227951 0.95355576 0.97192693
0.76227951 0.95355576 0.97192693
1.01228333 0.26355976 0.20693046
1.01228333 0.49856347 0.45693427
1.01228333 0.49856347 0.45693427
1.01228333 0.73356676 0.70693809
1.01228333 0.73356676 0.70693809
1.01228333 0.73356676 0.70693809
0.99728298 0.95355576 0.95692664
0.99728298 0.95355576 0.95692664
0.76227951 0.95355576 0.97192693
1.01228344 0.01355566 0.20693044
1.01228333 0.24855931 0.45693427
1.01228333 0.24855931 0.45693427
1.01228333 0.48356283 0.70693809
1.01228333 0.48356283 0.70693809
1.01228333 0.48356283 0.70693809
1.01228333 0.71855217 0.95692664
1.01228333 0.71855217 0.95692664
1.01228380 0.95355618 1.20693088
