Posterized_Mirror/Posterized Mirror (Without Mirror).cube
# VEGAS Pro LUT
TITLE "Posterized Mirror (Without Mirror)"
LUT_3D_SIZE 33
0.01228384 -0.04644377 0.20693095
0.01228384 -0.04644377 0.20693095
0.01228384 -0.04644377 0.20693095
0.01228384 -0.04644377 0.20693095
0.01228334 0.18855932 0.45693427
0.01228334 0.18855932 0.45693427
0.01228334 0.18855932 0.45693427
0.01228334 0.18855932 0.45693427
0.01228334 0.18855932 0.45693427
0.01228334 0.18855932 0.45693427
0.01228334 0.18855932 0.45693427
0.01228334 0.18855932 0.45693427
0.01228333 0.42356294 0.70693809
0.01228333 0.42356294 0.70693809
0.01228333 0.42356294 0.70693809
0.01228333 0.42356294 0.70693809
0.01228333 0.42356294 0.70693809
0.01228333 0.42356294 0.70693809
0.01228333 0.42356294 0.70693809
0.01228333 0.65855217 0.95692664
0.01228333 0.65855217 0.95692664
0.01228333 0.65855217 0.95692664
0.01228333 0.65855217 0.95692664
0.01228333 0.65855217 0.95692664
0.01228333 0.65855217 0.95692664
0.01228333 0.65855217 0.95692664
0.01228333 0.65855217 0.95692664
0.01228334 0.89355582 1.20693040
0.01228334 0.89355582 1.20693040
0.01228334 0.89355582 1.20693040
0.01228334 0.89355582 1.20693040
0.01228334 0.89355582 1.20693040
0.01228334 0.89355582 1.20693040
0.01228384 -0.04644377 0.20693095
0.01228384 -0.04644377 0.20693095
0.01228384 -0.04644377 0.20693095
0.01228384 -0.04644377 0.20693095
0.01228334 0.18855932 0.45693427
0.01228334 0.18855932 0.45693427
0.01228334 0.18855932 0.45693427
0.01228334 0.18855932 0.45693427
0.01228334 0.18855932 0.45693427
0.01228334 0.18855932 0.45693427
0.01228334 0.18855932 0.45693427
0.01228334 0.18855932 0.45693427
0.01228333 0.42356294 0.70693809
0.01228333 0.42356294 0.70693809
0.01228333 0.42356294 0.70693809
0.01228333 0.42356294 0.70693809
0.01228333 0.42356294 0.70693809
0.01228333 0.42356294 0.70693809
0.01228333 0.42356294 0.70693809
0.01228333 0.65855217 0.95692664
0.01228333 0.65855217 0.95692664
0.01228333 0.65855217 0.95692664
0.01228333 0.65855217 0.95692664
0.01228334 0.40854847 0.95692664
0.01228334 0.40854847 0.95692664
0.01228334 0.40854847 0.95692664
0.01228334 0.40854847 0.95692664
0.01228334 0.64355212 1.20693052
0.01228334 0.64355212 1.20693052
0.01228334 0.64355212 1.20693052
0.01228334 0.64355212 1.20693052
0.01228334 0.64355212 1.20693052
0.01228334 0.64355212 1.20693052
0.01228384 -0.04644377 0.20693095
0.01228384 -0.04644377 0.20693095
0.01228384 -0.04644377 0.20693095
0.01228384 -0.04644377 0.20693095
0.01228334 0.18855932 0.45693427
0.01228334 0.18855932 0.45693427
0.01228334 0.18855932 0.45693427
0.01228334 0.18855932 0.45693427
0.01228334 0.18855932 0.45693427
0.01228334 0.18855932 0.45693427
0.01228334 0.18855932 0.45693427
0.01228334 0.18855932 0.45693427
0.01228333 0.42356294 0.70693809
0.01228333 0.42356294 0.70693809
0.01228333 0.42356294 0.70693809
0.01228334 0.17355916 0.70693809
0.01228334 0.17355916 0.70693809
0.01228334 0.17355916 0.70693809
0.01228334 0.17355916 0.70693809
0.01228334 0.40854847 0.95692664
0.01228334 0.40854847 0.95692664
0.01228334 0.40854847 0.95692664
0.01228334 0.40854847 0.95692664
0.01228334 0.40854847 0.95692664
0.01228334 0.40854847 0.95692664
0.01228334 0.40854847 0.95692664
0.01228334 0.40854847 0.95692664
0.01228334 0.64355212 1.20693052
0.01228334 0.64355212 1.20693052
0.01228334 0.64355212 1.20693052
0.01228334 0.64355212 1.20693052
0.01228334 0.64355212 1.20693052
0.01228334 0.64355212 1.20693052
0.01228384 -0.04644377 0.20693095
0.01228384 -0.04644377 0.20693095
0.01228384 -0.04644377 0.20693095
0.01228384 -0.04644377 0.20693095
0.01228334 0.18855932 0.45693427
0.01228334 0.18855932 0.45693427
0.01228334 0.18855932 0.45693427
0.01228334 0.18855932 0.45693427
0.02728358 -0.04644427 0.45693427
0.02728358 -0.04644427 0.45693427
0.02728358 -0.04644427 0.45693427
0.02728358 -0.04644427 0.45693427
0.01228334 0.17355916 0.70693809
0.01228334 0.17355916 0.70693809
0.01228334 0.17355916 0.70693809
0.01228334 0.17355916 0.70693809
0.01228334 0.17355916 0.70693809
0.01228334 0.17355916 0.70693809
0.01228334 0.17355916 0.70693809
0.01228334 0.40854847 0.95692664
0.01228334 0.40854847 0.95692664
0.01228334 0.40854847 0.95692664
0.01228334 0.40854847 0.95692664
0.01228334 0.40854847 0.95692664
0.01228334 0.40854847 0.95692664
0.01228334 0.40854847 0.95692664
0.01228334 0.40854847 0.95692664
0.01228334 0.64355212 1.20693052
0.01228334 0.64355212 1.20693052
0.01228334 0.64355212 1.20693052
0.01228334 0.64355212 1.20693052
0.01228334 0.64355212 1.20693052
0.01228334 0.64355212 1.20693052
0.26228717 -0.04644427 0.44193399
0.26228717 -0.04644427 0.44193399
0.26228717 -0.04644427 0.44193399
0.26228717 -0.04644427 0.44193399
0.26228717 -0.04644427 0.44193399
0.02728358 -0.04644427 0.45693427
0.02728358 -0.04644427 0.45693427
0.02728358 -0.04644427 0.45693427
0.02728358 -0.04644427 0.45693427
0.02728358 -0.04644427 0.45693427
0.02728358 -0.04644427 0.45693427
0.02728358 -0.04644427 0.45693427
0.01228334 0.17355916 0.70693809
0.01228334 0.17355916 0.70693809
0.01228334 0.17355916 0.70693809
0.01228334 0.17355916 0.70693809
0.01228334 0.17355916 0.70693809
0.01228334 0.17355916 0.70693809
0.01228334 0.17355916 0.70693809
0.01228334 0.40854847 0.95692664
0.01228334 0.40854847 0.95692664
0.01228334 0.40854847 0.95692664
0.01228334 0.40854847 0.95692664
0.01228334 0.40854847 0.95692664
0.01228334 0.40854847 0.95692664
0.01228334 0.40854847 0.95692664
0.01228334 0.40854847 0.95692664
0.01228334 0.64355212 1.20693052
0.01228334 0.64355212 1.20693052
0.01228334 0.64355212 1.20693052
0.01228334 0.64355212 1.20693052
0.01228334 0.64355212 1.20693052
0.01228334 0.64355212 1.20693052
0.26228717 -0.04644427 0.44193399
0.26228717 -0.04644427 0.44193399
0.26228717 -0.04644427 0.44193399
0.26228717 -0.04644427 0.44193399
0.26228717 -0.04644427 0.44193399
0.02728358 -0.04644427 0.45693427
0.02728358 -0.04644427 0.45693427
0.02728358 -0.04644427 0.45693427
0.02728358 -0.04644427 0.45693427
0.02728358 -0.04644427 0.45693427
0.02728358 -0.04644427 0.45693427
0.02728358 -0.04644427 0.45693427
0.01228334 0.17355916 0.70693809
0.01228334 0.17355916 0.70693809
0.01228334 0.17355916 0.70693809
0.01228334 0.17355916 0.70693809
0.01228334 0.17355916 0.70693809
0.01228334 0.17355916 0.70693809
0.01228334 0.17355916 0.70693809
0.01228334 0.40854847 0.95692664
0.01228334 0.40854847 0.95692664
0.01228334 0.40854847 0.95692664
0.01228334 0.40854847 0.95692664
0.01228334 0.40854847 0.95692664
0.01228334 0.40854847 0.95692664
0.01228334 0.40854847 0.95692664
0.01228334 0.40854847 0.95692664
0.01228334 0.64355212 1.20693052
0.01228334 0.64355212 1.20693052
0.01228334 0.64355212 1.20693052
0.01228334 0.64355212 1.20693052
0.01228334 0.64355212 1.20693052
0.01228334 0.64355212 1.20693052
0.26228717 -0.04644427 0.44193399
0.26228717 -0.04644427 0.44193399
0.26228717 -0.04644427 0.44193399
0.26228717 -0.04644427 0.44193399
0.26228717 -0.04644427 0.44193399
0.02728358 -0.04644427 0.45693427
0.02728358 -0.04644427 0.45693427
0.02728358 -0.04644427 0.45693427
0.02728358 -0.04644427 0.45693427
0.02728358 -0.04644427 0.45693427
0.02728358 -0.04644427 0.45693427
0.02728358 -0.04644427 0.45693427
0.01228334 0.17355916 0.70693809
0.01228334 0.17355916 0.70693809
0.01228334 0.17355916 0.70693809
0.01228334 0.17355916 0.70693809
0.01228334 0.17355916 0.70693809
0.01228334 0.17355916 0.70693809
0.01228334 0.17355916 0.70693809
0.01228334 0.40854847 0.95692664
0.01228334 0.40854847 0.95692664
0.01228334 0.40854847 0.95692664
0.01228334 0.40854847 0.95692664
0.01228334 0.40854847 0.95692664
0.01228334 0.40854847 0.95692664
0.01228334 0.40854847 0.95692664
0.01228334 0.40854847 0.95692664
0.01228334 0.64355212 1.20693052
0.01228334 0.64355212 1.20693052
0.01228334 0.64355212 1.20693052
0.01228334 0.64355212 1.20693052
0.01228334 0.64355212 1.20693052
0.01228334 0.64355212 1.20693052
0.26228717 -0.04644427 0.44193399
0.26228717 -0.04644427 0.44193399
0.26228717 -0.04644427 0.44193399
0.26228717 -0.04644427 0.44193399
0.26228717 -0.04644427 0.44193399
0.02728358 -0.04644427 0.45693427
0.02728358 -0.04644427 0.45693427
0.02728358 -0.04644427 0.45693427
0.02728358 -0.04644427 0.45693427
0.02728358 -0.04644427 0.45693427
0.02728358 -0.04644427 0.45693427
0.02728358 -0.04644427 0.45693427
0.01228334 0.17355916 0.70693809
0.01228334 0.17355916 0.70693809
0.01228334 0.17355916 0.70693809
0.01228334 0.17355916 0.70693809
0.01228334 0.17355916 0.70693809
0.01228334 0.17355916 0.70693809
0.01228334 0.17355916 0.70693809
0.01228334 0.40854847 0.95692664
0.01228334 0.40854847 0.95692664
0.01228334 0.40854847 0.95692664
0.01228334 0.40854847 0.95692664
0.01228334 0.40854847 0.95692664
0.01228334 0.40854847 0.95692664
0.01228334 0.40854847 0.95692664
0.01228334 0.40854847 0.95692664
0.01228334 0.64355212 1.20693052
0.01228334 0.64355212 1.20693052
0.01228334 0.64355212 1.20693052
0.01228334 0.64355212 1.20693052
0.01228334 0.64355212 1.20693052
0.01228334 0.64355212 1.20693052
0.26228717 -0.04644427 0.44193399
0.26228717 -0.04644427 0.44193399
0.26228717 -0.04644427 0.44193399
0.26228717 -0.04644427 0.44193399
0.26228717 -0.04644427 0.44193399
0.02728358 -0.04644427 0.45693427
0.02728358 -0.04644427 0.45693427
0.02728358 -0.04644427 0.45693427
0.02728358 -0.04644427 0.45693427
0.02728358 -0.04644427 0.45693427
0.02728358 -0.04644427 0.45693427
0.02728358 -0.04644427 0.45693427
0.01228334 0.17355916 0.70693809
0.01228334 0.17355916 0.70693809
0.01228334 0.17355916 0.70693809
0.01228334 0.17355916 0.70693809
0.01228334 0.17355916 0.70693809
0.01228334 0.17355916 0.70693809
0.01228334 0.17355916 0.70693809
0.01228334 0.40854847 0.95692664
0.01228334 0.40854847 0.95692664
0.01228334 0.40854847 0.95692664
0.01228334 0.40854847 0.95692664
0.01228334 0.40854847 0.95692664
0.01228334 0.40854847 0.95692664
0.01228334 0.40854847 0.95692664
0.01228334 0.40854847 0.95692664
0.01228334 0.64355212 1.20693052
0.01228334 0.64355212 1.20693052
0.01228334 0.64355212 1.20693052
0.01228334 0.39354798 1.20693040
0.01228334 0.39354798 1.20693040
0.01228334 0.64355212 1.20693052
0.26228717 -0.04644427 0.44193399
0.26228717 -0.04644427 0.44193399
0.26228717 -0.04644427 0.44193399
0.26228717 -0.04644427 0.44193399
0.26228717 -0.04644427 0.44193399
0.02728358 -0.04644427 0.45693427
0.02728358 -0.04644427 0.45693427
0.02728358 -0.04644427 0.45693427
0.02728358 -0.04644427 0.45693427
0.02728358 -0.04644427 0.45693427
0.02728358 -0.04644427 0.45693427
0.02728358 -0.04644427 0.45693427
0.01228334 0.17355916 0.70693809
0.01228334 0.17355916 0.70693809
0.01228334 0.17355916 0.70693809
0.01228334 0.17355916 0.70693809
0.01228334 0.17355916 0.70693809
0.01228334 0.17355916 0.70693809
0.01228334 0.17355916 0.70693809
0.01228334 0.40854847 0.95692664
0.01228334 0.40854847 0.95692664
0.01228334 0.40854847 0.95692664
0.01228332 0.15854456 0.95692664
0.01228332 0.15854456 0.95692664
0.01228332 0.15854456 0.95692664
0.01228332 0.15854456 0.95692664
0.01228332 0.15854456 0.95692664
0.01228334 0.39354798 1.20693040
0.01228334 0.39354798 1.20693040
0.01228334 0.39354798 1.20693040
0.01228334 0.39354798 1.20693040
0.01228334 0.39354798 1.20693040
0.01228334 0.39354798 1.20693040
0.26228717 -0.04644427 0.44193399
0.26228717 -0.04644427 0.44193399
0.26228717 -0.04644427 0.44193399
0.26228717 -0.04644427 0.44193399
0.26228717 -0.04644427 0.44193399
0.02728358 -0.04644427 0.45693427
0.02728358 -0.04644427 0.45693427
0.02728358 -0.04644427 0.45693427
0.02728358 -0.04644427 0.45693427
0.02728358 -0.04644427 0.45693427
0.02728358 -0.04644427 0.45693427
0.02728358 -0.04644427 0.45693427
0.01228334 0.17355916 0.70693809
0.01228334 0.17355916 0.70693809
0.04228383 -0.04644427 0.70693809
0.04228383 -0.04644427 0.70693809
0.04228383 -0.04644427 0.70693809
0.04228383 -0.04644427 0.70693809
0.04228383 -0.04644427 0.70693809
0.01228332 0.15854456 0.95692664
0.01228332 0.15854456 0.95692664
0.01228332 0.15854456 0.95692664
0.01228332 0.15854456 0.95692664
0.01228332 0.15854456 0.95692664
0.01228332 0.15854456 0.95692664
0.01228332 0.15854456 0.95692664
0.01228332 0.15854456 0.95692664
0.01228334 0.39354798 1.20693040
0.01228334 0.39354798 1.20693040
0.01228334 0.39354798 1.20693040
0.01228334 0.39354798 1.20693040
0.01228334 0.39354798 1.20693040
0.01228334 0.39354798 1.20693040
0.26228717 -0.04644427 0.44193399
0.26228717 -0.04644427 0.44193399
0.26228717 -0.04644427 0.44193399
0.26228717 -0.04644427 0.44193399
0.26228717 -0.04644427 0.44193399
0.02728358 -0.04644427 0.45693427
0.02728358 -0.04644427 0.45693427
0.02728358 -0.04644427 0.45693427
0.02728358 -0.04644427 0.45693427
0.02728358 -0.04644427 0.45693427
0.02728358 -0.04644427 0.45693427
0.02728358 -0.04644427 0.45693427
0.04228383 -0.04644427 0.70693809
0.04228383 -0.04644427 0.70693809
0.04228383 -0.04644427 0.70693809
0.04228383 -0.04644427 0.70693809
0.04228383 -0.04644427 0.70693809
0.04228383 -0.04644427 0.70693809
0.04228383 -0.04644427 0.70693809
0.01228332 0.15854456 0.95692664
0.01228332 0.15854456 0.95692664
0.01228332 0.15854456 0.95692664
0.01228332 0.15854456 0.95692664
0.01228332 0.15854456 0.95692664
0.01228332 0.15854456 0.95692664
0.01228332 0.15854456 0.95692664
0.01228332 0.15854456 0.95692664
0.01228334 0.39354798 1.20693040
0.01228334 0.39354798 1.20693040
0.01228334 0.39354798 1.20693040
0.01228334 0.39354798 1.20693040
0.01228334 0.39354798 1.20693040
0.01228334 0.39354798 1.20693040
0.51229095 -0.04644426 0.67693752
0.51229095 -0.04644426 0.67693752
0.51229095 -0.04644426 0.67693752
0.51229095 -0.04644426 0.67693752
0.51229095 -0.04644426 0.67693752
0.29228756 -0.04644425 0.70693809
0.29228756 -0.04644425 0.70693809
0.29228756 -0.04644425 0.70693809
0.29228756 -0.04644425 0.70693809
0.29228756 -0.04644425 0.70693809
0.29228756 -0.04644425 0.70693809
0.29228756 -0.04644425 0.70693809
0.29228756 -0.04644425 0.70693809
0.04228383 -0.04644427 0.70693809
0.04228383 -0.04644427 0.70693809
0.04228383 -0.04644427 0.70693809
0.04228383 -0.04644427 0.70693809
0.04228383 -0.04644427 0.70693809
0.04228383 -0.04644427 0.70693809
0.01228332 0.15854456 0.95692664
0.01228332 0.15854456 0.95692664
0.01228332 0.15854456 0.95692664
0.01228332 0.15854456 0.95692664
0.01228332 0.15854456 0.95692664
0.01228332 0.15854456 0.95692664
0.01228332 0.15854456 0.95692664
0.01228332 0.15854456 0.95692664
0.01228334 0.39354798 1.20693040
0.01228334 0.39354798 1.20693040
0.01228334 0.39354798 1.20693040
0.01228334 0.39354798 1.20693040
0.01228334 0.39354798 1.20693040
0.01228334 0.39354798 1.20693040
0.51229095 -0.04644426 0.67693752
0.51229095 -0.04644426 0.67693752
0.51229095 -0.04644426 0.67693752
0.51229095 -0.04644426 0.67693752
0.51229095 -0.04644426 0.67693752
0.29228756 -0.04644425 0.70693809
0.29228756 -0.04644425 0.70693809
0.29228756 -0.04644425 0.70693809
0.29228756 -0.04644425 0.70693809
0.29228756 -0.04644425 0.70693809
0.29228756 -0.04644425 0.70693809
0.29228756 -0.04644425 0.70693809
0.29228756 -0.04644425 0.70693809
0.04228383 -0.04644427 0.70693809
0.04228383 -0.04644427 0.70693809
0.04228383 -0.04644427 0.70693809
0.04228383 -0.04644427 0.70693809
0.04228383 -0.04644427 0.70693809
0.04228383 -0.04644427 0.70693809
0.01228332 0.15854456 0.95692664
0.01228332 0.15854456 0.95692664
0.01228332 0.15854456 0.95692664
0.01228332 0.15854456 0.95692664
0.01228332 0.15854456 0.95692664
0.01228332 0.15854456 0.95692664
0.01228332 0.15854456 0.95692664
0.01228332 0.15854456 0.95692664
0.01228334 0.39354798 1.20693040
0.01228334 0.39354798 1.20693040
0.01228334 0.39354798 1.20693040
0.01228334 0.39354798 1.20693040
0.01228334 0.39354798 1.20693040
0.01228334 0.39354798 1.20693040
0.51229095 -0.04644426 0.67693752
0.51229095 -0.04644426 0.67693752
0.51229095 -0.04644426 0.67693752
0.51229095 -0.04644426 0.67693752
0.51229095 -0.04644426 0.67693752
0.29228756 -0.04644425 0.70693809
0.29228756 -0.04644425 0.70693809
0.29228756 -0.04644425 0.70693809
0.29228756 -0.04644425 0.70693809
0.29228756 -0.04644425 0.70693809
0.29228756 -0.04644425 0.70693809
0.29228756 -0.04644425 0.70693809
0.29228756 -0.04644425 0.70693809
0.04228383 -0.04644427 0.70693809
0.04228383 -0.04644427 0.70693809
0.04228383 -0.04644427 0.70693809
0.04228383 -0.04644427 0.70693809
0.04228383 -0.04644427 0.70693809
0.04228383 -0.04644427 0.70693809
0.01228332 0.15854456 0.95692664
0.01228332 0.15854456 0.95692664
0.01228332 0.15854456 0.95692664
0.01228332 0.15854456 0.95692664
0.01228332 0.15854456 0.95692664
0.01228332 0.15854456 0.95692664
0.01228332 0.15854456 0.95692664
0.01228332 0.15854456 0.95692664
0.01228334 0.39354798 1.20693040
0.01228334 0.39354798 1.20693040
0.01228334 0.39354798 1.20693040
0.01228334 0.39354798 1.20693040
0.01228334 0.39354798 1.20693040
0.01228334 0.39354798 1.20693040
0.51229095 -0.04644426 0.67693752
0.51229095 -0.04644426 0.67693752
0.51229095 -0.04644426 0.67693752
0.51229095 -0.04644426 0.67693752
0.51229095 -0.04644426 0.67693752
0.29228756 -0.04644425 0.70693809
0.29228756 -0.04644425 0.70693809
0.29228756 -0.04644425 0.70693809
0.29228756 -0.04644425 0.70693809
0.29228756 -0.04644425 0.70693809
0.29228756 -0.04644425 0.70693809
0.29228756 -0.04644425 0.70693809
0.29228756 -0.04644425 0.70693809
0.04228383 -0.04644427 0.70693809
0.04228383 -0.04644427 0.70693809
0.04228383 -0.04644427 0.70693809
0.04228383 -0.04644427 0.70693809
0.04228383 -0.04644427 0.70693809
0.04228383 -0.04644427 0.70693809
0.01228332 0.15854456 0.95692664
0.01228332 0.15854456 0.95692664
0.01228332 0.15854456 0.95692664
0.01228332 0.15854456 0.95692664
0.01228332 0.15854456 0.95692664
0.01228332 0.15854456 0.95692664
0.01228332 0.15854456 0.95692664
0.01228332 0.15854456 0.95692664
0.01228334 0.39354798 1.20693040
0.01228334 0.39354798 1.20693040
0.01228334 0.39354798 1.20693040
0.01228334 0.39354798 1.20693040
0.01228334 0.39354798 1.20693040
0.01228334 0.39354798 1.20693040
0.51229095 -0.04644426 0.67693752
0.51229095 -0.04644426 0.67693752
0.51229095 -0.04644426 0.67693752
0.51229095 -0.04644426 0.67693752
0.51229095 -0.04644426 0.67693752
0.29228756 -0.04644425 0.70693809
0.29228756 -0.04644425 0.70693809
0.29228756 -0.04644425 0.70693809
0.29228756 -0.04644425 0.70693809
0.29228756 -0.04644425 0.70693809
0.29228756 -0.04644425 0.70693809
0.29228756 -0.04644425 0.70693809
0.29228756 -0.04644425 0.70693809
0.04228383 -0.04644427 0.70693809
0.04228383 -0.04644427 0.70693809
0.04228383 -0.04644427 0.70693809
0.04228383 -0.04644427 0.70693809
0.04228383 -0.04644427 0.70693809
0.04228383 -0.04644427 0.70693809
0.01228332 0.15854456 0.95692664
0.01228332 0.15854456 0.95692664
0.01228332 0.15854456 0.95692664
0.01228332 0.15854456 0.95692664
0.01228332 0.15854456 0.95692664
0.01228332 0.15854456 0.95692664
0.01228332 0.15854456 0.95692664
0.01228332 0.15854456 0.95692664
0.01228334 0.39354798 1.20693040
0.01228333 0.14355974 1.20693040
0.01228333 0.14355974 1.20693040
0.01228333 0.14355974 1.20693040
0.01228333 0.14355974 1.20693040
0.01228334 0.39354798 1.20693040
0.51229095 -0.04644426 0.67693752
0.51229095 -0.04644426 0.67693752
0.51229095 -0.04644426 0.67693752
0.51229095 -0.04644426 0.67693752
0.51229095 -0.04644426 0.67693752
0.51229095 -0.04644426 0.67693752
0.29228756 -0.04644425 0.70693809
0.29228756 -0.04644425 0.70693809
0.29228756 -0.04644425 0.70693809
0.29228756 -0.04644425 0.70693809
0.29228756 -0.04644425 0.70693809
0.29228756 -0.04644425 0.70693809
0.29228756 -0.04644425 0.70693809
0.04228383 -0.04644427 0.70693809
0.04228383 -0.04644427 0.70693809
0.04228383 -0.04644427 0.70693809
0.04228383 -0.04644427 0.70693809
0.04228383 -0.04644427 0.70693809
0.04228383 -0.04644427 0.70693809
0.01228332 0.15854456 0.95692664
0.05728316 -0.04644427 0.95692664
0.05728316 -0.04644427 0.95692664
0.05728316 -0.04644427 0.95692664
0.05728316 -0.04644427 0.95692664
0.05728316 -0.04644427 0.95692664
0.05728316 -0.04644427 0.95692664
0.05728316 -0.04644427 0.95692664
0.01228333 0.14355974 1.20693040
0.01228333 0.14355974 1.20693040
0.01228333 0.14355974 1.20693040
0.01228333 0.14355974 1.20693040
0.01228333 0.14355974 1.20693040
0.01228333 0.14355974 1.20693040
0.51229095 -0.04644426 0.67693752
0.51229095 -0.04644426 0.67693752
0.51229095 -0.04644426 0.67693752
0.51229095 -0.04644426 0.67693752
0.51229095 -0.04644426 0.67693752
0.51229095 -0.04644426 0.67693752
0.29228756 -0.04644425 0.70693809
0.29228756 -0.04644425 0.70693809
0.29228756 -0.04644425 0.70693809
0.29228756 -0.04644425 0.70693809
0.29228756 -0.04644425 0.70693809
0.29228756 -0.04644425 0.70693809
0.29228756 -0.04644425 0.70693809
0.04228383 -0.04644427 0.70693809
0.04228383 -0.04644427 0.70693809
0.04228383 -0.04644427 0.70693809
0.04228383 -0.04644427 0.70693809
0.04228383 -0.04644427 0.70693809
0.04228383 -0.04644427 0.70693809
0.30727157 -0.04644425 0.95692664
0.05728316 -0.04644427 0.95692664
0.05728316 -0.04644427 0.95692664
0.05728316 -0.04644427 0.95692664
0.05728316 -0.04644427 0.95692664
0.05728316 -0.04644427 0.95692664
0.05728316 -0.04644427 0.95692664
0.05728316 -0.04644427 0.95692664
0.01228333 0.14355974 1.20693040
0.01228333 0.14355974 1.20693040
0.01228333 0.14355974 1.20693040
0.01228333 0.14355974 1.20693040
0.01228333 0.14355974 1.20693040
0.01228333 0.14355974 1.20693040
0.76227951 -0.04644423 0.91192675
0.76227951 -0.04644423 0.91192675
0.76227951 -0.04644423 0.91192675
0.76227951 -0.04644423 0.91192675
0.76227951 -0.04644423 0.91192675
0.76227951 -0.04644423 0.91192675
0.55727547 -0.04644426 0.95692670
0.55727547 -0.04644426 0.95692670
0.55727547 -0.04644426 0.95692670
0.55727547 -0.04644426 0.95692670
0.55727547 -0.04644426 0.95692670
0.55727547 -0.04644426 0.95692670
0.55727547 -0.04644426 0.95692670
0.30727157 -0.04644425 0.95692664
0.30727157 -0.04644425 0.95692664
0.30727157 -0.04644425 0.95692664
0.30727157 -0.04644425 0.95692664
0.30727157 -0.04644425 0.95692664
0.30727157 -0.04644425 0.95692664
0.30727157 -0.04644425 0.95692664
0.05728316 -0.04644427 0.95692664
0.05728316 -0.04644427 0.95692664
0.05728316 -0.04644427 0.95692664
0.05728316 -0.04644427 0.95692664
0.05728316 -0.04644427 0.95692664
0.05728316 -0.04644427 0.95692664
0.05728316 -0.04644427 0.95692664
0.01228333 0.14355974 1.20693040
0.01228333 0.14355974 1.20693040
0.01228333 0.14355974 1.20693040
0.01228333 0.14355974 1.20693040
0.01228333 0.14355974 1.20693040
0.01228333 0.14355974 1.20693040
0.76227951 -0.04644423 0.91192675
0.76227951 -0.04644423 0.91192675
0.76227951 -0.04644423 0.91192675
0.76227951 -0.04644423 0.91192675
0.76227951 -0.04644423 0.91192675
0.76227951 -0.04644423 0.91192675
0.55727547 -0.04644426 0.95692670
0.55727547 -0.04644426 0.95692670
0.55727547 -0.04644426 0.95692670
0.55727547 -0.04644426 0.95692670
0.55727547 -0.04644426 0.95692670
0.55727547 -0.04644426 0.95692670
0.55727547 -0.04644426 0.95692670
0.55727547 -0.04644426 0.95692670
0.30727157 -0.04644425 0.95692664
0.30727157 -0.04644425 0.95692664
0.30727157 -0.04644425 0.95692664
0.30727157 -0.04644425 0.95692664
0.30727157 -0.04644425 0.95692664
0.30727157 -0.04644425 0.95692664
0.30727157 -0.04644425 0.95692664
0.05728316 -0.04644427 0.95692664
0.05728316 -0.04644427 0.95692664
0.05728316 -0.04644427 0.95692664
0.05728316 -0.04644427 0.95692664
0.05728316 -0.04644427 0.95692664
0.05728316 -0.04644427 0.95692664
0.01228333 0.14355974 1.20693040
0.01228333 0.14355974 1.20693040
0.01228333 0.14355974 1.20693040
0.01228333 0.14355974 1.20693040
0.01228333 0.14355974 1.20693040
0.01228333 0.14355974 1.20693040
0.76227951 -0.04644423 0.91192675
0.76227951 -0.04644423 0.91192675
0.76227951 -0.04644423 0.91192675
0.76227951 -0.04644423 0.91192675
0.76227951 -0.04644423 0.91192675
0.76227951 -0.04644423 0.91192675
0.55727547 -0.04644426 0.95692670
0.55727547 -0.04644426 0.95692670
0.55727547 -0.04644426 0.95692670
0.55727547 -0.04644426 0.95692670
0.55727547 -0.04644426 0.95692670
0.55727547 -0.04644426 0.95692670
0.55727547 -0.04644426 0.95692670
0.55727547 -0.04644426 0.95692670
0.30727157 -0.04644425 0.95692664
0.30727157 -0.04644425 0.95692664
0.30727157 -0.04644425 0.95692664
0.30727157 -0.04644425 0.95692664
0.30727157 -0.04644425 0.95692664
0.30727157 -0.04644425 0.95692664
0.30727157 -0.04644425 0.95692664
