Coems_Major/Coems Major (Gradient Map Only).cube
# VEGAS Pro LUT
TITLE "Coems Major"
LUT_3D_SIZE 9
0.00000000 1.00000000 0.00000000
0.02570010 1.00000000 0.00000000
0.07178924 1.00000000 0.00000000
0.13485736 1.00000000 0.00000000
0.21149439 1.00000000 0.00000000
0.29829031 1.00000000 0.00000000
0.39183503 1.00000000 0.00000000
0.48871854 1.00000000 0.00000000
0.58553076 1.00000000 0.00000000
0.06977194 1.00000000 0.00000000
0.13227582 1.00000000 0.00000000
0.20847410 1.00000000 0.00000000
0.29495668 1.00000000 0.00000000
0.38831356 1.00000000 0.00000000
0.48513463 1.00000000 0.00000000
0.58200991 1.00000000 0.00000000
0.67552924 1.00000000 0.00000000
0.76228267 1.00000000 0.00000000
0.20546772 1.00000000 0.00000000
0.29163238 1.00000000 0.00000000
0.38479677 1.00000000 0.00000000
0.48155081 1.00000000 0.00000000
0.57848448 1.00000000 0.00000000
0.67218775 1.00000000 0.00000000
0.75925052 1.00000000 0.00000000
0.83626270 1.00000000 0.00000000
0.89981437 1.00000000 0.00000000
0.38128483 1.00000000 0.00000000
0.47796723 1.00000000 0.00000000
0.57495475 1.00000000 0.00000000
0.66883725 1.00000000 0.00000000
0.75620472 1.00000000 0.00000000
0.83364713 1.00000000 0.00000000
0.89775437 1.00000000 0.00000000
0.94511640 1.00000000 0.00000000
0.95675385 0.97421819 0.00000000
0.57142073 1.00000000 0.00000000
0.66547793 1.00000000 0.00000000
0.75314552 1.00000000 0.00000000
0.83101344 1.00000000 0.00000000
0.89567173 1.00000000 0.00000000
0.94371027 1.00000000 0.00000000
0.95731592 0.97621638 0.00000000
0.92941463 0.91463327 0.00000000
0.87811655 0.83989966 0.00000000
0.75007302 1.00000000 0.00000000
0.82836193 1.00000000 0.00000000
0.89356655 1.00000000 0.00000000
0.94227695 1.00000000 0.00000000
0.95784056 0.97819275 0.00000000
0.93088198 0.91715008 0.00000000
0.88036853 0.84284765 0.00000000
0.81059766 0.75825322 0.00000000
0.72586691 0.66633445 0.00000000
0.89143908 1.00000000 0.00000000
0.94081670 1.00000000 0.00000000
0.95832747 0.98014718 0.00000000
0.93231744 0.91964889 0.00000000
0.88259441 0.84578174 0.00000000
0.81345582 0.76151335 0.00000000
0.72919929 0.66981143 0.00000000
0.63412231 0.57364368 0.00000000
0.53252238 0.47597784 0.00000000
0.95877647 0.98207945 0.00000000
0.93372077 0.92212963 0.00000000
0.88479400 0.84870172 0.00000000
0.81629354 0.76476336 0.00000000
0.73251706 0.67328238 0.00000000
0.63776201 0.57722634 0.00000000
0.53632593 0.47956303 0.00000000
0.43250626 0.38326013 0.00000000
0.33060056 0.29128531 0.00000000
0.88696706 0.85160744 0.00000000
0.81911063 0.76800323 0.00000000
0.73582000 0.67674714 0.00000000
0.64139271 0.58080685 0.00000000
0.54012620 0.48315006 0.00000000
0.43631810 0.38674453 0.00000000
0.33426586 0.29455790 0.00000000
0.23826702 0.20955788 0.00000000
0.15261905 0.13471216 0.00000000
0.00717675 1.00000000 0.00000000
0.04105282 1.00000000 0.00000000
0.09401777 1.00000000 0.00000000
0.16266154 1.00000000 0.00000000
0.24357408 1.00000000 0.00000000
0.33334535 1.00000000 0.00000000
0.42856526 1.00000000 0.00000000
0.52582383 1.00000000 0.00000000
0.62171090 1.00000000 0.00000000
0.09177055 1.00000000 0.00000000
0.15989792 1.00000000 0.00000000
0.24041952 1.00000000 0.00000000
0.32992530 1.00000000 0.00000000
0.42500520 1.00000000 0.00000000
0.52224916 1.00000000 0.00000000
0.61824715 1.00000000 0.00000000
0.70958906 1.00000000 0.00000000
0.79286492 1.00000000 0.00000000
0.23727714 1.00000000 0.00000000
0.32651281 1.00000000 0.00000000
0.42144805 1.00000000 0.00000000
0.51867282 1.00000000 0.00000000
0.61477703 1.00000000 0.00000000
0.70635068 1.00000000 0.00000000
0.78998369 1.00000000 0.00000000
0.86226600 1.00000000 0.00000000
0.91978759 1.00000000 0.00000000
0.41789401 1.00000000 0.00000000
0.51509494 1.00000000 0.00000000
0.61130083 1.00000000 0.00000000
0.70310158 1.00000000 0.00000000
0.78708714 1.00000000 0.00000000
0.85984743 1.00000000 0.00000000
0.91797245 1.00000000 0.00000000
0.95805216 1.00000000 0.00000000
0.94877321 0.95226097 0.00000000
0.60781866 1.00000000 0.00000000
0.69984186 1.00000000 0.00000000
0.78417534 1.00000000 0.00000000
0.85740906 1.00000000 0.00000000
0.91613293 1.00000000 0.00000000
0.95693690 1.00000000 0.00000000
0.94971120 0.95447654 0.00000000
0.91238248 0.88752949 0.00000000
0.85329551 0.80856341 0.00000000
0.78124857 1.00000000 0.00000000
0.85495102 1.00000000 0.00000000
0.91426915 1.00000000 0.00000000
0.95579278 1.00000000 0.00000000
0.95061386 0.95667183 0.00000000
0.91416764 0.89022356 0.00000000
0.85580498 0.81164706 0.00000000
0.77982342 0.72390997 0.00000000
0.69052052 0.62998009 0.00000000
0.91238129 1.00000000 0.00000000
0.95462000 1.00000000 0.00000000
0.95148110 0.95884669 0.00000000
0.91592306 0.89290118 0.00000000
0.85829055 0.81471831 0.00000000
0.78288108 0.72726566 0.00000000
0.69399214 0.63351107 0.00000000
0.59592122 0.53642207 0.00000000
0.49296588 0.43896651 0.00000000
0.95231259 0.96100098 0.00000000
0.91764867 0.89556229 0.00000000
0.86075211 0.81777698 0.00000000
0.78592050 0.73061281 0.00000000
0.69745129 0.63703746 0.00000000
0.59964204 0.54001856 0.00000000
0.49679026 0.44252390 0.00000000
0.39319345 0.34752113 0.00000000
0.29314911 0.25797793 0.00000000
0.86318940 0.82082301 0.00000000
0.78894144 0.73395133 0.00000000
0.70089781 0.64055920 0.00000000
0.60335600 0.54361445 0.00000000
0.50061363 0.44608468 0.00000000
0.39696807 0.35093763 0.00000000
0.29671690 0.26114100 0.00000000
0.20415765 0.17966250 0.00000000
0.12358779 0.10946977 0.00000000
0.01762412 1.00000000 0.00000000
0.05918044 1.00000000 0.00000000
0.11852549 1.00000000 0.00000000
0.19224921 1.00000000 0.00000000
0.27694154 1.00000000 0.00000000
0.36919245 1.00000000 0.00000000
0.46559185 1.00000000 0.00000000
0.56272972 1.00000000 0.00000000
0.65719599 1.00000000 0.00000000
0.11606658 1.00000000 0.00000000
0.18932174 1.00000000 0.00000000
0.27367097 1.00000000 0.00000000
0.36570421 1.00000000 0.00000000
0.46201143 1.00000000 0.00000000
0.55918252 1.00000000 0.00000000
0.65380752 1.00000000 0.00000000
0.74247628 1.00000000 0.00000000
0.82177883 1.00000000 0.00000000
0.27041081 1.00000000 0.00000000
0.36222178 1.00000000 0.00000000
0.45843217 1.00000000 0.00000000
0.55563194 1.00000000 0.00000000
0.65041101 1.00000000 0.00000000
0.73935932 1.00000000 0.00000000
0.81906688 1.00000000 0.00000000
0.88612354 1.00000000 0.00000000
0.93711936 1.00000000 0.00000000
0.45485425 1.00000000 0.00000000
0.55207801 1.00000000 0.00000000
0.64700657 1.00000000 0.00000000
0.73622984 1.00000000 0.00000000
0.81633776 1.00000000 0.00000000
0.88392025 1.00000000 0.00000000
0.93556732 1.00000000 0.00000000
0.95971650 0.98672771 0.00000000
0.93702793 0.92814106 0.00000000
0.64359438 1.00000000 0.00000000
0.73308796 1.00000000 0.00000000
0.81359166 1.00000000 0.00000000
0.88169539 1.00000000 0.00000000
0.93398917 1.00000000 0.00000000
0.96003288 0.98858249 0.00000000
0.93831879 0.93055815 0.00000000
0.89218736 0.85867852 0.00000000
0.82593620 0.77591133 0.00000000
0.81082880 1.00000000 0.00000000
0.87944919 1.00000000 0.00000000
0.93238497 1.00000000 0.00000000
0.96031040 0.99041450 0.00000000
0.93957657 0.93295646 0.00000000
0.89426732 0.86153400 0.00000000
0.82868022 0.77911478 0.00000000
0.74711275 0.68866658 0.00000000
0.65386242 0.59315699 0.00000000
0.93075496 1.00000000 0.00000000
0.96054888 0.99222356 0.00000000
0.94080108 0.93533587 0.00000000
0.89631981 0.86437458 0.00000000
0.83140254 0.78230739 0.00000000
0.75034684 0.69210196 0.00000000
0.65745020 0.59672594 0.00000000
0.55701011 0.49914718 0.00000000
0.45332408 0.40233326 0.00000000
0.94199216 0.93769628 0.00000000
0.89834464 0.86720014 0.00000000
0.83410305 0.78548890 0.00000000
0.75356495 0.69553030 0.00000000
0.66102773 0.60029197 0.00000000
0.56078905 0.50274163 0.00000000
0.45714629 0.40584701 0.00000000
0.35439703 0.31257576 0.00000000
0.25683880 0.22589561 0.00000000
0.83678150 0.78865933 0.00000000
0.75676680 0.69895154 0.00000000
0.66459489 0.60385489 0.00000000
0.56456339 0.50633705 0.00000000
0.46096972 0.40936568 0.00000000
0.35811144 0.31590855 0.00000000
0.26028609 0.22893332 0.00000000
0.17179115 0.15140770 0.00000000
0.09692413 0.08629938 0.00000000
0.03115310 1.00000000 0.00000000
0.07989396 1.00000000 0.00000000
0.14512341 1.00000000 0.00000000
0.22343135 1.00000000 0.00000000
0.31140777 1.00000000 0.00000000
0.40564260 1.00000000 0.00000000
0.50272578 1.00000000 0.00000000
0.59924728 1.00000000 0.00000000
0.69179702 1.00000000 0.00000000
0.14247105 1.00000000 0.00000000
0.22035828 1.00000000 0.00000000
0.30803943 1.00000000 0.00000000
0.40210441 1.00000000 0.00000000
0.49914324 1.00000000 0.00000000
0.59574580 1.00000000 0.00000000
0.68850207 1.00000000 0.00000000
0.77400202 1.00000000 0.00000000
0.84883553 1.00000000 0.00000000
0.30467969 1.00000000 0.00000000
0.39857027 1.00000000 0.00000000
0.49556008 1.00000000 0.00000000
0.59223914 1.00000000 0.00000000
0.68519735 1.00000000 0.00000000
0.77102464 1.00000000 0.00000000
0.84631097 1.00000000 0.00000000
0.90764636 1.00000000 0.00000000
0.95162064 1.00000000 0.00000000
0.49197653 1.00000000 0.00000000
0.58872741 1.00000000 0.00000000
0.68188292 1.00000000 0.00000000
0.76803303 1.00000000 0.00000000
0.84376758 1.00000000 0.00000000
0.90567660 1.00000000 0.00000000
0.95035005 1.00000000 0.00000000
0.95420092 0.96620059 0.00000000
0.92175615 0.90202290 0.00000000
0.67855906 1.00000000 0.00000000
0.76502728 1.00000000 0.00000000
0.84120542 1.00000000 0.00000000
0.90368348 1.00000000 0.00000000
0.94905144 1.00000000 0.00000000
0.95490754 0.96828264 0.00000000
0.92337692 0.90462559 0.00000000
0.86906749 0.82824486 0.00000000
0.79627687 0.74210805 0.00000000
0.83862472 1.00000000 0.00000000
0.90166724 1.00000000 0.00000000
0.94772506 1.00000000 0.00000000
0.95557743 0.97034341 0.00000000
0.92496681 0.90721112 0.00000000
0.87141925 0.83124590 0.00000000
0.79923242 0.74541539 0.00000000
0.71270370 0.65268737 0.00000000
0.61613065 0.55602950 0.00000000
0.94637114 1.00000000 0.00000000
0.95621049 0.97238284 0.00000000
0.92652565 0.90977925 0.00000000
0.87374580 0.83423352 0.00000000
0.80216855 0.74871343 0.00000000
0.71609133 0.65618658 0.00000000
0.61981165 0.55962068 0.00000000
0.51762712 0.46198347 0.00000000
0.41383514 0.36624262 0.00000000
0.92805326 0.91232985 0.00000000
0.87604690 0.83720773 0.00000000
0.80508506 0.75200194 0.00000000
0.71946514 0.65968031 0.00000000
0.62348467 0.56321043 0.00000000
0.52144122 0.46556005 0.00000000
0.41763222 0.36969686 0.00000000
0.31635523 0.27858853 0.00000000
0.22190779 0.19520283 0.00000000
0.80798173 0.75528085 0.00000000
0.72282487 0.66316843 0.00000000
0.62714946 0.56679857 0.00000000
0.52525288 0.46913904 0.00000000
0.42143273 0.37315753 0.00000000
0.31998646 0.28182170 0.00000000
0.22521162 0.19809929 0.00000000
0.14140570 0.12495799 0.00000000
0.07286624 0.06536547 0.00000000
0.04757469 1.00000000 0.00000000
0.10300439 1.00000000 0.00000000
0.17362250 1.00000000 0.00000000
0.25601900 1.00000000 0.00000000
0.34678379 1.00000000 0.00000000
0.44250682 1.00000000 0.00000000
0.53977805 1.00000000 0.00000000
0.63518745 1.00000000 0.00000000
0.72532499 1.00000000 0.00000000
0.17079495 1.00000000 0.00000000
0.25281852 1.00000000 0.00000000
0.34333587 1.00000000 0.00000000
0.43893692 1.00000000 0.00000000
0.53621161 1.00000000 0.00000000
0.63174993 1.00000000 0.00000000
0.72214180 1.00000000 0.00000000
0.80397719 1.00000000 0.00000000
0.87384599 1.00000000 0.00000000
0.33989486 1.00000000 0.00000000
0.43536928 1.00000000 0.00000000
0.53264284 1.00000000 0.00000000
0.62830544 1.00000000 0.00000000
0.71894711 1.00000000 0.00000000
0.80115765 1.00000000 0.00000000
0.87152714 1.00000000 0.00000000
0.92664546 1.00000000 0.00000000
0.96096712 0.99656600 0.00000000
0.52907187 1.00000000 0.00000000
0.62485421 1.00000000 0.00000000
0.71574092 1.00000000 0.00000000
0.79832208 1.00000000 0.00000000
0.86918759 1.00000000 0.00000000
0.92492741 1.00000000 0.00000000
0.96106899 0.99829477 0.00000000
0.94477236 0.94340825 0.00000000
0.90319610 0.87407094 0.00000000
0.71252358 1.00000000 0.00000000
0.79547071 1.00000000 0.00000000
0.86682767 1.00000000 0.00000000
0.92318434 1.00000000 0.00000000
0.96113074 1.00000000 0.00000000
0.94584608 0.94570172 0.00000000
0.90512371 0.87684345 0.00000000
0.84326106 0.79639298 0.00000000
0.76455569 0.70731789 0.00000000
0.86444736 1.00000000 0.00000000
0.92141634 1.00000000 0.00000000
0.96010047 1.00000000 0.00000000
0.94688547 0.94797546 0.00000000
0.90702271 0.87960029 0.00000000
0.84586167 0.79952365 0.00000000
0.76769978 0.71071327 0.00000000
0.67683458 0.61613691 0.00000000
0.57756358 0.51876211 0.00000000
0.95904082 1.00000000 0.00000000
0.94789010 0.95022935 0.00000000
0.90889293 0.88234127 0.00000000
0.84843928 0.80264252 0.00000000
0.77082670 0.71410090 0.00000000
0.68035269 0.61968404 0.00000000
0.58131474 0.52235967 0.00000000
0.47801045 0.42509541 0.00000000
0.37473723 0.33085907 0.00000000
0.91073412 0.88506621 0.00000000
0.85099369 0.80574942 0.00000000
0.77393621 0.71748054 0.00000000
0.68385923 0.62322724 0.00000000
0.58506024 0.52595723 0.00000000
0.48183671 0.42863822 0.00000000
0.37848622 0.33423790 0.00000000
0.27930623 0.24572393 0.00000000
0.18859430 0.16606407 0.00000000
0.77702808 0.72085208 0.00000000
0.68735397 0.62676638 0.00000000
0.58879966 0.52955478 0.00000000
0.48566279 0.43218499 0.00000000
0.38224083 0.33762470 0.00000000
0.28283128 0.24884160 0.00000000
0.19173166 0.16880341 0.00000000
0.11323951 0.10047782 0.00000000
0.05165232 0.04683252 0.00000000
0.06669989 1.00000000 0.00000000
0.12832272 1.00000000 0.00000000
0.20383380 1.00000000 0.00000000
0.28982309 1.00000000 0.00000000
0.38288054 1.00000000 0.00000000
0.47959611 1.00000000 0.00000000
0.57655972 1.00000000 0.00000000
0.67036128 1.00000000 0.00000000
0.75759083 1.00000000 0.00000000
0.20084926 1.00000000 0.00000000
0.28651351 1.00000000 0.00000000
0.37937132 1.00000000 0.00000000
0.47601271 1.00000000 0.00000000
0.57302761 1.00000000 0.00000000
0.66700596 1.00000000 0.00000000
0.75453770 1.00000000 0.00000000
0.83221281 1.00000000 0.00000000
0.89662117 1.00000000 0.00000000
0.37586725 1.00000000 0.00000000
0.47242984 1.00000000 0.00000000
0.56949145 1.00000000 0.00000000
0.66364193 1.00000000 0.00000000
0.75147122 1.00000000 0.00000000
0.82956934 1.00000000 0.00000000
0.89452624 1.00000000 0.00000000
0.94293177 1.00000000 0.00000000
0.95760673 0.97729713 0.00000000
0.56595129 1.00000000 0.00000000
0.66026926 1.00000000 0.00000000
0.74839157 1.00000000 0.00000000
0.82690811 1.00000000 0.00000000
0.89240891 1.00000000 0.00000000
0.94148380 1.00000000 0.00000000
0.95811081 0.97926152 0.00000000
0.93166894 0.91851532 0.00000000
0.88158584 0.84444976 0.00000000
0.74529892 1.00000000 0.00000000
0.82422930 1.00000000 0.00000000
0.89026928 1.00000000 0.00000000
0.94000894 1.00000000 0.00000000
0.95857710 0.98120391 0.00000000
0.93308687 0.92100430 0.00000000
0.88379741 0.84737617 0.00000000
0.81500626 0.76328737 0.00000000
0.73101085 0.67170542 0.00000000
0.88810766 1.00000000 0.00000000
0.93850738 1.00000000 0.00000000
0.95900536 0.98312408 0.00000000
0.93447262 0.92347509 0.00000000
0.88598257 0.85028845 0.00000000
0.81783271 0.76653183 0.00000000
0.73432052 0.67517298 0.00000000
0.63974351 0.57917964 0.00000000
0.53839922 0.48151937 0.00000000
0.95939535 0.98502189 0.00000000
0.93582594 0.92592752 0.00000000
0.88814116 0.85318637 0.00000000
0.82063842 0.76976603 0.00000000
0.73761523 0.67863435 0.00000000
0.64336914 0.58275884 0.00000000
0.54219770 0.48510736 0.00000000
0.43839833 0.38864753 0.00000000
0.33626860 0.29634705 0.00000000
0.89027292 0.85606986 0.00000000
0.82342309 0.77298981 0.00000000
0.74089473 0.68208921 0.00000000
0.64698541 0.58633566 0.00000000
0.54599255 0.48869693 0.00000000
0.44221374 0.39214069 0.00000000
0.33994645 0.29963461 0.00000000
0.24348821 0.21414642 0.00000000
0.15713651 0.13864380 0.00000000
0.74415886 0.68553752 0.00000000
0.65059209 0.58990997 0.00000000
0.54978371 0.49228799 0.00000000
0.44603124 0.39563933 0.00000000
0.34363219 0.30293170 0.00000000
0.24688409 0.21713272 0.00000000
0.16008443 0.14121017 0.00000000
0.08753075 0.07813170 0.00000000
0.03352054 0.03086502 0.00000000
0.08833971 1.00000000 0.00000000
0.15565994 1.00000000 0.00000000
0.23556828 1.00000000 0.00000000
0.32465467 1.00000000 0.00000000
0.41950908 1.00000000 0.00000000
0.51672143 1.00000000 0.00000000
0.61288166 1.00000000 0.00000000
0.70457977 1.00000000 0.00000000
0.78840566 1.00000000 0.00000000
0.23244502 1.00000000 0.00000000
0.32125416 1.00000000 0.00000000
0.41595680 1.00000000 0.00000000
0.51314282 1.00000000 0.00000000
0.60940218 1.00000000 0.00000000
0.70132482 1.00000000 0.00000000
0.78550076 1.00000000 0.00000000
0.85851985 1.00000000 0.00000000
0.91697210 1.00000000 0.00000000
0.41240788 1.00000000 0.00000000
0.50956297 1.00000000 0.00000000
0.60591680 1.00000000 0.00000000
0.69805944 1.00000000 0.00000000
0.78258079 1.00000000 0.00000000
0.85607076 1.00000000 0.00000000
0.91511929 1.00000000 0.00000000
0.95631641 1.00000000 0.00000000
0.95020795 0.95567650 0.00000000
0.60242575 1.00000000 0.00000000
0.69478375 1.00000000 0.00000000
0.77964586 1.00000000 0.00000000
0.85360211 1.00000000 0.00000000
0.91324234 1.00000000 0.00000000
0.95515662 1.00000000 0.00000000
0.95109129 0.95786065 0.00000000
0.91512883 0.89168614 0.00000000
0.85716373 0.81332380 0.00000000
0.77669621 1.00000000 0.00000000
0.85111403 1.00000000 0.00000000
0.91134143 1.00000000 0.00000000
0.95396823 1.00000000 0.00000000
0.95193911 0.96002430 0.00000000
0.91686803 0.89435476 0.00000000
0.85963625 0.81638825 0.00000000
0.78454119 0.72909248 0.00000000
0.69588047 0.63543510 0.00000000
0.90941668 1.00000000 0.00000000
0.95275140 1.00000000 0.00000000
0.95275104 0.96216732 0.00000000
0.91857719 0.89700675 0.00000000
0.86208457 0.81944007 0.00000000
0.78757060 0.73243493 0.00000000
0.69933277 0.63895899 0.00000000
0.60166872 0.54198003 0.00000000
0.49887586 0.44446576 0.00000000
0.95352697 0.96428949 0.00000000
0.92025620 0.89964193 0.00000000
0.86450851 0.82247907 0.00000000
0.79058135 0.73576856 0.00000000
0.70277232 0.64247817 0.00000000
0.60537887 0.54557550 0.00000000
0.50269860 0.44802830 0.00000000
0.39902890 0.35280427 0.00000000
0.29866737 0.26287109 0.00000000
0.86690784 0.82550520 0.00000000
0.79357338 0.73909336 0.00000000
0.70619887 0.64599240 0.00000000
0.60908192 0.54917008 0.00000000
0.50651997 0.45159400 0.00000000
0.40281054 0.35623193 0.00000000
0.30225116 0.26605153 0.00000000
0.20913935 0.18402049 0.00000000
0.12777260 0.11310653 0.00000000
0.70961225 0.64950162 0.00000000
0.61277759 0.55276364 0.00000000
0.51033980 0.45516270 0.00000000
0.40659642 0.35966659 0.00000000
0.30584502 0.26924297 0.00000000
0.21238308 0.18685955 0.00000000
0.13050810 0.11548403 0.00000000
0.06451760 0.05808409 0.00000000
0.01870911 0.01762744 0.00000000
0.11230513 1.00000000 0.00000000
0.18482707 1.00000000 0.00000000
0.26863697 1.00000000 0.00000000
0.36032474 1.00000000 0.00000000
0.45648038 1.00000000 0.00000000
0.55369383 1.00000000 0.00000000
0.64855498 1.00000000 0.00000000
0.73765385 1.00000000 0.00000000
0.81758034 1.00000000 0.00000000
0.26539320 1.00000000 0.00000000
0.35685158 1.00000000 0.00000000
0.45290327 1.00000000 0.00000000
0.55013818 1.00000000 0.00000000
0.64514631 1.00000000 0.00000000
0.73451763 1.00000000 0.00000000
0.81484199 1.00000000 0.00000000
0.88270938 1.00000000 0.00000000
0.93470973 1.00000000 0.00000000
0.44932774 1.00000000 0.00000000
0.54657960 1.00000000 0.00000000
0.64173007 1.00000000 0.00000000
0.73136914 1.00000000 0.00000000
0.81208670 1.00000000 0.00000000
0.88047284 1.00000000 0.00000000
0.93311739 1.00000000 0.00000000
0.96018910 0.98958457 0.00000000
0.93900895 0.93186867 0.00000000
0.63830632 1.00000000 0.00000000
0.72820854 1.00000000 0.00000000
0.80931479 1.00000000 0.00000000
0.87821496 1.00000000 0.00000000
0.93149906 1.00000000 0.00000000
0.96044534 0.99140412 0.00000000
0.94024861 0.93425667 0.00000000
0.89539027 0.86308527 0.00000000
0.83016783 0.78085756 0.00000000
0.80652630 1.00000000 0.00000000
0.87593597 1.00000000 0.00000000
0.92985499 1.00000000 0.00000000
0.96066242 0.99320066 0.00000000
0.94145489 0.93662578 0.00000000
0.89742774 0.86591768 0.00000000
0.83287829 0.78404415 0.00000000
0.75210416 0.69397283 0.00000000
0.65940285 0.59867144 0.00000000
0.92818534 1.00000000 0.00000000
0.96084005 0.99497402 0.00000000
0.94262761 0.93897569 0.00000000
0.89943737 0.86873496 0.00000000
0.83556682 0.78721964 0.00000000
0.75531346 0.69739735 0.00000000
0.66297477 0.60223579 0.00000000
0.56284833 0.50470269 0.00000000
0.45923164 0.40776569 0.00000000
0.94376653 0.94130635 0.00000000
0.90141904 0.87153703 0.00000000
0.83823311 0.79038388 0.00000000
0.75850636 0.70081460 0.00000000
0.66653615 0.60579687 0.00000000
0.56662011 0.50829846 0.00000000
0.46305567 0.41128695 0.00000000
0.36014038 0.31773013 0.00000000
0.26217178 0.23059565 0.00000000
0.84087706 0.79353672 0.00000000
0.76168269 0.70422453 0.00000000
0.67008674 0.60935467 0.00000000
0.57038689 0.51189488 0.00000000
0.46688053 0.41481289 0.00000000
0.36386523 0.32107639 0.00000000
0.26563850 0.23365307 0.00000000
0.17649783 0.15551062 0.00000000
0.10074076 0.08961672 0.00000000
0.67362642 0.61290890 0.00000000
0.57414854 0.51549184 0.00000000
0.47070608 0.41834339 0.00000000
0.36759657 0.32443121 0.00000000
0.26911750 0.23672305 0.00000000
0.17956644 0.15818657 0.00000000
0.10324086 0.09178948 0.00000000
0.04443827 0.04049949 0.00000000
0.00745620 0.00728427 0.00000000
0.13840717 1.00000000 0.00000000
0.21563511 1.00000000 0.00000000
0.30285084 1.00000000 0.00000000
0.39664429 1.00000000 0.00000000
0.49360546 1.00000000 0.00000000
0.59032428 1.00000000 0.00000000
0.68339068 1.00000000 0.00000000
0.76939458 1.00000000 0.00000000
0.84492600 1.00000000 0.00000000
0.29950479 1.00000000 0.00000000
0.39311671 1.00000000 0.00000000
0.49002174 1.00000000 0.00000000
0.58680987 1.00000000 0.00000000
0.68007106 1.00000000 0.00000000
0.76639521 1.00000000 0.00000000
0.84237236 1.00000000 0.00000000
0.90459234 1.00000000 0.00000000
0.94964516 1.00000000 0.00000000
0.48643786 1.00000000 0.00000000
0.58329076 1.00000000 0.00000000
0.67674208 1.00000000 0.00000000
0.76338190 1.00000000 0.00000000
0.83980006 1.00000000 0.00000000
0.90258658 1.00000000 0.00000000
0.94833142 1.00000000 0.00000000
0.95527750 0.96940935 0.00000000
0.92424792 0.90603805 0.00000000
0.67340386 1.00000000 0.00000000
0.76035470 1.00000000 0.00000000
0.83720934 1.00000000 0.00000000
0.90055776 1.00000000 0.00000000
0.94698995 1.00000000 0.00000000
0.95592731 0.97145849 0.00000000
0.92582095 0.90861410 0.00000000
0.87269145 0.83287716 0.00000000
0.80083638 0.74721545 0.00000000
0.83460033 1.00000000 0.00000000
0.89850610 1.00000000 0.00000000
0.94562101 1.00000000 0.00000000
0.95654017 0.97348619 0.00000000
0.92736274 0.91117269 0.00000000
0.87500411 0.83585751 0.00000000
0.80376178 0.75050837 0.00000000
0.71793330 0.65809292 0.00000000
0.62181610 0.56157893 0.00000000
0.94422472 1.00000000 0.00000000
0.95711589 0.97549230 0.00000000
0.92887324 0.91371369 0.00000000
0.87729126 0.83882427 0.00000000
0.80666751 0.75379163 0.00000000
0.72129947 0.66158360 0.00000000
0.62548465 0.56516778 0.00000000
0.52352059 0.46751192 0.00000000
0.41970479 0.37158370 0.00000000
0.93035209 0.91623694 0.00000000
0.87955260 0.84177727 0.00000000
0.80955327 0.75706524 0.00000000
0.72465152 0.66506863 0.00000000
0.62914491 0.56875503 0.00000000
0.52733094 0.47109219 0.00000000
0.42350709 0.37504780 0.00000000
0.32197094 0.28358960 0.00000000
0.22701997 0.19968523 0.00000000
0.81241882 0.76032901 0.00000000
0.72798920 0.66854775 0.00000000
0.63279659 0.57234037 0.00000000
0.53113854 0.47467461 0.00000000
0.42731249 0.37851813 0.00000000
0.32561603 0.28683862 0.00000000
0.23034665 0.20260376 0.00000000
0.14580186 0.12878129 0.00000000
0.07627918 0.06833887 0.00000000
0.63643950 0.57592380 0.00000000
0.53494316 0.47825912 0.00000000
0.43112075 0.38199452 0.00000000
0.32926980 0.29009771 0.00000000
0.23368783 0.20553640 0.00000000
0.14867236 0.13127826 0.00000000
0.07852088 0.07029103 0.00000000
0.02753093 0.02554237 0.00000000
0.00000000 0.00000000 0.00000000
