Coems_Major/Coems Major (Gradient Map Only).cube
# VEGAS Pro LUT
TITLE "Coems Major"
LUT_3D_SIZE 33
0.00000000 1.00000000 0.00000000
0.00432707 1.00000000 0.00000000
0.01008829 1.00000000 0.00000000
0.01723040 1.00000000 0.00000000
0.02570010 1.00000000 0.00000000
0.03544412 1.00000000 0.00000000
0.04640917 1.00000000 0.00000000
0.05854197 1.00000000 0.00000000
0.07178924 1.00000000 0.00000000
0.08609769 1.00000000 0.00000000
0.10141405 1.00000000 0.00000000
0.11768503 1.00000000 0.00000000
0.13485736 1.00000000 0.00000000
0.15287773 1.00000000 0.00000000
0.17169288 1.00000000 0.00000000
0.19124953 1.00000000 0.00000000
0.21149439 1.00000000 0.00000000
0.23237418 1.00000000 0.00000000
0.25383562 1.00000000 0.00000000
0.27582541 1.00000000 0.00000000
0.29829031 1.00000000 0.00000000
0.32117698 1.00000000 0.00000000
0.34443220 1.00000000 0.00000000
0.36800262 1.00000000 0.00000000
0.39183503 1.00000000 0.00000000
0.41587609 1.00000000 0.00000000
0.44007257 1.00000000 0.00000000
0.46437114 1.00000000 0.00000000
0.48871854 1.00000000 0.00000000
0.51306146 1.00000000 0.00000000
0.53734666 1.00000000 0.00000000
0.56152087 1.00000000 0.00000000
0.58553076 1.00000000 0.00000000
0.00985155 1.00000000 0.00000000
0.01694380 1.00000000 0.00000000
0.02536561 1.00000000 0.00000000
0.03506368 1.00000000 0.00000000
0.04598476 1.00000000 0.00000000
0.05807554 1.00000000 0.00000000
0.07128275 1.00000000 0.00000000
0.08555311 1.00000000 0.00000000
0.10083333 1.00000000 0.00000000
0.11707014 1.00000000 0.00000000
0.13421024 1.00000000 0.00000000
0.15220037 1.00000000 0.00000000
0.17098722 1.00000000 0.00000000
0.19051753 1.00000000 0.00000000
0.21073802 1.00000000 0.00000000
0.23159540 1.00000000 0.00000000
0.25303638 1.00000000 0.00000000
0.27500769 1.00000000 0.00000000
0.29745603 1.00000000 0.00000000
0.32032815 1.00000000 0.00000000
0.34357074 1.00000000 0.00000000
0.36713052 1.00000000 0.00000000
0.39095423 1.00000000 0.00000000
0.41498858 1.00000000 0.00000000
0.43918025 1.00000000 0.00000000
0.46347600 1.00000000 0.00000000
0.48782256 1.00000000 0.00000000
0.51216662 1.00000000 0.00000000
0.53645486 1.00000000 0.00000000
0.56063408 1.00000000 0.00000000
0.58465093 1.00000000 0.00000000
0.60845220 1.00000000 0.00000000
0.63198453 1.00000000 0.00000000
0.02503283 1.00000000 0.00000000
0.03468490 1.00000000 0.00000000
0.04556193 1.00000000 0.00000000
0.05761062 1.00000000 0.00000000
0.07077771 1.00000000 0.00000000
0.08500990 1.00000000 0.00000000
0.10025391 1.00000000 0.00000000
0.11645646 1.00000000 0.00000000
0.13356428 1.00000000 0.00000000
0.15152408 1.00000000 0.00000000
0.17028257 1.00000000 0.00000000
0.18978648 1.00000000 0.00000000
0.20998251 1.00000000 0.00000000
0.23081739 1.00000000 0.00000000
0.25223786 1.00000000 0.00000000
0.27419060 1.00000000 0.00000000
0.29662234 1.00000000 0.00000000
0.31947979 1.00000000 0.00000000
0.34270972 1.00000000 0.00000000
0.36625877 1.00000000 0.00000000
0.39007372 1.00000000 0.00000000
0.41410124 1.00000000 0.00000000
0.43828809 1.00000000 0.00000000
0.46258095 1.00000000 0.00000000
0.48692659 1.00000000 0.00000000
0.51127166 1.00000000 0.00000000
0.53556293 1.00000000 0.00000000
0.55974710 1.00000000 0.00000000
0.58377087 1.00000000 0.00000000
0.60758102 1.00000000 0.00000000
0.63112420 1.00000000 0.00000000
0.65434712 1.00000000 0.00000000
0.67719656 1.00000000 0.00000000
0.04514068 1.00000000 0.00000000
0.05714722 1.00000000 0.00000000
0.07027410 1.00000000 0.00000000
0.08446805 1.00000000 0.00000000
0.09967578 1.00000000 0.00000000
0.11584402 1.00000000 0.00000000
0.13291948 1.00000000 0.00000000
0.15084887 1.00000000 0.00000000
0.16957892 1.00000000 0.00000000
0.18905635 1.00000000 0.00000000
0.20922787 1.00000000 0.00000000
0.23004019 1.00000000 0.00000000
0.25144005 1.00000000 0.00000000
0.27337417 1.00000000 0.00000000
0.29578921 1.00000000 0.00000000
0.31863198 1.00000000 0.00000000
0.34184912 1.00000000 0.00000000
0.36538738 1.00000000 0.00000000
0.38919348 1.00000000 0.00000000
0.41321415 1.00000000 0.00000000
0.43739608 1.00000000 0.00000000
0.46168599 1.00000000 0.00000000
0.48603061 1.00000000 0.00000000
0.51037663 1.00000000 0.00000000
0.53467083 1.00000000 0.00000000
0.55885988 1.00000000 0.00000000
0.58289051 1.00000000 0.00000000
0.60670948 1.00000000 0.00000000
0.63026339 1.00000000 0.00000000
0.65349907 1.00000000 0.00000000
0.67636323 1.00000000 0.00000000
0.69880247 1.00000000 0.00000000
0.72076368 1.00000000 0.00000000
0.06977194 1.00000000 0.00000000
0.08392758 1.00000000 0.00000000
0.09909896 1.00000000 0.00000000
0.11523280 1.00000000 0.00000000
0.13227582 1.00000000 0.00000000
0.15017475 1.00000000 0.00000000
0.16887629 1.00000000 0.00000000
0.18832716 1.00000000 0.00000000
0.20847410 1.00000000 0.00000000
0.22926380 1.00000000 0.00000000
0.25064299 1.00000000 0.00000000
0.27255836 1.00000000 0.00000000
0.29495668 1.00000000 0.00000000
0.31778464 1.00000000 0.00000000
0.34098896 1.00000000 0.00000000
0.36451635 1.00000000 0.00000000
0.38831356 1.00000000 0.00000000
0.41232726 1.00000000 0.00000000
0.43650419 1.00000000 0.00000000
0.46079108 1.00000000 0.00000000
0.48513463 1.00000000 0.00000000
0.50948155 1.00000000 0.00000000
0.53377861 1.00000000 0.00000000
0.55797249 1.00000000 0.00000000
0.58200991 1.00000000 0.00000000
0.60583752 1.00000000 0.00000000
0.62940216 1.00000000 0.00000000
0.65265054 1.00000000 0.00000000
0.67552924 1.00000000 0.00000000
0.69798511 1.00000000 0.00000000
0.71996486 1.00000000 0.00000000
0.74141514 1.00000000 0.00000000
0.76228267 1.00000000 0.00000000
0.09852343 1.00000000 0.00000000
0.11462282 1.00000000 0.00000000
0.13163334 1.00000000 0.00000000
0.14950171 1.00000000 0.00000000
0.16817467 1.00000000 0.00000000
0.18759893 1.00000000 0.00000000
0.20772119 1.00000000 0.00000000
0.22848818 1.00000000 0.00000000
0.24984662 1.00000000 0.00000000
0.27174324 1.00000000 0.00000000
0.29412472 1.00000000 0.00000000
0.31693783 1.00000000 0.00000000
0.34012923 1.00000000 0.00000000
0.36364570 1.00000000 0.00000000
0.38743392 1.00000000 0.00000000
0.41144058 1.00000000 0.00000000
0.43561247 1.00000000 0.00000000
0.45989624 1.00000000 0.00000000
0.48423865 1.00000000 0.00000000
0.50858641 1.00000000 0.00000000
0.53288627 1.00000000 0.00000000
0.55708486 1.00000000 0.00000000
0.58112895 1.00000000 0.00000000
0.60496527 1.00000000 0.00000000
0.62854052 1.00000000 0.00000000
0.65180147 1.00000000 0.00000000
0.67469472 1.00000000 0.00000000
0.69716710 1.00000000 0.00000000
0.71916527 1.00000000 0.00000000
0.74063599 1.00000000 0.00000000
0.76152593 1.00000000 0.00000000
0.78178179 1.00000000 0.00000000
0.80135041 1.00000000 0.00000000
0.13099201 1.00000000 0.00000000
0.14882977 1.00000000 0.00000000
0.16747406 1.00000000 0.00000000
0.18687162 1.00000000 0.00000000
0.20696916 1.00000000 0.00000000
0.22771338 1.00000000 0.00000000
0.24905100 1.00000000 0.00000000
0.27092874 1.00000000 0.00000000
0.29329336 1.00000000 0.00000000
0.31609151 1.00000000 0.00000000
0.33926997 1.00000000 0.00000000
0.36277539 1.00000000 0.00000000
0.38655457 1.00000000 0.00000000
0.41055414 1.00000000 0.00000000
0.43472090 1.00000000 0.00000000
0.45900151 1.00000000 0.00000000
0.48334271 1.00000000 0.00000000
0.50769120 1.00000000 0.00000000
0.53199375 1.00000000 0.00000000
0.55619699 1.00000000 0.00000000
0.58024776 1.00000000 0.00000000
0.60409266 1.00000000 0.00000000
0.62767845 1.00000000 0.00000000
0.65095186 1.00000000 0.00000000
0.67385966 1.00000000 0.00000000
0.69634843 1.00000000 0.00000000
0.71836501 1.00000000 0.00000000
0.73985606 1.00000000 0.00000000
0.76076829 1.00000000 0.00000000
0.78104848 1.00000000 0.00000000
0.80064327 1.00000000 0.00000000
0.81949943 1.00000000 0.00000000
0.83756369 1.00000000 0.00000000
0.16677448 1.00000000 0.00000000
0.18614528 1.00000000 0.00000000
0.20621799 1.00000000 0.00000000
0.22693937 1.00000000 0.00000000
0.24825610 1.00000000 0.00000000
0.27011493 1.00000000 0.00000000
0.29246256 1.00000000 0.00000000
0.31524572 1.00000000 0.00000000
0.33841112 1.00000000 0.00000000
0.36190549 1.00000000 0.00000000
0.38567552 1.00000000 0.00000000
0.40966794 1.00000000 0.00000000
0.43382946 1.00000000 0.00000000
0.45810685 1.00000000 0.00000000
0.48244676 1.00000000 0.00000000
0.50679594 1.00000000 0.00000000
0.53110111 1.00000000 0.00000000
0.55530894 1.00000000 0.00000000
0.57936627 1.00000000 0.00000000
0.60321969 1.00000000 0.00000000
0.62681597 1.00000000 0.00000000
0.65010184 1.00000000 0.00000000
0.67302394 1.00000000 0.00000000
0.69552910 1.00000000 0.00000000
0.71756399 1.00000000 0.00000000
0.73907530 1.00000000 0.00000000
0.76000983 1.00000000 0.00000000
0.78031421 1.00000000 0.00000000
0.79993516 1.00000000 0.00000000
0.81881946 1.00000000 0.00000000
0.83691376 1.00000000 0.00000000
0.85416484 1.00000000 0.00000000
0.87051940 1.00000000 0.00000000
0.20546772 1.00000000 0.00000000
0.22616617 1.00000000 0.00000000
0.24746194 1.00000000 0.00000000
0.26930177 1.00000000 0.00000000
0.29163238 1.00000000 0.00000000
0.31440043 1.00000000 0.00000000
0.33755273 1.00000000 0.00000000
0.36103591 1.00000000 0.00000000
0.38479677 1.00000000 0.00000000
0.40878195 1.00000000 0.00000000
0.43293822 1.00000000 0.00000000
0.45721224 1.00000000 0.00000000
0.48155081 1.00000000 0.00000000
0.50590062 1.00000000 0.00000000
0.53020835 1.00000000 0.00000000
0.55442071 1.00000000 0.00000000
0.57848448 1.00000000 0.00000000
0.60234636 1.00000000 0.00000000
0.62595302 1.00000000 0.00000000
0.64925128 1.00000000 0.00000000
0.67218775 1.00000000 0.00000000
0.69470918 1.00000000 0.00000000
0.71676230 1.00000000 0.00000000
0.73829383 1.00000000 0.00000000
0.75925052 1.00000000 0.00000000
0.77957898 1.00000000 0.00000000
0.79922605 1.00000000 0.00000000
0.81813836 1.00000000 0.00000000
0.83626270 1.00000000 0.00000000
0.85354578 1.00000000 0.00000000
0.86993426 1.00000000 0.00000000
0.88537484 1.00000000 0.00000000
0.89981437 1.00000000 0.00000000
0.24666853 1.00000000 0.00000000
0.26848927 1.00000000 0.00000000
0.29080278 1.00000000 0.00000000
0.31355569 1.00000000 0.00000000
0.33669478 1.00000000 0.00000000
0.36016676 1.00000000 0.00000000
0.38391832 1.00000000 0.00000000
0.40789619 1.00000000 0.00000000
0.43204710 1.00000000 0.00000000
0.45631775 1.00000000 0.00000000
0.48065490 1.00000000 0.00000000
0.50500518 1.00000000 0.00000000
0.52931541 1.00000000 0.00000000
0.55353224 1.00000000 0.00000000
0.57760245 1.00000000 0.00000000
0.60147268 1.00000000 0.00000000
0.62508970 1.00000000 0.00000000
0.64840025 1.00000000 0.00000000
0.67135096 1.00000000 0.00000000
0.69388860 1.00000000 0.00000000
0.71595991 1.00000000 0.00000000
0.73751158 1.00000000 0.00000000
0.75849032 1.00000000 0.00000000
0.77884287 1.00000000 0.00000000
0.79851592 1.00000000 0.00000000
0.81745625 1.00000000 0.00000000
0.83561051 1.00000000 0.00000000
0.85292548 1.00000000 0.00000000
0.86934781 1.00000000 0.00000000
0.88482422 1.00000000 0.00000000
0.89930147 1.00000000 0.00000000
0.91272628 1.00000000 0.00000000
0.92504537 1.00000000 0.00000000
0.28997377 1.00000000 0.00000000
0.31271145 1.00000000 0.00000000
0.33583727 1.00000000 0.00000000
0.35929796 1.00000000 0.00000000
0.38304016 1.00000000 0.00000000
0.40701067 1.00000000 0.00000000
0.43115616 1.00000000 0.00000000
0.45542336 1.00000000 0.00000000
0.47975898 1.00000000 0.00000000
0.50410974 1.00000000 0.00000000
0.52842242 1.00000000 0.00000000
0.55264360 1.00000000 0.00000000
0.57672012 1.00000000 0.00000000
0.60059869 1.00000000 0.00000000
0.62422597 1.00000000 0.00000000
0.64754868 1.00000000 0.00000000
0.67051357 1.00000000 0.00000000
0.69306737 1.00000000 0.00000000
0.71515679 1.00000000 0.00000000
0.73672855 1.00000000 0.00000000
0.75772929 1.00000000 0.00000000
0.77810585 1.00000000 0.00000000
0.79780483 1.00000000 0.00000000
0.81677306 1.00000000 0.00000000
0.83495718 1.00000000 0.00000000
0.85230392 1.00000000 0.00000000
0.86876005 1.00000000 0.00000000
0.88427222 1.00000000 0.00000000
0.89878720 1.00000000 0.00000000
0.91225165 1.00000000 0.00000000
0.92461234 1.00000000 0.00000000
0.93581599 1.00000000 0.00000000
0.94580930 1.00000000 0.00000000
0.33498025 1.00000000 0.00000000
0.35842952 1.00000000 0.00000000
0.38216233 1.00000000 0.00000000
0.40612540 1.00000000 0.00000000
0.43026537 1.00000000 0.00000000
0.45452905 1.00000000 0.00000000
0.47886309 1.00000000 0.00000000
0.50321424 1.00000000 0.00000000
0.52752924 1.00000000 0.00000000
0.55175477 1.00000000 0.00000000
0.57583755 1.00000000 0.00000000
0.59972435 1.00000000 0.00000000
0.62336183 1.00000000 0.00000000
0.64669669 1.00000000 0.00000000
0.66967571 1.00000000 0.00000000
0.69224554 1.00000000 0.00000000
0.71435297 1.00000000 0.00000000
0.73594469 1.00000000 0.00000000
0.75696743 1.00000000 0.00000000
0.77736789 1.00000000 0.00000000
0.79709274 1.00000000 0.00000000
0.81608880 1.00000000 0.00000000
0.83430272 1.00000000 0.00000000
0.85168123 1.00000000 0.00000000
0.86817104 1.00000000 0.00000000
0.88371891 1.00000000 0.00000000
0.89827150 1.00000000 0.00000000
0.91177553 1.00000000 0.00000000
0.92417783 1.00000000 0.00000000
0.93542492 1.00000000 0.00000000
0.94546372 1.00000000 0.00000000
0.95424080 1.00000000 0.00000000
0.96110058 0.99903405 0.00000000
0.38128483 1.00000000 0.00000000
0.40524033 1.00000000 0.00000000
0.42937475 1.00000000 0.00000000
0.45363483 1.00000000 0.00000000
0.47796723 1.00000000 0.00000000
0.50231874 1.00000000 0.00000000
0.52663594 1.00000000 0.00000000
0.55086571 1.00000000 0.00000000
0.57495475 1.00000000 0.00000000
0.59884965 1.00000000 0.00000000
0.62249720 1.00000000 0.00000000
0.64584416 1.00000000 0.00000000
0.66883725 1.00000000 0.00000000
0.69142312 1.00000000 0.00000000
0.71354848 1.00000000 0.00000000
0.73516011 1.00000000 0.00000000
0.75620472 1.00000000 0.00000000
0.77662897 1.00000000 0.00000000
0.79637969 1.00000000 0.00000000
0.81540346 1.00000000 0.00000000
0.83364713 1.00000000 0.00000000
0.85105729 1.00000000 0.00000000
0.86758077 1.00000000 0.00000000
0.88316423 1.00000000 0.00000000
0.89775437 1.00000000 0.00000000
0.91129792 1.00000000 0.00000000
0.92374170 1.00000000 0.00000000
0.93503225 1.00000000 0.00000000
0.94511640 1.00000000 0.00000000
0.95394087 1.00000000 0.00000000
0.96111542 0.99945998 0.00000000
0.95982873 0.98736256 0.00000000
0.95675385 0.97421819 0.00000000
0.42848432 1.00000000 0.00000000
0.45274070 1.00000000 0.00000000
0.47707140 1.00000000 0.00000000
0.50142312 1.00000000 0.00000000
0.52574259 1.00000000 0.00000000
0.54997653 1.00000000 0.00000000
0.57407165 1.00000000 0.00000000
0.59797460 1.00000000 0.00000000
0.62163228 1.00000000 0.00000000
0.64499122 1.00000000 0.00000000
0.66799819 1.00000000 0.00000000
0.69059998 1.00000000 0.00000000
0.71274328 1.00000000 0.00000000
0.73437476 1.00000000 0.00000000
0.75544119 1.00000000 0.00000000
0.77588922 1.00000000 0.00000000
0.79566562 1.00000000 0.00000000
0.81471711 1.00000000 0.00000000
0.83299035 1.00000000 0.00000000
0.85043216 1.00000000 0.00000000
0.86698920 1.00000000 0.00000000
0.88260818 1.00000000 0.00000000
0.89723581 1.00000000 0.00000000
0.91081887 1.00000000 0.00000000
0.92330396 1.00000000 0.00000000
0.93463796 1.00000000 0.00000000
0.94476742 1.00000000 0.00000000
0.95363921 1.00000000 0.00000000
0.96112782 0.99988449 0.00000000
0.95990813 0.98782647 0.00000000
0.95689785 0.97471976 0.00000000
0.95216411 0.96061081 0.00000000
0.94577396 0.94554597 0.00000000
0.47617561 1.00000000 0.00000000
0.50052750 1.00000000 0.00000000
0.52484906 1.00000000 0.00000000
0.54908711 1.00000000 0.00000000
0.57318825 1.00000000 0.00000000
0.59709924 1.00000000 0.00000000
0.62076688 1.00000000 0.00000000
0.64413774 1.00000000 0.00000000
0.66715866 1.00000000 0.00000000
0.68977630 1.00000000 0.00000000
0.71193737 1.00000000 0.00000000
0.73358864 1.00000000 0.00000000
0.75467676 1.00000000 0.00000000
0.77514851 1.00000000 0.00000000
0.79495054 1.00000000 0.00000000
0.81402969 1.00000000 0.00000000
0.83233249 1.00000000 0.00000000
0.84980583 1.00000000 0.00000000
0.86639637 1.00000000 0.00000000
0.88205081 1.00000000 0.00000000
0.89671588 1.00000000 0.00000000
0.91033828 1.00000000 0.00000000
0.92286474 1.00000000 0.00000000
0.93424201 1.00000000 0.00000000
0.94441676 1.00000000 0.00000000
0.95333570 1.00000000 0.00000000
0.96094561 1.00000000 0.00000000
0.95998514 0.98828894 0.00000000
0.95703954 0.97522002 0.00000000
0.95236802 0.96114707 0.00000000
0.94603765 0.94611657 0.00000000
0.93811566 0.93017483 0.00000000
0.92866910 0.91336823 0.00000000
0.52395546 1.00000000 0.00000000
0.54819751 1.00000000 0.00000000
0.57230461 1.00000000 0.00000000
0.59622359 1.00000000 0.00000000
0.61990106 1.00000000 0.00000000
0.64328384 1.00000000 0.00000000
0.66631854 1.00000000 0.00000000
0.68895197 1.00000000 0.00000000
0.71113080 1.00000000 0.00000000
0.73280174 1.00000000 0.00000000
0.75391155 1.00000000 0.00000000
0.77440691 1.00000000 0.00000000
0.79423457 1.00000000 0.00000000
0.81334120 1.00000000 0.00000000
0.83167356 1.00000000 0.00000000
0.84917831 1.00000000 0.00000000
0.86580229 1.00000000 0.00000000
0.88149208 1.00000000 0.00000000
0.89619452 1.00000000 0.00000000
0.90985620 1.00000000 0.00000000
0.92242390 1.00000000 0.00000000
0.93384439 1.00000000 0.00000000
0.94406432 1.00000000 0.00000000
0.95303047 1.00000000 0.00000000
0.96068943 1.00000000 0.00000000
0.96005976 0.98874998 0.00000000
0.95717889 0.97571886 0.00000000
0.95256966 0.96168208 0.00000000
0.94629914 0.94668597 0.00000000
0.93843448 0.93077695 0.00000000
0.92904288 0.91400135 0.00000000
0.91819143 0.89640552 0.00000000
0.90594727 0.87803584 0.00000000
0.57142073 1.00000000 0.00000000
0.59534758 1.00000000 0.00000000
0.61903489 1.00000000 0.00000000
0.64242947 1.00000000 0.00000000
0.66547793 1.00000000 0.00000000
0.68812704 1.00000000 0.00000000
0.71032351 1.00000000 0.00000000
0.73201412 1.00000000 0.00000000
0.75314552 1.00000000 0.00000000
0.77366441 1.00000000 0.00000000
0.79351753 1.00000000 0.00000000
0.81265163 1.00000000 0.00000000
0.83101344 1.00000000 0.00000000
0.84854960 1.00000000 0.00000000
0.86520690 1.00000000 0.00000000
0.88093203 1.00000000 0.00000000
0.89567173 1.00000000 0.00000000
0.90937263 1.00000000 0.00000000
0.92198157 1.00000000 0.00000000
0.93344522 1.00000000 0.00000000
0.94371027 1.00000000 0.00000000
0.95272344 1.00000000 0.00000000
0.96043146 1.00000000 0.00000000
0.96013188 0.98920959 0.00000000
0.95731592 0.97621638 0.00000000
0.95276910 0.96221578 0.00000000
0.94655848 0.94725412 0.00000000
0.93875128 0.93137783 0.00000000
0.92941463 0.91463327 0.00000000
0.91861570 0.89706683 0.00000000
0.90642160 0.87872481 0.00000000
0.89289951 0.85965365 0.00000000
0.87811655 0.83989966 0.00000000
0.61816835 1.00000000 0.00000000
0.64157456 1.00000000 0.00000000
0.66463673 1.00000000 0.00000000
0.68730146 1.00000000 0.00000000
0.70951557 1.00000000 0.00000000
0.73122573 1.00000000 0.00000000
0.75237858 1.00000000 0.00000000
0.77292103 1.00000000 0.00000000
0.79279959 1.00000000 0.00000000
0.81196111 1.00000000 0.00000000
0.83035225 1.00000000 0.00000000
0.84791970 1.00000000 0.00000000
0.86461031 1.00000000 0.00000000
0.88037068 1.00000000 0.00000000
0.89514750 1.00000000 0.00000000
0.90888762 1.00000000 0.00000000
0.92153764 1.00000000 0.00000000
0.93304437 1.00000000 0.00000000
0.94335443 1.00000000 0.00000000
0.95241463 1.00000000 0.00000000
0.96017164 1.00000000 0.00000000
0.96020162 0.98966777 0.00000000
0.95745063 0.97671252 0.00000000
0.95296627 0.96274817 0.00000000
0.94681567 0.94782108 0.00000000
0.93906605 0.93197763 0.00000000
0.92978448 0.91526419 0.00000000
0.91903812 0.89772713 0.00000000
0.90689415 0.87941283 0.00000000
0.89341974 0.86036766 0.00000000
0.87868196 0.84063798 0.00000000
0.86274809 0.82027012 0.00000000
0.84568512 0.79931056 0.00000000
0.66379499 1.00000000 0.00000000
0.68647534 1.00000000 0.00000000
0.70870692 1.00000000 0.00000000
0.73043656 1.00000000 0.00000000
0.75161088 1.00000000 0.00000000
0.77217668 1.00000000 0.00000000
0.79208064 1.00000000 0.00000000
0.81126946 1.00000000 0.00000000
0.82968992 1.00000000 0.00000000
0.84728867 1.00000000 0.00000000
0.86401242 1.00000000 0.00000000
0.87980795 1.00000000 0.00000000
0.89462197 1.00000000 0.00000000
0.90840113 1.00000000 0.00000000
0.92109221 1.00000000 0.00000000
0.93264192 1.00000000 0.00000000
0.94299698 1.00000000 0.00000000
0.95210409 1.00000000 0.00000000
0.95990998 1.00000000 0.00000000
0.96026886 0.99012458 0.00000000
0.95758295 0.97720730 0.00000000
0.95316118 0.96327925 0.00000000
0.94707072 0.94838673 0.00000000
0.93937868 0.93257618 0.00000000
0.93015230 0.91589391 0.00000000
0.91945863 0.89838636 0.00000000
0.90736490 0.88009983 0.00000000
0.89393824 0.86108071 0.00000000
0.87924576 0.84137541 0.00000000
0.86335468 0.82103026 0.00000000
0.84633207 0.80009162 0.00000000
0.82824510 0.77860588 0.00000000
0.80916095 0.75661945 0.00000000
0.70789760 1.00000000 0.00000000
0.72964662 1.00000000 0.00000000
0.75084239 1.00000000 0.00000000
0.77143151 1.00000000 0.00000000
0.79136074 1.00000000 0.00000000
0.81057680 1.00000000 0.00000000
0.82902646 1.00000000 0.00000000
0.84665638 1.00000000 0.00000000
0.86341327 1.00000000 0.00000000
0.87924391 1.00000000 0.00000000
0.89409494 1.00000000 0.00000000
0.90791315 1.00000000 0.00000000
0.92064524 1.00000000 0.00000000
0.93223786 1.00000000 0.00000000
0.94263780 1.00000000 0.00000000
0.95179176 1.00000000 0.00000000
0.95964646 1.00000000 0.00000000
0.96033370 0.99057990 0.00000000
0.95771295 0.97770071 0.00000000
0.95335382 0.96380901 0.00000000
0.94732356 0.94895118 0.00000000
0.93968928 0.93317354 0.00000000
0.93051815 0.91652256 0.00000000
0.91987729 0.89904451 0.00000000
0.90783387 0.88078582 0.00000000
0.89445508 0.86179286 0.00000000
0.87980795 0.84211195 0.00000000
0.86395973 0.82178950 0.00000000
0.84697759 0.80087191 0.00000000
0.82892859 0.77940547 0.00000000
0.80987990 0.75743663 0.00000000
0.78989875 0.73501170 0.00000000
0.76905215 0.71217710 0.00000000
0.75007302 1.00000000 0.00000000
0.77068537 1.00000000 0.00000000
0.79063988 1.00000000 0.00000000
0.80988312 1.00000000 0.00000000
0.82836193 1.00000000 0.00000000
0.84602290 1.00000000 0.00000000
0.86281288 1.00000000 0.00000000
0.87867856 1.00000000 0.00000000
0.89356655 1.00000000 0.00000000
0.90742368 1.00000000 0.00000000
0.92019665 1.00000000 0.00000000
0.93183219 1.00000000 0.00000000
0.94227695 1.00000000 0.00000000
0.95147771 1.00000000 0.00000000
0.95938110 1.00000000 0.00000000
0.96039611 0.99103379 0.00000000
0.95784056 0.97819275 0.00000000
0.95354420 0.96433747 0.00000000
0.94757420 0.94951433 0.00000000
0.93999779 0.93376976 0.00000000
0.93088198 0.91715008 0.00000000
0.92029399 0.89970165 0.00000000
0.90830100 0.88147086 0.00000000
0.89497012 0.86250407 0.00000000
0.88036853 0.84284765 0.00000000
0.86456329 0.82254797 0.00000000
0.84762168 0.80165148 0.00000000
0.82961071 0.78020442 0.00000000
0.81059766 0.75825322 0.00000000
0.79064959 0.73584425 0.00000000
0.76983368 0.71302390 0.00000000
0.74821705 0.68983847 0.00000000
0.72586691 0.66633445 0.00000000
0.78991801 1.00000000 0.00000000
0.80918843 1.00000000 0.00000000
0.82769626 1.00000000 0.00000000
0.84538829 1.00000000 0.00000000
0.86221123 1.00000000 0.00000000
0.87811184 1.00000000 0.00000000
0.89303678 1.00000000 0.00000000
0.90693277 1.00000000 0.00000000
0.91974658 1.00000000 0.00000000
0.93142486 1.00000000 0.00000000
0.94191438 1.00000000 0.00000000
0.95116186 1.00000000 0.00000000
0.95911396 1.00000000 0.00000000
0.96045607 0.99148625 0.00000000
0.95796579 0.97868341 0.00000000
0.95373231 0.96486461 0.00000000
0.94782275 0.95007628 0.00000000
0.94030416 0.93436480 0.00000000
0.93124384 0.91777647 0.00000000
0.92070884 0.90035772 0.00000000
0.90876633 0.88215488 0.00000000
0.89548349 0.86321431 0.00000000
0.88092744 0.84358251 0.00000000
0.86516529 0.82330567 0.00000000
0.84826428 0.80243027 0.00000000
0.83029151 0.78100264 0.00000000
0.81131411 0.75906914 0.00000000
0.79139924 0.73667622 0.00000000
0.77061409 0.71387017 0.00000000
0.74902570 0.69069737 0.00000000
0.72670138 0.66720426 0.00000000
0.70370811 0.64343709 0.00000000
