Coems_Major/Coems Major (Gradient Map Only).cube
# VEGAS Pro LUT
TITLE "Coems Major"
LUT_3D_SIZE 5
0.00000000 1.00000000 0.00000000
0.07178924 1.00000000 0.00000000
0.21149439 1.00000000 0.00000000
0.39183503 1.00000000 0.00000000
0.58553076 1.00000000 0.00000000
0.20546772 1.00000000 0.00000000
0.38479677 1.00000000 0.00000000
0.57848448 1.00000000 0.00000000
0.75925052 1.00000000 0.00000000
0.89981437 1.00000000 0.00000000
0.57142073 1.00000000 0.00000000
0.75314552 1.00000000 0.00000000
0.89567173 1.00000000 0.00000000
0.95731592 0.97621638 0.00000000
0.87811655 0.83989966 0.00000000
0.89143908 1.00000000 0.00000000
0.95832747 0.98014718 0.00000000
0.88259441 0.84578174 0.00000000
0.72919929 0.66981143 0.00000000
0.53252238 0.47597784 0.00000000
0.88696706 0.85160744 0.00000000
0.73582000 0.67674714 0.00000000
0.54012620 0.48315006 0.00000000
0.33426586 0.29455790 0.00000000
0.15261905 0.13471216 0.00000000
0.01762412 1.00000000 0.00000000
0.11852549 1.00000000 0.00000000
0.27694154 1.00000000 0.00000000
0.46559185 1.00000000 0.00000000
0.65719599 1.00000000 0.00000000
0.27041081 1.00000000 0.00000000
0.45843217 1.00000000 0.00000000
0.65041101 1.00000000 0.00000000
0.81906688 1.00000000 0.00000000
0.93711936 1.00000000 0.00000000
0.64359438 1.00000000 0.00000000
0.81359166 1.00000000 0.00000000
0.93398917 1.00000000 0.00000000
0.93831879 0.93055815 0.00000000
0.82593620 0.77591133 0.00000000
0.93075496 1.00000000 0.00000000
0.94080108 0.93533587 0.00000000
0.83140254 0.78230739 0.00000000
0.65745020 0.59672594 0.00000000
0.45332408 0.40233326 0.00000000
0.83678150 0.78865933 0.00000000
0.66459489 0.60385489 0.00000000
0.46096972 0.40936568 0.00000000
0.26028609 0.22893332 0.00000000
0.09692413 0.08629938 0.00000000
0.04757469 1.00000000 0.00000000
0.17362250 1.00000000 0.00000000
0.34678379 1.00000000 0.00000000
0.53977805 1.00000000 0.00000000
0.72532499 1.00000000 0.00000000
0.33989486 1.00000000 0.00000000
0.53264284 1.00000000 0.00000000
0.71894711 1.00000000 0.00000000
0.87152714 1.00000000 0.00000000
0.96096712 0.99656600 0.00000000
0.71252358 1.00000000 0.00000000
0.86682767 1.00000000 0.00000000
0.96113074 1.00000000 0.00000000
0.90512371 0.87684345 0.00000000
0.76455569 0.70731789 0.00000000
0.95904082 1.00000000 0.00000000
0.90889293 0.88234127 0.00000000
0.77082670 0.71410090 0.00000000
0.58131474 0.52235967 0.00000000
0.37473723 0.33085907 0.00000000
0.77702808 0.72085208 0.00000000
0.58879966 0.52955478 0.00000000
0.38224083 0.33762470 0.00000000
0.19173166 0.16880341 0.00000000
0.05165232 0.04683252 0.00000000
0.08833971 1.00000000 0.00000000
0.23556828 1.00000000 0.00000000
0.41950908 1.00000000 0.00000000
0.61288166 1.00000000 0.00000000
0.78840566 1.00000000 0.00000000
0.41240788 1.00000000 0.00000000
0.60591680 1.00000000 0.00000000
0.78258079 1.00000000 0.00000000
0.91511929 1.00000000 0.00000000
0.95020795 0.95567650 0.00000000
0.77669621 1.00000000 0.00000000
0.91134143 1.00000000 0.00000000
0.95193911 0.96002430 0.00000000
0.85963625 0.81638825 0.00000000
0.69588047 0.63543510 0.00000000
0.95352697 0.96428949 0.00000000
0.86450851 0.82247907 0.00000000
0.70277232 0.64247817 0.00000000
0.50269860 0.44802830 0.00000000
0.29866737 0.26287109 0.00000000
0.70961225 0.64950162 0.00000000
0.51033980 0.45516270 0.00000000
0.30584502 0.26924297 0.00000000
0.13050810 0.11548403 0.00000000
0.01870911 0.01762744 0.00000000
0.13840717 1.00000000 0.00000000
0.30285084 1.00000000 0.00000000
0.49360546 1.00000000 0.00000000
0.68339068 1.00000000 0.00000000
0.84492600 1.00000000 0.00000000
0.48643786 1.00000000 0.00000000
0.67674208 1.00000000 0.00000000
0.83980006 1.00000000 0.00000000
0.94833142 1.00000000 0.00000000
0.92424792 0.90603805 0.00000000
0.83460033 1.00000000 0.00000000
0.94562101 1.00000000 0.00000000
0.92736274 0.91117269 0.00000000
0.80376178 0.75050837 0.00000000
0.62181610 0.56157893 0.00000000
0.93035209 0.91623694 0.00000000
0.80955327 0.75706524 0.00000000
0.62914491 0.56875503 0.00000000
0.42350709 0.37504780 0.00000000
0.22701997 0.19968523 0.00000000
0.63643950 0.57592380 0.00000000
0.43112075 0.38199452 0.00000000
0.23368783 0.20553640 0.00000000
0.07852088 0.07029103 0.00000000
0.00000000 0.00000000 0.00000000
