Spangled_X/Spangled X (Gradient Map Only).cube
# VEGAS Pro LUT
TITLE "Spangled X (Gradient Map Only)"
LUT_3D_SIZE 33
1.00000000 1.00000000 1.00000000
0.98706347 0.98807663 0.98807663
0.96559566 0.96947062 0.96947062
0.93641955 0.94473863 0.94473863
0.90035814 0.91443723 0.91443723
0.85823435 0.87912297 0.87912297
0.81087112 0.83935237 0.83935237
0.75909144 0.79568207 0.79568207
0.70371830 0.74866867 0.74866867
0.64557469 0.69886869 0.69886869
0.58548349 0.64683872 0.64683872
0.52426767 0.59313536 0.59313536
0.46275032 0.53831512 0.53831512
0.40175426 0.48293465 0.48293465
0.34210253 0.42755046 0.42755046
0.28461811 0.37271917 0.37271917
0.23012389 0.31899735 0.31899735
0.17944290 0.26694155 0.26694155
0.13339809 0.21710835 0.21710835
0.09281242 0.17005435 0.17005435
0.05850885 0.12633610 0.12633610
0.03131035 0.08651017 0.08651017
0.01203989 0.05113316 0.05113316
0.00152043 0.02076162 0.02076162
0.00280916 0.00000000 0.00000000
0.02003517 0.00000000 0.00000000
0.03999192 0.00000000 0.00000000
0.06250835 0.00000000 0.00000000
0.08741339 0.00000000 0.00000000
0.11453594 0.00000000 0.00000000
0.14370494 0.00000000 0.00000000
0.17474931 0.00000000 0.00000000
0.20749798 0.00000000 0.00000000
0.96652704 0.97026706 0.97026706
0.93761998 0.94575059 0.94575059
0.90179724 0.91564423 0.91564423
0.85988188 0.88050449 0.88050449
0.81269687 0.84088802 0.84088802
0.76106507 0.79735136 0.79735136
0.70580959 0.75045103 0.75045103
0.64775330 0.70074373 0.70074373
0.58771914 0.64878595 0.64878595
0.52653015 0.59513426 0.59513426
0.46500930 0.54034525 0.54034525
0.40397948 0.48497552 0.48497552
0.34426373 0.42958164 0.42958164
0.28668496 0.37472013 0.37472013
0.23206617 0.32094762 0.32094762
0.18123032 0.26882067 0.26882067
0.13500036 0.21889585 0.21889585
0.09419927 0.17172974 0.17172974
0.05965000 0.12787890 0.12787890
0.03217554 0.08789992 0.08789992
0.01259883 0.05234937 0.05234937
0.00174284 0.02178383 0.02178383
0.00222972 0.00000000 0.00000000
0.01935200 0.00000000 0.00000000
0.03921133 0.00000000 0.00000000
0.06163662 0.00000000 0.00000000
0.08645681 0.00000000 0.00000000
0.11350081 0.00000000 0.00000000
0.14259756 0.00000000 0.00000000
0.17357597 0.00000000 0.00000000
0.20626497 0.00000000 0.00000000
0.24049348 0.00000000 0.00000000
0.27609041 0.00000000 0.00000000
0.90322816 0.91684443 0.91684443
0.86152232 0.88187999 0.88187999
0.81451660 0.84241831 0.84241831
0.76303381 0.79901600 0.79901600
0.70789707 0.75222963 0.75222963
0.64992923 0.70261568 0.70261568
0.58995324 0.65073085 0.65073085
0.52879220 0.59713161 0.59713161
0.46726894 0.54237461 0.54237461
0.40620649 0.48701638 0.48701638
0.34642780 0.43161350 0.43161350
0.28875583 0.37672257 0.37672257
0.23401357 0.32290012 0.32290012
0.18302396 0.27070278 0.27070278
0.13660999 0.22068708 0.22068708
0.09559458 0.17340961 0.17340961
0.06080073 0.12942696 0.12942696
0.03305141 0.08929567 0.08929567
0.01316957 0.05357234 0.05357234
0.00197817 0.02281354 0.02281354
0.00165422 0.00000000 0.00000000
0.01867254 0.00000000 0.00000000
0.03843420 0.00000000 0.00000000
0.06076813 0.00000000 0.00000000
0.08550324 0.00000000 0.00000000
0.11246847 0.00000000 0.00000000
0.14149272 0.00000000 0.00000000
0.17240494 0.00000000 0.00000000
0.20503403 0.00000000 0.00000000
0.23920894 0.00000000 0.00000000
0.27475858 0.00000000 0.00000000
0.31151187 0.00000000 0.00000000
0.34929773 0.00000000 0.00000000
0.81633025 0.84394336 0.84394336
0.76499760 0.80067611 0.80067611
0.70998067 0.75400436 0.75400436
0.65210241 0.70448458 0.70448458
0.59218580 0.65267342 0.65267342
0.53105372 0.59912741 0.59912741
0.46952921 0.54440314 0.54440314
0.40843523 0.48905715 0.48905715
0.34859473 0.43364608 0.43364608
0.29083067 0.37872645 0.37872645
0.23596606 0.32485482 0.32485482
0.18482381 0.27258784 0.27258784
0.13822691 0.22248201 0.22248201
0.09699832 0.17509395 0.17509395
0.06196100 0.13098021 0.13098021
0.03393793 0.09069738 0.09069738
0.01375207 0.05480202 0.05480202
0.00222638 0.02385072 0.02385072
0.00108266 0.00000000 0.00000000
0.01799680 0.00000000 0.00000000
0.03766057 0.00000000 0.00000000
0.05990289 0.00000000 0.00000000
0.08455270 0.00000000 0.00000000
0.11143891 0.00000000 0.00000000
0.14039044 0.00000000 0.00000000
0.17123623 0.00000000 0.00000000
0.20380519 0.00000000 0.00000000
0.23792626 0.00000000 0.00000000
0.27342835 0.00000000 0.00000000
0.31014040 0.00000000 0.00000000
0.34789130 0.00000000 0.00000000
0.38650998 0.00000000 0.00000000
0.42582542 0.00000000 0.00000000
0.71206045 0.75577527 0.75577527
0.65427285 0.70635039 0.70635039
0.59441662 0.65461367 0.65461367
0.53331470 0.60112160 0.60112160
0.47179008 0.54643083 0.54643083
0.41066566 0.49109787 0.49109787
0.35076448 0.43567932 0.43567932
0.29290944 0.38073173 0.38073173
0.23792358 0.32681170 0.32681170
0.18662980 0.27447581 0.27447581
0.13985109 0.22428063 0.22428063
0.09841043 0.17678271 0.17678271
0.06313076 0.13253866 0.13253866
0.03483506 0.09210502 0.09210502
0.01434629 0.05603839 0.05603839
0.00248742 0.02489534 0.02489534
0.00051506 0.00000000 0.00000000
0.01732477 0.00000000 0.00000000
0.03689041 0.00000000 0.00000000
0.05904091 0.00000000 0.00000000
0.08360517 0.00000000 0.00000000
0.11041214 0.00000000 0.00000000
0.13929072 0.00000000 0.00000000
0.17006986 0.00000000 0.00000000
0.20257846 0.00000000 0.00000000
0.23664546 0.00000000 0.00000000
0.27209976 0.00000000 0.00000000
0.30877033 0.00000000 0.00000000
0.34648603 0.00000000 0.00000000
0.38507584 0.00000000 0.00000000
0.42436868 0.00000000 0.00000000
0.46419343 0.00000000 0.00000000
0.50437903 0.00000000 0.00000000
0.59664583 0.65655154 0.65655154
0.53557515 0.60311419 0.60311419
0.47405145 0.54845768 0.54845768
0.41289777 0.49313846 0.49313846
0.35293698 0.43771318 0.43771318
0.29499209 0.38273841 0.38273841
0.23988609 0.32877073 0.32877073
0.18844190 0.27636671 0.27636671
0.14148252 0.22608289 0.22608289
0.09983088 0.17847589 0.17847589
0.06430998 0.13410226 0.13410226
0.03574276 0.09351858 0.09351858
0.01495219 0.05728143 0.05728143
0.00276125 0.02594738 0.02594738
0.00000000 0.00007301 0.00007301
0.01665648 0.00000000 0.00000000
0.03612376 0.00000000 0.00000000
0.05818219 0.00000000 0.00000000
0.08266069 0.00000000 0.00000000
0.10938818 0.00000000 0.00000000
0.13819358 0.00000000 0.00000000
0.16890582 0.00000000 0.00000000
0.20135383 0.00000000 0.00000000
0.23536652 0.00000000 0.00000000
0.27077284 0.00000000 0.00000000
0.30740169 0.00000000 0.00000000
0.34508198 0.00000000 0.00000000
0.38364264 0.00000000 0.00000000
0.42291263 0.00000000 0.00000000
0.46272087 0.00000000 0.00000000
0.50289625 0.00000000 0.00000000
0.54326767 0.00000000 0.00000000
0.58366412 0.00000000 0.00000000
0.47631335 0.55048358 0.55048358
0.41513145 0.49517891 0.49517891
0.35511222 0.43974766 0.43974766
0.29707858 0.38474646 0.38474646
0.24185356 0.33073187 0.33073187
0.19026008 0.27826044 0.27826044
0.14312111 0.22788878 0.22788878
0.10125963 0.18017344 0.18017344
0.06549860 0.13567099 0.13567099
0.03666098 0.09493802 0.09493802
0.01556974 0.05853111 0.05853111
0.00304784 0.02700682 0.02700682
0.00000000 0.00092172 0.00092172
0.01599192 0.00000000 0.00000000
0.03536062 0.00000000 0.00000000
0.05732675 0.00000000 0.00000000
0.08171925 0.00000000 0.00000000
0.10836703 0.00000000 0.00000000
0.13709901 0.00000000 0.00000000
0.16774414 0.00000000 0.00000000
0.20013133 0.00000000 0.00000000
0.23408949 0.00000000 0.00000000
0.26944757 0.00000000 0.00000000
0.30603445 0.00000000 0.00000000
0.34367910 0.00000000 0.00000000
0.38221043 0.00000000 0.00000000
0.42145735 0.00000000 0.00000000
0.46124879 0.00000000 0.00000000
0.50141370 0.00000000 0.00000000
0.54178095 0.00000000 0.00000000
0.58217949 0.00000000 0.00000000
0.62243825 0.00000000 0.00000000
0.66238618 0.00000000 0.00000000
0.35729015 0.44178274 0.44178274
0.29916888 0.38675585 0.38675585
0.24382594 0.33269510 0.33269510
0.19208428 0.28015703 0.28015703
0.14476685 0.22969826 0.22969826
0.10269663 0.18187533 0.18187533
0.06669659 0.13724482 0.13724482
0.03758968 0.09636332 0.09636332
0.01619888 0.05978739 0.05978739
0.00334714 0.02807361 0.02807361
0.00000000 0.00177855 0.00177855
0.01533111 0.00000000 0.00000000
0.03460099 0.00000000 0.00000000
0.05647460 0.00000000 0.00000000
0.08078086 0.00000000 0.00000000
0.10734870 0.00000000 0.00000000
0.13600704 0.00000000 0.00000000
0.16658482 0.00000000 0.00000000
0.19891094 0.00000000 0.00000000
0.23281434 0.00000000 0.00000000
0.26812392 0.00000000 0.00000000
0.30466866 0.00000000 0.00000000
0.34227741 0.00000000 0.00000000
0.38077915 0.00000000 0.00000000
0.42000279 0.00000000 0.00000000
0.45977724 0.00000000 0.00000000
0.49993140 0.00000000 0.00000000
0.54029423 0.00000000 0.00000000
0.58069468 0.00000000 0.00000000
0.62096167 0.00000000 0.00000000
0.66092402 0.00000000 0.00000000
0.70041078 0.00000000 0.00000000
0.73925078 0.00000000 0.00000000
0.24580321 0.33466038 0.33466038
0.19391447 0.28205645 0.28205645
0.14641970 0.23151131 0.23151131
0.10414186 0.18358155 0.18358155
0.06790391 0.13882373 0.13882373
0.03852883 0.09779445 0.09779445
0.01683957 0.06105025 0.06105025
0.00365911 0.02914774 0.02914774
0.00000000 0.00264347 0.00264347
0.01467406 0.00000000 0.00000000
0.03384488 0.00000000 0.00000000
0.05562573 0.00000000 0.00000000
0.07984553 0.00000000 0.00000000
0.10633320 0.00000000 0.00000000
0.13491766 0.00000000 0.00000000
0.16542786 0.00000000 0.00000000
0.19769269 0.00000000 0.00000000
0.23154110 0.00000000 0.00000000
0.26680198 0.00000000 0.00000000
0.30330428 0.00000000 0.00000000
0.34087694 0.00000000 0.00000000
0.37934887 0.00000000 0.00000000
0.41854897 0.00000000 0.00000000
0.45830616 0.00000000 0.00000000
0.49844941 0.00000000 0.00000000
0.53880763 0.00000000 0.00000000
0.57920969 0.00000000 0.00000000
0.61948460 0.00000000 0.00000000
0.65946120 0.00000000 0.00000000
0.69896847 0.00000000 0.00000000
0.73783535 0.00000000 0.00000000
0.77589071 0.00000000 0.00000000
0.81296349 0.00000000 0.00000000
0.14807960 0.23332790 0.23332790
0.10559525 0.18529207 0.18529207
0.06912053 0.14040770 0.14040770
0.03947838 0.09923137 0.09923137
0.01749179 0.06231967 0.06231967
0.00398371 0.03022917 0.03022917
0.00000000 0.00351644 0.00351644
0.01402077 0.00000000 0.00000000
0.03309231 0.00000000 0.00000000
0.05478017 0.00000000 0.00000000
0.07891327 0.00000000 0.00000000
0.10532054 0.00000000 0.00000000
0.13383090 0.00000000 0.00000000
0.16427328 0.00000000 0.00000000
0.19647658 0.00000000 0.00000000
0.23026976 0.00000000 0.00000000
0.26548171 0.00000000 0.00000000
0.30194139 0.00000000 0.00000000
0.33947769 0.00000000 0.00000000
0.37791955 0.00000000 0.00000000
0.41709590 0.00000000 0.00000000
0.45683566 0.00000000 0.00000000
0.49696773 0.00000000 0.00000000
0.53732103 0.00000000 0.00000000
0.57772458 0.00000000 0.00000000
0.61800718 0.00000000 0.00000000
0.65799779 0.00000000 0.00000000
0.69752538 0.00000000 0.00000000
0.73641878 0.00000000 0.00000000
0.77450705 0.00000000 0.00000000
0.81161898 0.00000000 0.00000000
0.84758359 0.00000000 0.00000000
0.88222975 0.00000000 0.00000000
0.07034639 0.14199667 0.14199667
0.04043829 0.10067406 0.10067406
0.01815548 0.06359562 0.06359562
0.00432090 0.03131788 0.03131788
0.00000000 0.00439745 0.00439745
0.01337126 0.00000000 0.00000000
0.03234328 0.00000000 0.00000000
0.05393792 0.00000000 0.00000000
0.07798409 0.00000000 0.00000000
0.10431072 0.00000000 0.00000000
0.13274674 0.00000000 0.00000000
0.16312107 0.00000000 0.00000000
0.19526263 0.00000000 0.00000000
0.22900034 0.00000000 0.00000000
0.26416314 0.00000000 0.00000000
0.30057994 0.00000000 0.00000000
0.33807966 0.00000000 0.00000000
0.37649125 0.00000000 0.00000000
0.41564360 0.00000000 0.00000000
0.45536566 0.00000000 0.00000000
0.49548632 0.00000000 0.00000000
0.53583455 0.00000000 0.00000000
0.57623923 0.00000000 0.00000000
0.61652929 0.00000000 0.00000000
0.65653372 0.00000000 0.00000000
0.69608134 0.00000000 0.00000000
0.73500115 0.00000000 0.00000000
0.77312207 0.00000000 0.00000000
0.81027293 0.00000000 0.00000000
0.84628278 0.00000000 0.00000000
0.88098049 0.00000000 0.00000000
0.91419494 0.00000000 0.00000000
0.94575512 0.00000000 0.00000000
0.01883060 0.06487805 0.06487805
0.00467063 0.03241385 0.03241385
0.00000000 0.00528646 0.00528646
0.01272552 0.00000000 0.00000000
0.03159780 0.00000000 0.00000000
0.05309898 0.00000000 0.00000000
0.07705799 0.00000000 0.00000000
0.10330376 0.00000000 0.00000000
0.13166521 0.00000000 0.00000000
0.16197126 0.00000000 0.00000000
0.19405083 0.00000000 0.00000000
0.22773287 0.00000000 0.00000000
0.26284626 0.00000000 0.00000000
0.29921997 0.00000000 0.00000000
0.33668289 0.00000000 0.00000000
0.37506396 0.00000000 0.00000000
0.41419208 0.00000000 0.00000000
0.45389619 0.00000000 0.00000000
0.49400523 0.00000000 0.00000000
0.53434813 0.00000000 0.00000000
0.57475376 0.00000000 0.00000000
0.61505109 0.00000000 0.00000000
0.65506899 0.00000000 0.00000000
0.69463652 0.00000000 0.00000000
0.73358244 0.00000000 0.00000000
0.77173573 0.00000000 0.00000000
0.80892539 0.00000000 0.00000000
0.84498018 0.00000000 0.00000000
0.87972921 0.00000000 0.00000000
0.91300130 0.00000000 0.00000000
0.94462538 0.00000000 0.00000000
0.97443038 0.00000000 0.00000000
1.00000000 0.00000000 0.00125293
0.00000000 0.00618344 0.00618344
0.01208357 0.00000000 0.00000000
0.03085587 0.00000000 0.00000000
0.05226337 0.00000000 0.00000000
0.07613499 0.00000000 0.00000000
0.10229967 0.00000000 0.00000000
0.13058631 0.00000000 0.00000000
0.16082385 0.00000000 0.00000000
0.19284122 0.00000000 0.00000000
0.22646731 0.00000000 0.00000000
0.26153108 0.00000000 0.00000000
0.29786146 0.00000000 0.00000000
0.33528733 0.00000000 0.00000000
0.37363765 0.00000000 0.00000000
0.41274133 0.00000000 0.00000000
0.45242730 0.00000000 0.00000000
0.49252445 0.00000000 0.00000000
0.53286177 0.00000000 0.00000000
0.57326812 0.00000000 0.00000000
0.61357248 0.00000000 0.00000000
0.65360373 0.00000000 0.00000000
0.69319081 0.00000000 0.00000000
0.73216265 0.00000000 0.00000000
0.77034813 0.00000000 0.00000000
0.80757624 0.00000000 0.00000000
0.84367585 0.00000000 0.00000000
0.87847596 0.00000000 0.00000000
0.91180539 0.00000000 0.00000000
0.94349313 0.00000000 0.00000000
0.97336811 0.00000000 0.00000000
1.00000000 0.00000000 0.00070092
1.00000000 0.00000000 0.01610174
1.00000000 0.00000000 0.03229971
0.03011751 0.00000000 0.00000000
0.05143110 0.00000000 0.00000000
0.07521510 0.00000000 0.00000000
0.10129844 0.00000000 0.00000000
0.12951006 0.00000000 0.00000000
0.15967885 0.00000000 0.00000000
0.19163376 0.00000000 0.00000000
0.22520372 0.00000000 0.00000000
0.26021764 0.00000000 0.00000000
0.29650444 0.00000000 0.00000000
0.33389303 0.00000000 0.00000000
0.37221238 0.00000000 0.00000000
0.41129136 0.00000000 0.00000000
0.45095894 0.00000000 0.00000000
0.49104401 0.00000000 0.00000000
0.53137553 0.00000000 0.00000000
0.57178235 0.00000000 0.00000000
0.61209351 0.00000000 0.00000000
0.65213782 0.00000000 0.00000000
0.69174427 0.00000000 0.00000000
0.73074174 0.00000000 0.00000000
0.76895922 0.00000000 0.00000000
0.80622560 0.00000000 0.00000000
0.84236974 0.00000000 0.00000000
0.87722069 0.00000000 0.00000000
0.91060728 0.00000000 0.00000000
0.94235843 0.00000000 0.00000000
0.97230309 0.00000000 0.00000000
1.00000000 0.00000000 0.00015004
1.00000000 0.00000000 0.01552079
1.00000000 0.00000000 0.03169013
1.00000000 0.00000000 0.04861890
1.00000000 0.00000000 0.06626793
0.07429831 0.00000000 0.00000000
0.10030010 0.00000000 0.00000000
0.12843645 0.00000000 0.00000000
0.15853627 0.00000000 0.00000000
0.19042851 0.00000000 0.00000000
0.22394207 0.00000000 0.00000000
0.25890589 0.00000000 0.00000000
0.29514888 0.00000000 0.00000000
0.33249998 0.00000000 0.00000000
0.37078813 0.00000000 0.00000000
0.40984219 0.00000000 0.00000000
0.44949114 0.00000000 0.00000000
0.48956388 0.00000000 0.00000000
0.52988935 0.00000000 0.00000000
0.57029647 0.00000000 0.00000000
0.61061418 0.00000000 0.00000000
0.65067130 0.00000000 0.00000000
0.69029695 0.00000000 0.00000000
0.72931987 0.00000000 0.00000000
0.76756907 0.00000000 0.00000000
0.80487341 0.00000000 0.00000000
0.84106189 0.00000000 0.00000000
0.87596345 0.00000000 0.00000000
0.90940690 0.00000000 0.00000000
0.94122130 0.00000000 0.00000000
0.97123545 0.00000000 0.00000000
0.99927837 0.00000000 0.00000000
1.00000000 0.00000000 0.01494093
1.00000000 0.00000000 0.03108158
1.00000000 0.00000000 0.04798310
1.00000000 0.00000000 0.06560633
1.00000000 0.00000000 0.08391212
1.00000000 0.00000000 0.10286131
0.12736548 0.00000000 0.00000000
0.15739611 0.00000000 0.00000000
0.18922544 0.00000000 0.00000000
0.22268239 0.00000000 0.00000000
0.25759590 0.00000000 0.00000000
0.29379487 0.00000000 0.00000000
0.33110821 0.00000000 0.00000000
0.36936492 0.00000000 0.00000000
0.40839383 0.00000000 0.00000000
0.44802395 0.00000000 0.00000000
0.48808411 0.00000000 0.00000000
0.52840334 0.00000000 0.00000000
0.56881046 0.00000000 0.00000000
0.60913450 0.00000000 0.00000000
0.64920425 0.00000000 0.00000000
0.68884873 0.00000000 0.00000000
0.72789687 0.00000000 0.00000000
0.76617759 0.00000000 0.00000000
0.80351973 0.00000000 0.00000000
0.83975232 0.00000000 0.00000000
0.87470424 0.00000000 0.00000000
0.90820438 0.00000000 0.00000000
0.94008172 0.00000000 0.00000000
0.97016513 0.00000000 0.00000000
0.99828357 0.00000000 0.00000000
1.00000000 0.00000000 0.01436214
1.00000000 0.00000000 0.03047405
1.00000000 0.00000000 0.04734828
1.00000000 0.00000000 0.06494565
1.00000000 0.00000000 0.08322702
1.00000000 0.00000000 0.10215323
1.00000000 0.00000000 0.12168512
1.00000000 0.00000000 0.14178355
0.18802458 0.00000000 0.00000000
0.22142467 0.00000000 0.00000000
0.25628760 0.00000000 0.00000000
0.29244232 0.00000000 0.00000000
0.32971773 0.00000000 0.00000000
0.36794275 0.00000000 0.00000000
0.40694630 0.00000000 0.00000000
0.44655731 0.00000000 0.00000000
0.48660469 0.00000000 0.00000000
0.52691740 0.00000000 0.00000000
0.56732434 0.00000000 0.00000000
0.60765445 0.00000000 0.00000000
0.64773661 0.00000000 0.00000000
0.68739980 0.00000000 0.00000000
0.72647285 0.00000000 0.00000000
0.76478481 0.00000000 0.00000000
0.80216455 0.00000000 0.00000000
0.83844101 0.00000000 0.00000000
0.87344307 0.00000000 0.00000000
0.90699965 0.00000000 0.00000000
0.93893969 0.00000000 0.00000000
0.96909213 0.00000000 0.00000000
0.99728590 0.00000000 0.00000000
1.00000000 0.00000000 0.01378444
1.00000000 0.00000000 0.02986756
1.00000000 0.00000000 0.04671443
1.00000000 0.00000000 0.06428590
1.00000000 0.00000000 0.08254280
1.00000000 0.00000000 0.10144598
1.00000000 0.00000000 0.12095629
1.00000000 0.00000000 0.14103456
1.00000000 0.00000000 0.16164164
1.00000000 0.00000000 0.18273838
0.25498110 0.00000000 0.00000000
0.29109132 0.00000000 0.00000000
0.32832852 0.00000000 0.00000000
0.36652163 0.00000000 0.00000000
0.40549958 0.00000000 0.00000000
0.44509125 0.00000000 0.00000000
0.48512563 0.00000000 0.00000000
0.52543163 0.00000000 0.00000000
0.56583810 0.00000000 0.00000000
0.60617405 0.00000000 0.00000000
0.64626837 0.00000000 0.00000000
0.68594998 0.00000000 0.00000000
0.72504783 0.00000000 0.00000000
0.76339084 0.00000000 0.00000000
0.80080789 0.00000000 0.00000000
0.83712792 0.00000000 0.00000000
0.87217993 0.00000000 0.00000000
0.90579271 0.00000000 0.00000000
0.93779528 0.00000000 0.00000000
0.96801651 0.00000000 0.00000000
0.99628538 0.00000000 0.00000000
1.00000000 0.00000000 0.01320783
1.00000000 0.00000000 0.02926210
1.00000000 0.00000000 0.04608157
1.00000000 0.00000000 0.06362707
1.00000000 0.00000000 0.08185945
1.00000000 0.00000000 0.10073955
1.00000000 0.00000000 0.12022821
1.00000000 0.00000000 0.14028628
1.00000000 0.00000000 0.16087461
1.00000000 0.00000000 0.18195403
1.00000000 0.00000000 0.20348537
1.00000000 0.00000000 0.22542951
0.32694060 0.00000000 0.00000000
0.36510158 0.00000000 0.00000000
0.40405369 0.00000000 0.00000000
0.44362581 0.00000000 0.00000000
0.48364693 0.00000000 0.00000000
0.52394593 0.00000000 0.00000000
0.56435180 0.00000000 0.00000000
0.60469335 0.00000000 0.00000000
0.64479959 0.00000000 0.00000000
0.68449944 0.00000000 0.00000000
0.72362179 0.00000000 0.00000000
0.76199555 0.00000000 0.00000000
0.79944974 0.00000000 0.00000000
0.83581316 0.00000000 0.00000000
0.87091482 0.00000000 0.00000000
0.90458357 0.00000000 0.00000000
0.93664843 0.00000000 0.00000000
0.96693826 0.00000000 0.00000000
0.99528199 0.00000000 0.00000000
1.00000000 0.00000000 0.01263230
1.00000000 0.00000000 0.02865768
1.00000000 0.00000000 0.04544969
1.00000000 0.00000000 0.06296917
1.00000000 0.00000000 0.08117697
1.00000000 0.00000000 0.10003394
1.00000000 0.00000000 0.11950091
1.00000000 0.00000000 0.13953872
1.00000000 0.00000000 0.16010824
1.00000000 0.00000000 0.18117027
1.00000000 0.00000000 0.20268570
1.00000000 0.00000000 0.22461534
1.00000000 0.00000000 0.24692005
1.00000000 0.00000000 0.26956066
0.40260863 0.00000000 0.00000000
0.44216099 0.00000000 0.00000000
0.48216861 0.00000000 0.00000000
0.52246046 0.00000000 0.00000000
0.56286538 0.00000000 0.00000000
0.60321236 0.00000000 0.00000000
0.64333028 0.00000000 0.00000000
0.68304807 0.00000000 0.00000000
0.72219473 0.00000000 0.00000000
0.76059908 0.00000000 0.00000000
0.79809010 0.00000000 0.00000000
0.83449668 0.00000000 0.00000000
0.86964780 0.00000000 0.00000000
0.90337229 0.00000000 0.00000000
0.93549919 0.00000000 0.00000000
0.96585733 0.00000000 0.00000000
0.99427569 0.00000000 0.00000000
1.00000000 0.00000000 0.01205787
1.00000000 0.00000000 0.02805430
1.00000000 0.00000000 0.04481879
1.00000000 0.00000000 0.06231221
1.00000000 0.00000000 0.08049538
1.00000000 0.00000000 0.09932916
1.00000000 0.00000000 0.11877438
1.00000000 0.00000000 0.13879189
1.00000000 0.00000000 0.15934253
1.00000000 0.00000000 0.18038714
1.00000000 0.00000000 0.20188658
1.00000000 0.00000000 0.22380167
1.00000000 0.00000000 0.24609329
1.00000000 0.00000000 0.26872224
1.00000000 0.00000000 0.29164937
1.00000000 0.00000000 0.31483555
0.48069069 0.00000000 0.00000000
0.52097505 0.00000000 0.00000000
0.56137890 0.00000000 0.00000000
0.60173100 0.00000000 0.00000000
0.64186043 0.00000000 0.00000000
0.68159598 0.00000000 0.00000000
0.72076666 0.00000000 0.00000000
0.75920135 0.00000000 0.00000000
0.79672897 0.00000000 0.00000000
0.83317852 0.00000000 0.00000000
0.86837882 0.00000000 0.00000000
0.90215886 0.00000000 0.00000000
0.93434757 0.00000000 0.00000000
0.96477383 0.00000000 0.00000000
0.99326652 0.00000000 0.00000000
1.00000000 0.00000000 0.01148452
1.00000000 0.00000000 0.02745195
1.00000000 0.00000000 0.04418889
1.00000000 0.00000000 0.06165618
1.00000000 0.00000000 0.07981467
1.00000000 0.00000000 0.09862521
1.00000000 0.00000000 0.11804862
1.00000000 0.00000000 0.13804577
1.00000000 0.00000000 0.15857749
1.00000000 0.00000000 0.17960463
1.00000000 0.00000000 0.20108803
1.00000000 0.00000000 0.22298853
1.00000000 0.00000000 0.24526697
1.00000000 0.00000000 0.26788419
1.00000000 0.00000000 0.29080108
1.00000000 0.00000000 0.31397843
1.00000000 0.00000000 0.33737707
1.00000000 0.00000000 0.36095792
0.55989230 0.00000000 0.00000000
0.60024941 0.00000000 0.00000000
0.64039004 0.00000000 0.00000000
0.68014312 0.00000000 0.00000000
0.71933758 0.00000000 0.00000000
0.75780237 0.00000000 0.00000000
0.79536641 0.00000000 0.00000000
0.83185863 0.00000000 0.00000000
0.86710793 0.00000000 0.00000000
0.90094328 0.00000000 0.00000000
0.93319356 0.00000000 0.00000000
0.96368766 0.00000000 0.00000000
0.99225456 0.00000000 0.00000000
1.00000000 0.00000000 0.01091228
1.00000000 0.00000000 0.02685064
1.00000000 0.00000000 0.04355996
1.00000000 0.00000000 0.06100108
1.00000000 0.00000000 0.07913484
1.00000000 0.00000000 0.09792208
1.00000000 0.00000000 0.11732364
1.00000000 0.00000000 0.13730037
1.00000000 0.00000000 0.15781313
1.00000000 0.00000000 0.17882273
1.00000000 0.00000000 0.20029004
1.00000000 0.00000000 0.22217588
1.00000000 0.00000000 0.24444112
1.00000000 0.00000000 0.26704660
1.00000000 0.00000000 0.28995311
1.00000000 0.00000000 0.31312159
1.00000000 0.00000000 0.33651280
1.00000000 0.00000000 0.36008760
1.00000000 0.00000000 0.38380688
