Spangled_X/Spangled X (Gradient Map Only).cube
# VEGAS Pro LUT
TITLE "Spangled X (Gradient Map Only)"
LUT_3D_SIZE 9
1.00000000 1.00000000 1.00000000
0.90035814 0.91443723 0.91443723
0.70371830 0.74866867 0.74866867
0.46275032 0.53831512 0.53831512
0.23012389 0.31899735 0.31899735
0.05850885 0.12633610 0.12633610
0.00280916 0.00000000 0.00000000
0.08741339 0.00000000 0.00000000
0.20749798 0.00000000 0.00000000
0.71206045 0.75577527 0.75577527
0.47179008 0.54643083 0.54643083
0.23792358 0.32681170 0.32681170
0.06313076 0.13253866 0.13253866
0.00051506 0.00000000 0.00000000
0.08360517 0.00000000 0.00000000
0.20257846 0.00000000 0.00000000
0.34648603 0.00000000 0.00000000
0.50437903 0.00000000 0.00000000
0.24580321 0.33466038 0.33466038
0.06790391 0.13882373 0.13882373
0.00000000 0.00264347 0.00264347
0.07984553 0.00000000 0.00000000
0.19769269 0.00000000 0.00000000
0.34087694 0.00000000 0.00000000
0.49844941 0.00000000 0.00000000
0.65946120 0.00000000 0.00000000
0.81296349 0.00000000 0.00000000
0.00000000 0.00618344 0.00618344
0.07613499 0.00000000 0.00000000
0.19284122 0.00000000 0.00000000
0.33528733 0.00000000 0.00000000
0.49252445 0.00000000 0.00000000
0.65360373 0.00000000 0.00000000
0.80757624 0.00000000 0.00000000
0.94349313 0.00000000 0.00000000
1.00000000 0.00000000 0.03229971
0.18802458 0.00000000 0.00000000
0.32971773 0.00000000 0.00000000
0.48660469 0.00000000 0.00000000
0.64773661 0.00000000 0.00000000
0.80216455 0.00000000 0.00000000
0.93893969 0.00000000 0.00000000
1.00000000 0.00000000 0.02986756
1.00000000 0.00000000 0.10144598
1.00000000 0.00000000 0.18273838
0.48069069 0.00000000 0.00000000
0.64186043 0.00000000 0.00000000
0.79672897 0.00000000 0.00000000
0.93434757 0.00000000 0.00000000
1.00000000 0.00000000 0.02745195
1.00000000 0.00000000 0.09862521
1.00000000 0.00000000 0.17960463
1.00000000 0.00000000 0.26788419
1.00000000 0.00000000 0.36095792
0.79127008 0.00000000 0.00000000
0.92971724 0.00000000 0.00000000
1.00000000 0.00000000 0.02505300
1.00000000 0.00000000 0.09581770
1.00000000 0.00000000 0.17648077
1.00000000 0.00000000 0.26453617
1.00000000 0.00000000 0.35747790
1.00000000 0.00000000 0.45279995
1.00000000 0.00000000 0.54799628
1.00000000 0.00000000 0.02267084
1.00000000 0.00000000 0.09302359
1.00000000 0.00000000 0.17336690
1.00000000 0.00000000 0.26119477
1.00000000 0.00000000 0.35400113
1.00000000 0.00000000 0.44927999
1.00000000 0.00000000 0.54452533
1.00000000 0.00000000 0.63723111
1.00000000 0.00000000 0.72489136
1.00000000 0.00000000 0.17026317
1.00000000 0.00000000 0.25786009
1.00000000 0.00000000 0.35052770
1.00000000 0.00000000 0.44576001
1.00000000 0.00000000 0.54105097
1.00000000 0.00000000 0.63389462
1.00000000 0.00000000 0.72178483
1.00000000 0.00000000 0.80221570
1.00000000 0.00000000 0.87268114
0.97680265 0.97910488 0.97910488
0.83396578 0.85876042 0.85876042
0.61421245 0.67179137 0.67179137
0.37021235 0.45381850 0.45381850
0.15463530 0.24046256 0.24046256
0.02015107 0.06734429 0.06734429
0.03018449 0.00000000 0.00000000
0.12960778 0.00000000 0.00000000
0.26033697 0.00000000 0.00000000
0.62304914 0.67943728 0.67943728
0.37900785 0.46197388 0.46197388
0.16145194 0.24781695 0.24781695
0.02305117 0.07258725 0.07258725
0.02726559 0.00000000 0.00000000
0.12532835 0.00000000 0.00000000
0.25509980 0.00000000 0.00000000
0.40563107 0.00000000 0.00000000
0.56597322 0.00000000 0.00000000
0.16837572 0.25522405 0.25522405
0.02612968 0.07793111 0.07793111
0.02440443 0.00000000 0.00000000
0.12109184 0.00000000 0.00000000
0.24989074 0.00000000 0.00000000
0.39985225 0.00000000 0.00000000
0.56002748 0.00000000 0.00000000
0.71946752 0.00000000 0.00000000
0.86722356 0.00000000 0.00000000
0.02160154 0.00000000 0.00000000
0.11689878 0.00000000 0.00000000
0.24471031 0.00000000 0.00000000
0.39408726 0.00000000 0.00000000
0.55408072 0.00000000 0.00000000
0.71374184 0.00000000 0.00000000
0.86212170 0.00000000 0.00000000
0.98827142 0.00000000 0.00000000
1.00000000 0.00000000 0.05844926
0.23955908 0.00000000 0.00000000
0.38833663 0.00000000 0.00000000
0.54813349 0.00000000 0.00000000
0.70800084 0.00000000 0.00000000
0.85698974 0.00000000 0.00000000
0.98415130 0.00000000 0.00000000
1.00000000 0.00000000 0.05585306
1.00000000 0.00000000 0.13143072
1.00000000 0.00000000 0.21576689
0.54218644 0.00000000 0.00000000
0.70224512 0.00000000 0.00000000
0.85182822 0.00000000 0.00000000
0.97998679 0.00000000 0.00000000
1.00000000 0.00000000 0.05327209
1.00000000 0.00000000 0.12847975
1.00000000 0.00000000 0.21253809
1.00000000 0.00000000 0.30294111
1.00000000 0.00000000 0.39718282
0.84663773 0.00000000 0.00000000
0.97577846 0.00000000 0.00000000
1.00000000 0.00000000 0.05070650
1.00000000 0.00000000 0.12554075
1.00000000 0.00000000 0.20931789
1.00000000 0.00000000 0.29953191
1.00000000 0.00000000 0.39367676
1.00000000 0.00000000 0.48924646
1.00000000 0.00000000 0.58373493
1.00000000 0.00000000 0.04815640
1.00000000 0.00000000 0.12261385
1.00000000 0.00000000 0.20610639
1.00000000 0.00000000 0.29612800
1.00000000 0.00000000 0.39017266
1.00000000 0.00000000 0.48573431
1.00000000 0.00000000 0.58030701
1.00000000 0.00000000 0.67138463
1.00000000 0.00000000 0.75646126
1.00000000 0.00000000 0.20290373
1.00000000 0.00000000 0.29272956
1.00000000 0.00000000 0.38667059
1.00000000 0.00000000 0.48222086
1.00000000 0.00000000 0.57687432
1.00000000 0.00000000 0.66812497
1.00000000 0.00000000 0.75346673
1.00000000 0.00000000 0.83039367
1.00000000 0.00000000 0.89639968
0.93476766 0.94334656 0.94334656
0.75639230 0.79339856 0.79339856
0.52118188 0.59040713 0.59040713
0.28180617 0.36999303 0.36999303
0.09093496 0.16777700 0.16777700
0.00123803 0.01937984 0.01937984
0.06370229 0.00000000 0.00000000
0.17635304 0.00000000 0.00000000
0.31613520 0.00000000 0.00000000
0.53023142 0.59840184 0.59840184
0.29007575 0.37799761 0.37799761
0.09648690 0.17448094 0.17448094
0.00213463 0.02347270 0.02347270
0.06021715 0.00000000 0.00000000
0.17166094 0.00000000 0.00000000
0.31063893 0.00000000 0.00000000
0.46620226 0.00000000 0.00000000
0.62740201 0.00000000 0.00000000
0.10217313 0.18125595 0.18125595
0.00323683 0.02768484 0.02768484
0.05678409 0.00000000 0.00000000
0.16700612 0.00000000 0.00000000
0.30516514 0.00000000 0.00000000
0.46031228 0.00000000 0.00000000
0.62149864 0.00000000 0.00000000
0.77777535 0.00000000 0.00000000
0.91819358 0.00000000 0.00000000
0.05340366 0.00000000 0.00000000
0.16238910 0.00000000 0.00000000
0.29971433 0.00000000 0.00000000
0.45443049 0.00000000 0.00000000
0.61558867 0.00000000 0.00000000
0.77223998 0.00000000 0.00000000
0.91343564 0.00000000 0.00000000
1.00000000 0.00000000 0.01689569
1.00000000 0.00000000 0.08622292
0.29428706 0.00000000 0.00000000
0.44855741 0.00000000 0.00000000
0.60967261 0.00000000 0.00000000
0.76668370 0.00000000 0.00000000
0.90864193 0.00000000 0.00000000
1.00000000 0.00000000 0.01457248
1.00000000 0.00000000 0.08347604
1.00000000 0.00000000 0.16268866
1.00000000 0.00000000 0.24970432
0.60375094 0.00000000 0.00000000
0.76110703 0.00000000 0.00000000
0.90381300 0.00000000 0.00000000
1.00000000 0.00000000 0.01226662
1.00000000 0.00000000 0.08074313
1.00000000 0.00000000 0.15962090
1.00000000 0.00000000 0.24639387
1.00000000 0.00000000 0.33855605
1.00000000 0.00000000 0.43360141
0.89894950 0.00000000 0.00000000
1.00000000 0.00000000 0.00997824
1.00000000 0.00000000 0.07802430
1.00000000 0.00000000 0.15656380
1.00000000 0.00000000 0.24309072
1.00000000 0.00000000 0.33509904
1.00000000 0.00000000 0.43008274
1.00000000 0.00000000 0.52553582
1.00000000 0.00000000 0.61895221
1.00000000 0.00000000 0.07531966
1.00000000 0.00000000 0.15351751
1.00000000 0.00000000 0.23979500
1.00000000 0.00000000 0.33164605
1.00000000 0.00000000 0.42656469
1.00000000 0.00000000 0.52204490
1.00000000 0.00000000 0.61558062
1.00000000 0.00000000 0.70466584
1.00000000 0.00000000 0.78679454
1.00000000 0.00000000 0.23650680
1.00000000 0.00000000 0.32819724
1.00000000 0.00000000 0.42304742
1.00000000 0.00000000 0.51855135
1.00000000 0.00000000 0.61220300
1.00000000 0.00000000 0.70149636
1.00000000 0.00000000 0.78392541
1.00000000 0.00000000 0.85698408
1.00000000 0.00000000 0.91816640
0.87681419 0.89469939 0.89469939
0.67055678 0.72032595 0.72032595
0.42754579 0.50649023 0.50649023
0.20045097 0.28881297 0.28881297
0.04194208 0.10291497 0.10291497
0.01237490 0.00000000 0.00000000
0.10275572 0.00000000 0.00000000
0.22704233 0.00000000 0.00000000
0.37428585 0.00000000 0.00000000
0.43652651 0.51464325 0.51464325
0.20791294 0.29647622 0.29647622
0.04594762 0.10877796 0.10877796
0.00983825 0.00000000 0.00000000
0.09876289 0.00000000 0.00000000
0.22199611 0.00000000 0.00000000
0.36858904 0.00000000 0.00000000
0.52759278 0.00000000 0.00000000
0.68805850 0.00000000 0.00000000
0.05011465 0.11473039 0.11473039
0.00736285 0.00000000 0.00000000
0.09481649 0.00000000 0.00000000
0.21698153 0.00000000 0.00000000
0.36290905 0.00000000 0.00000000
0.52165020 0.00000000 0.00000000
0.68225610 0.00000000 0.00000000
0.83377790 0.00000000 0.00000000
0.96526664 0.00000000 0.00000000
0.09091708 0.00000000 0.00000000
0.21199909 0.00000000 0.00000000
0.35724643 0.00000000 0.00000000
0.51571018 0.00000000 0.00000000
0.67644143 0.00000000 0.00000000
0.82849139 0.00000000 0.00000000
0.96091115 0.00000000 0.00000000
1.00000000 0.00000000 0.04196355
1.00000000 0.00000000 0.11548176
0.35160166 0.00000000 0.00000000
0.50977319 0.00000000 0.00000000
0.67061502 0.00000000 0.00000000
0.82317835 0.00000000 0.00000000
0.95651430 0.00000000 0.00000000
1.00000000 0.00000000 0.03946794
1.00000000 0.00000000 0.11259764
1.00000000 0.00000000 0.19508092
1.00000000 0.00000000 0.28441176
0.66477740 0.00000000 0.00000000
0.81783932 0.00000000 0.00000000
0.95207655 0.00000000 0.00000000
1.00000000 0.00000000 0.03698839
1.00000000 0.00000000 0.10972618
1.00000000 0.00000000 0.19190975
1.00000000 0.00000000 0.28103307
1.00000000 0.00000000 0.37459010
1.00000000 0.00000000 0.47007486
0.94759858 0.00000000 0.00000000
1.00000000 0.00000000 0.03452501
1.00000000 0.00000000 0.10686750
1.00000000 0.00000000 0.18874796
1.00000000 0.00000000 0.27766037
1.00000000 0.00000000 0.37109870
1.00000000 0.00000000 0.46655694
1.00000000 0.00000000 0.56152910
1.00000000 0.00000000 0.65350908
1.00000000 0.00000000 0.10402174
1.00000000 0.00000000 0.18559571
1.00000000 0.00000000 0.27429381
1.00000000 0.00000000 0.36761004
1.00000000 0.00000000 0.46303838
1.00000000 0.00000000 0.55807281
1.00000000 0.00000000 0.65020722
1.00000000 0.00000000 0.73693573
1.00000000 0.00000000 0.81575227
1.00000000 0.00000000 0.27093351
1.00000000 0.00000000 0.36412424
1.00000000 0.00000000 0.45951927
1.00000000 0.00000000 0.55461258
1.00000000 0.00000000 0.64689815
1.00000000 0.00000000 0.73386991
1.00000000 0.00000000 0.81302190
1.00000000 0.00000000 0.88184804
1.00000000 0.00000000 0.93784237
0.80586153 0.83513755 0.83513755
0.57937855 0.64151675 0.64151675
0.33622342 0.42201483 0.42201483
0.12906593 0.21225257 0.21225257
0.01057584 0.04785072 0.04785072
0.04213840 0.00000000 0.00000000
0.14673795 0.00000000 0.00000000
0.28106880 0.00000000 0.00000000
0.43418205 0.00000000 0.00000000
0.34485364 0.43013570 0.43013570
0.13543862 0.21938400 0.21938400
0.01275332 0.05268224 0.05268224
0.03899904 0.00000000 0.00000000
0.14229599 0.00000000 0.00000000
0.27572703 0.00000000 0.00000000
0.42834330 0.00000000 0.00000000
0.58919591 0.00000000 0.00000000
0.74733591 0.00000000 0.00000000
0.01511946 0.05762160 0.05762160
0.03591529 0.00000000 0.00000000
0.13789481 0.00000000 0.00000000
0.27041122 0.00000000 0.00000000
0.42251566 0.00000000 0.00000000
0.58325922 0.00000000 0.00000000
0.74169308 0.00000000 0.00000000
0.88686830 0.00000000 0.00000000
1.00000000 0.00000000 0.00443613
0.13353495 0.00000000 0.00000000
0.26512194 0.00000000 0.00000000
0.41669974 0.00000000 0.00000000
0.57731950 0.00000000 0.00000000
0.73603225 0.00000000 0.00000000
0.88188922 0.00000000 0.00000000
1.00000000 0.00000000 0.00220905
1.00000000 0.00000000 0.06874201
1.00000000 0.00000000 0.14608692
0.41089606 0.00000000 0.00000000
0.57137716 0.00000000 0.00000000
0.73035407 0.00000000 0.00000000
0.87687796 0.00000000 0.00000000
1.00000000 0.00000000 0.00000000
1.00000000 0.00000000 0.06608740
1.00000000 0.00000000 0.14307894
1.00000000 0.00000000 0.22846858
1.00000000 0.00000000 0.31975031
0.72465903 0.00000000 0.00000000
0.87183505 0.00000000 0.00000000
0.99601203 0.00000000 0.00000000
1.00000000 0.00000000 0.06344755
1.00000000 0.00000000 0.14008233
1.00000000 0.00000000 0.22520742
1.00000000 0.00000000 0.31631678
1.00000000 0.00000000 0.41090438
1.00000000 0.00000000 0.50646424
0.99197805 0.00000000 0.00000000
1.00000000 0.00000000 0.06082258
1.00000000 0.00000000 0.13709721
1.00000000 0.00000000 0.22195435
1.00000000 0.00000000 0.31288794
1.00000000 0.00000000 0.40739200
1.00000000 0.00000000 0.50296050
1.00000000 0.00000000 0.59708738
1.00000000 0.00000000 0.68726665
1.00000000 0.00000000 0.13412371
1.00000000 0.00000000 0.21870950
1.00000000 0.00000000 0.30946395
1.00000000 0.00000000 0.40388107
1.00000000 0.00000000 0.49945480
1.00000000 0.00000000 0.59367913
1.00000000 0.00000000 0.68404806
1.00000000 0.00000000 0.76805550
1.00000000 0.00000000 0.84319550
1.00000000 0.00000000 0.30604494
1.00000000 0.00000000 0.40037170
1.00000000 0.00000000 0.49594727
1.00000000 0.00000000 0.59026563
1.00000000 0.00000000 0.68082082
1.00000000 0.00000000 0.76510668
1.00000000 0.00000000 0.84061736
1.00000000 0.00000000 0.90484673
1.00000000 0.00000000 0.95528877
0.72482878 0.76663536 0.76663536
0.48577672 0.55894530 0.55894530
0.25013393 0.33895528 0.33895528
0.07057026 0.14228611 0.14228611
0.00000000 0.00455849 0.00455849
0.07781548 0.00000000 0.00000000
0.19504215 0.00000000 0.00000000
0.33782563 0.00000000 0.00000000
0.49521703 0.00000000 0.00000000
0.25813198 0.34685349 0.34685349
0.07557199 0.14869522 0.14869522
0.00000000 0.00816806 0.00816806
0.07413197 0.00000000 0.00000000
0.19020960 0.00000000 0.00000000
0.33224684 0.00000000 0.00000000
0.48929483 0.00000000 0.00000000
0.65040463 0.00000000 0.00000000
0.80462742 0.00000000 0.00000000
0.00010675 0.01190384 0.01190384
0.07049840 0.00000000 0.00000000
0.18541220 0.00000000 0.00000000
0.32668841 0.00000000 0.00000000
0.48337811 0.00000000 0.00000000
0.64453250 0.00000000 0.00000000
0.79920262 0.00000000 0.00000000
0.93643963 0.00000000 0.00000000
1.00000000 0.00000000 0.02854790
0.18065047 0.00000000 0.00000000
0.32115081 0.00000000 0.00000000
0.47746748 0.00000000 0.00000000
0.63865161 0.00000000 0.00000000
0.79375428 0.00000000 0.00000000
0.93182665 0.00000000 0.00000000
1.00000000 0.00000000 0.02614136
1.00000000 0.00000000 0.09709218
1.00000000 0.00000000 0.17789946
0.47156340 0.00000000 0.00000000
0.63276243 0.00000000 0.00000000
0.78828287 0.00000000 0.00000000
0.92717576 0.00000000 0.00000000
1.00000000 0.00000000 0.02375155
1.00000000 0.00000000 0.09429197
1.00000000 0.00000000 0.17478105
1.00000000 0.00000000 0.26271275
1.00000000 0.00000000 0.35558107
0.78278893 0.00000000 0.00000000
0.92248750 0.00000000 0.00000000
1.00000000 0.00000000 0.02137860
1.00000000 0.00000000 0.09150522
1.00000000 0.00000000 0.17167270
1.00000000 0.00000000 0.25937501
1.00000000 0.00000000 0.35210609
1.00000000 0.00000000 0.44736001
1.00000000 0.00000000 0.54263067
1.00000000 0.00000000 0.01902263
1.00000000 0.00000000 0.08873207
1.00000000 0.00000000 0.16857454
1.00000000 0.00000000 0.25604406
1.00000000 0.00000000 0.34863454
1.00000000 0.00000000 0.44384003
1.00000000 0.00000000 0.53915447
1.00000000 0.00000000 0.63207185
1.00000000 0.00000000 0.72008616
1.00000000 0.00000000 0.16548672
1.00000000 0.00000000 0.25272003
1.00000000 0.00000000 0.34516653
1.00000000 0.00000000 0.44032022
1.00000000 0.00000000 0.53567505
1.00000000 0.00000000 0.62872499
1.00000000 0.00000000 0.71696407
1.00000000 0.00000000 0.79788625
1.00000000 0.00000000 0.86898547
1.00000000 0.00000000 0.34170219
1.00000000 0.00000000 0.43680066
1.00000000 0.00000000 0.53219253
1.00000000 0.00000000 0.62537163
1.00000000 0.00000000 0.71383214
1.00000000 0.00000000 0.79506785
1.00000000 0.00000000 0.86657286
1.00000000 0.00000000 0.92584109
1.00000000 0.00000000 0.97036660
0.63663518 0.69116700 0.69116700
0.39267048 0.47458583 0.47458583
0.17219654 0.25928584 0.25928584
0.02788314 0.08088783 0.08088783
0.02286832 0.00000000 0.00000000
0.11879930 0.00000000 0.00000000
0.24706148 0.00000000 0.00000000
0.39670596 0.00000000 0.00000000
0.55678385 0.00000000 0.00000000
0.17928073 0.26677087 0.26677087
0.03123223 0.08638413 0.08638413
0.02009746 0.00000000 0.00000000
0.11463018 0.00000000 0.00000000
0.24189690 0.00000000 0.00000000
0.39094874 0.00000000 0.00000000
0.55083680 0.00000000 0.00000000
0.71061224 0.00000000 0.00000000
0.85932612 0.00000000 0.00000000
0.01738571 0.00000000 0.00000000
0.11050536 0.00000000 0.00000000
0.23676182 0.00000000 0.00000000
0.38520619 0.00000000 0.00000000
0.54488957 0.00000000 0.00000000
0.70486313 0.00000000 0.00000000
0.85417801 0.00000000 0.00000000
0.98188519 0.00000000 0.00000000
1.00000000 0.00000000 0.05444336
0.23165676 0.00000000 0.00000000
0.37947884 0.00000000 0.00000000
0.53894275 0.00000000 0.00000000
0.69909966 0.00000000 0.00000000
0.84900063 0.00000000 0.00000000
0.97769678 0.00000000 0.00000000
1.00000000 0.00000000 0.05187076
1.00000000 0.00000000 0.12687516
1.00000000 0.00000000 0.21078055
0.53299689 0.00000000 0.00000000
0.69332224 0.00000000 0.00000000
0.84379452 0.00000000 0.00000000
0.97346479 0.00000000 0.00000000
1.00000000 0.00000000 0.04931361
1.00000000 0.00000000 0.12394275
1.00000000 0.00000000 0.20756507
1.00000000 0.00000000 0.29767457
1.00000000 0.00000000 0.39176518
0.83856028 0.00000000 0.00000000
0.96918982 0.00000000 0.00000000
1.00000000 0.00000000 0.04677201
1.00000000 0.00000000 0.12102251
1.00000000 0.00000000 0.20435838
1.00000000 0.00000000 0.29427361
1.00000000 0.00000000 0.38826218
1.00000000 0.00000000 0.48381805
1.00000000 0.00000000 0.57843518
1.00000000 0.00000000 0.04424611
1.00000000 0.00000000 0.11811457
1.00000000 0.00000000 0.20116059
1.00000000 0.00000000 0.29087818
1.00000000 0.00000000 0.38476127
1.00000000 0.00000000 0.48030391
1.00000000 0.00000000 0.57499999
1.00000000 0.00000000 0.66634357
1.00000000 0.00000000 0.75182855
1.00000000 0.00000000 0.19797184
1.00000000 0.00000000 0.28748837
1.00000000 0.00000000 0.38126266
1.00000000 0.00000000 0.47678861
1.00000000 0.00000000 0.57156026
1.00000000 0.00000000 0.66307157
1.00000000 0.00000000 0.74881649
1.00000000 0.00000000 0.82628906
1.00000000 0.00000000 0.89298320
1.00000000 0.00000000 0.37776637
1.00000000 0.00000000 0.47327229
1.00000000 0.00000000 0.56811607
1.00000000 0.00000000 0.65979177
1.00000000 0.00000000 0.74579322
1.00000000 0.00000000 0.82361448
1.00000000 0.00000000 0.89074957
1.00000000 0.00000000 0.94469243
1.00000000 0.00000000 0.98293698
0.54419988 0.61070681 0.61070681
0.30297902 0.39041260 0.39041260
0.10533039 0.18498074 0.18498074
0.00392375 0.03003201 0.03003201
0.05493366 0.00000000 0.00000000
0.16448303 0.00000000 0.00000000
0.30218908 0.00000000 0.00000000
0.45710298 0.00000000 0.00000000
0.61827582 0.00000000 0.00000000
0.11121906 0.19186209 0.19186209
0.00533853 0.03442499 0.03442499
0.05158217 0.00000000 0.00000000
0.15988685 0.00000000 0.00000000
0.29675105 0.00000000 0.00000000
0.45122588 0.00000000 0.00000000
0.61236244 0.00000000 0.00000000
0.76921183 0.00000000 0.00000000
0.91082525 0.00000000 0.00000000
0.04828415 0.00000000 0.00000000
0.15532935 0.00000000 0.00000000
0.29133683 0.00000000 0.00000000
0.44535777 0.00000000 0.00000000
0.60644323 0.00000000 0.00000000
0.76364440 0.00000000 0.00000000
0.90601230 0.00000000 0.00000000
1.00000000 0.00000000 0.01331258
1.00000000 0.00000000 0.08198363
0.28594702 0.00000000 0.00000000
0.43949923 0.00000000 0.00000000
0.60051882 0.00000000 0.00000000
0.75805682 0.00000000 0.00000000
0.90116447 0.00000000 0.00000000
1.00000000 0.00000000 0.01101624
1.00000000 0.00000000 0.07925837
1.00000000 0.00000000 0.15795206
1.00000000 0.00000000 0.24459124
0.59458965 0.00000000 0.00000000
0.75244975 0.00000000 0.00000000
0.89628226 0.00000000 0.00000000
1.00000000 0.00000000 0.00873743
1.00000000 0.00000000 0.07654727
1.00000000 0.00000000 0.15490085
1.00000000 0.00000000 0.24129212
1.00000000 0.00000000 0.33321509
1.00000000 0.00000000 0.42816374
0.89136624 0.00000000 0.00000000
1.00000000 0.00000000 0.00647629
1.00000000 0.00000000 0.07385044
1.00000000 0.00000000 0.15186052
1.00000000 0.00000000 0.23800050
1.00000000 0.00000000 0.32976437
1.00000000 0.00000000 0.42464608
1.00000000 0.00000000 0.52013963
1.00000000 0.00000000 0.61373901
1.00000000 0.00000000 0.07116800
1.00000000 0.00000000 0.14883119
1.00000000 0.00000000 0.23471648
1.00000000 0.00000000 0.32631785
1.00000000 0.00000000 0.42112926
1.00000000 0.00000000 0.51664472
1.00000000 0.00000000 0.61035818
1.00000000 0.00000000 0.69976366
1.00000000 0.00000000 0.78235507
1.00000000 0.00000000 0.23144020
1.00000000 0.00000000 0.32287568
1.00000000 0.00000000 0.41761339
1.00000000 0.00000000 0.51314735
1.00000000 0.00000000 0.60697150
1.00000000 0.00000000 0.69657987
1.00000000 0.00000000 0.77946633
1.00000000 0.00000000 0.85312498
1.00000000 0.00000000 0.91504979
1.00000000 0.00000000 0.41409862
1.00000000 0.00000000 0.50964767
1.00000000 0.00000000 0.60357910
1.00000000 0.00000000 0.69338697
1.00000000 0.00000000 0.77656519
1.00000000 0.00000000 0.85060769
1.00000000 0.00000000 0.91300857
1.00000000 0.00000000 0.96126169
1.00000000 0.00000000 0.99286109
0.45044208 0.52722907 0.52722907
0.21962155 0.30839989 0.30839989
0.05245471 0.11801424 0.11801424
0.00603865 0.00000000 0.00000000
0.09268368 0.00000000 0.00000000
0.21425982 0.00000000 0.00000000
0.35981816 0.00000000 0.00000000
0.51840985 0.00000000 0.00000000
0.67908597 0.00000000 0.00000000
0.05686616 0.12410142 0.12410142
0.00365899 0.00000000 0.00000000
0.08881012 0.00000000 0.00000000
0.20929515 0.00000000 0.00000000
0.35416520 0.00000000 0.00000000
0.51247138 0.00000000 0.00000000
0.67326486 0.00000000 0.00000000
0.82559663 0.00000000 0.00000000
0.95851797 0.00000000 0.00000000
0.08498438 0.00000000 0.00000000
0.20436350 0.00000000 0.00000000
0.34853044 0.00000000 0.00000000
0.50653630 0.00000000 0.00000000
0.66743225 0.00000000 0.00000000
0.82026935 0.00000000 0.00000000
0.95409876 0.00000000 0.00000000
1.00000000 0.00000000 0.03811346
1.00000000 0.00000000 0.11102981
0.34291440 0.00000000 0.00000000
0.50060511 0.00000000 0.00000000
0.66158873 0.00000000 0.00000000
0.81491631 0.00000000 0.00000000
0.94963896 0.00000000 0.00000000
1.00000000 0.00000000 0.03564271
1.00000000 0.00000000 0.10816531
1.00000000 0.00000000 0.19018397
1.00000000 0.00000000 0.27919266
0.65573484 0.00000000 0.00000000
0.80953807 0.00000000 0.00000000
0.94513923 0.00000000 0.00000000
1.00000000 0.00000000 0.03318821
1.00000000 0.00000000 0.10531366
1.00000000 0.00000000 0.18702736
1.00000000 0.00000000 0.27582330
1.00000000 0.00000000 0.36919546
1.00000000 0.00000000 0.46463782
0.94059998 0.00000000 0.00000000
1.00000000 0.00000000 0.03075007
1.00000000 0.00000000 0.10247498
1.00000000 0.00000000 0.18388034
1.00000000 0.00000000 0.27246013
1.00000000 0.00000000 0.36570832
1.00000000 0.00000000 0.46111894
1.00000000 0.00000000 0.55618590
1.00000000 0.00000000 0.64840317
1.00000000 0.00000000 0.09964941
1.00000000 0.00000000 0.18074304
1.00000000 0.00000000 0.26910329
1.00000000 0.00000000 0.36222413
1.00000000 0.00000000 0.45759958
1.00000000 0.00000000 0.55272359
1.00000000 0.00000000 0.64509010
1.00000000 0.00000000 0.73219317
1.00000000 0.00000000 0.81152672
1.00000000 0.00000000 0.26575288
1.00000000 0.00000000 0.35874301
1.00000000 0.00000000 0.45407990
1.00000000 0.00000000 0.54925752
1.00000000 0.00000000 0.64176995
1.00000000 0.00000000 0.72911102
1.00000000 0.00000000 0.80877477
1.00000000 0.00000000 0.87825525
1.00000000 0.00000000 0.93504632
1.00000000 0.00000000 0.45056000
1.00000000 0.00000000 0.54578787
1.00000000 0.00000000 0.63844275
1.00000000 0.00000000 0.72601849
1.00000000 0.00000000 0.80600911
1.00000000 0.00000000 0.87590861
1.00000000 0.00000000 0.93321091
1.00000000 0.00000000 0.97541004
1.00000000 0.00000000 1.00000000
