Spangled_X/Spangled X (Gradient Map Only).cube
# VEGAS Pro LUT
TITLE "Spangled X (Gradient Map Only)"
LUT_3D_SIZE 5
1.00000000 1.00000000 1.00000000
0.70371830 0.74866867 0.74866867
0.23012389 0.31899735 0.31899735
0.00280916 0.00000000 0.00000000
0.20749798 0.00000000 0.00000000
0.24580321 0.33466038 0.33466038
0.00000000 0.00264347 0.00264347
0.19769269 0.00000000 0.00000000
0.49844941 0.00000000 0.00000000
0.81296349 0.00000000 0.00000000
0.18802458 0.00000000 0.00000000
0.48660469 0.00000000 0.00000000
0.80216455 0.00000000 0.00000000
1.00000000 0.00000000 0.02986756
1.00000000 0.00000000 0.18273838
0.79127008 0.00000000 0.00000000
1.00000000 0.00000000 0.02505300
1.00000000 0.00000000 0.17648077
1.00000000 0.00000000 0.35747790
1.00000000 0.00000000 0.54799628
1.00000000 0.00000000 0.17026317
1.00000000 0.00000000 0.35052770
1.00000000 0.00000000 0.54105097
1.00000000 0.00000000 0.72178483
1.00000000 0.00000000 0.87268114
0.93476766 0.94334656 0.94334656
0.52118188 0.59040713 0.59040713
0.09093496 0.16777700 0.16777700
0.06370229 0.00000000 0.00000000
0.31613520 0.00000000 0.00000000
0.10217313 0.18125595 0.18125595
0.05678409 0.00000000 0.00000000
0.30516514 0.00000000 0.00000000
0.62149864 0.00000000 0.00000000
0.91819358 0.00000000 0.00000000
0.29428706 0.00000000 0.00000000
0.60967261 0.00000000 0.00000000
0.90864193 0.00000000 0.00000000
1.00000000 0.00000000 0.08347604
1.00000000 0.00000000 0.24970432
0.89894950 0.00000000 0.00000000
1.00000000 0.00000000 0.07802430
1.00000000 0.00000000 0.24309072
1.00000000 0.00000000 0.43008274
1.00000000 0.00000000 0.61895221
1.00000000 0.00000000 0.23650680
1.00000000 0.00000000 0.42304742
1.00000000 0.00000000 0.61220300
1.00000000 0.00000000 0.78392541
1.00000000 0.00000000 0.91816640
0.80586153 0.83513755 0.83513755
0.33622342 0.42201483 0.42201483
0.01057584 0.04785072 0.04785072
0.14673795 0.00000000 0.00000000
0.43418205 0.00000000 0.00000000
0.01511946 0.05762160 0.05762160
0.13789481 0.00000000 0.00000000
0.42251566 0.00000000 0.00000000
0.74169308 0.00000000 0.00000000
1.00000000 0.00000000 0.00443613
0.41089606 0.00000000 0.00000000
0.73035407 0.00000000 0.00000000
1.00000000 0.00000000 0.00000000
1.00000000 0.00000000 0.14307894
1.00000000 0.00000000 0.31975031
0.99197805 0.00000000 0.00000000
1.00000000 0.00000000 0.13709721
1.00000000 0.00000000 0.31288794
1.00000000 0.00000000 0.50296050
1.00000000 0.00000000 0.68726665
1.00000000 0.00000000 0.30604494
1.00000000 0.00000000 0.49594727
1.00000000 0.00000000 0.68082082
1.00000000 0.00000000 0.84061736
1.00000000 0.00000000 0.95528877
0.63663518 0.69116700 0.69116700
0.17219654 0.25928584 0.25928584
0.02286832 0.00000000 0.00000000
0.24706148 0.00000000 0.00000000
0.55678385 0.00000000 0.00000000
0.01738571 0.00000000 0.00000000
0.23676182 0.00000000 0.00000000
0.54488957 0.00000000 0.00000000
0.85417801 0.00000000 0.00000000
1.00000000 0.00000000 0.05444336
0.53299689 0.00000000 0.00000000
0.84379452 0.00000000 0.00000000
1.00000000 0.00000000 0.04931361
1.00000000 0.00000000 0.20756507
1.00000000 0.00000000 0.39176518
1.00000000 0.00000000 0.04424611
1.00000000 0.00000000 0.20116059
1.00000000 0.00000000 0.38476127
1.00000000 0.00000000 0.57499999
1.00000000 0.00000000 0.75182855
1.00000000 0.00000000 0.37776637
1.00000000 0.00000000 0.56811607
1.00000000 0.00000000 0.74579322
1.00000000 0.00000000 0.89074957
1.00000000 0.00000000 0.98293698
0.45044208 0.52722907 0.52722907
0.05245471 0.11801424 0.11801424
0.09268368 0.00000000 0.00000000
0.35981816 0.00000000 0.00000000
0.67908597 0.00000000 0.00000000
0.08498438 0.00000000 0.00000000
0.34853044 0.00000000 0.00000000
0.66743225 0.00000000 0.00000000
0.95409876 0.00000000 0.00000000
1.00000000 0.00000000 0.11102981
0.65573484 0.00000000 0.00000000
0.94513923 0.00000000 0.00000000
1.00000000 0.00000000 0.10531366
1.00000000 0.00000000 0.27582330
1.00000000 0.00000000 0.46463782
1.00000000 0.00000000 0.09964941
1.00000000 0.00000000 0.26910329
1.00000000 0.00000000 0.45759958
1.00000000 0.00000000 0.64509010
1.00000000 0.00000000 0.81152672
1.00000000 0.00000000 0.45056000
1.00000000 0.00000000 0.63844275
1.00000000 0.00000000 0.80600911
1.00000000 0.00000000 0.93321091
1.00000000 0.00000000 1.00000000
