Purple_Sky_Major/Purple Sky Major.cube
# VEGAS Pro LUT
TITLE "Purple Sky Major"
LUT_3D_SIZE 9
0.30196080 0.24313726 0.30196080
0.31998926 0.25551429 0.31989980
0.35369119 0.27829084 0.35339630
0.39887381 0.30928212 0.39835176
0.45134428 0.34630346 0.45066777
0.50690973 0.38717005 0.50624585
0.56137747 0.42969716 0.56098747
0.61007243 0.47191551 0.61010796
0.65382588 0.51402158 0.65122664
0.35222223 0.27729398 0.35193586
0.39705679 0.30802175 0.39654237
0.44933340 0.34485996 0.44866019
0.50485933 0.38562378 0.50419086
0.55944169 0.42812851 0.55903590
0.60842419 0.47036421 0.60848105
0.65226084 0.51248366 0.64981389
0.69312048 0.55350339 0.68582791
0.72951937 0.59189355 0.71756381
0.44732693 0.34342179 0.44665727
0.50280762 0.38407990 0.50213498
0.55749899 0.42655927 0.55707783
0.60677385 0.46881351 0.60684556
0.65069175 0.51094425 0.64839387
0.69168729 0.55203152 0.68458515
0.72827649 0.59054554 0.71645999
0.75897563 0.62495649 0.74505901
0.78230071 0.65373462 0.77142274
0.55554950 0.42498955 0.55511355
0.60512167 0.46726343 0.60520136
0.64911872 0.50940341 0.64696664
0.69024807 0.55055618 0.68333656
0.72702569 0.58919197 0.71535176
0.75796777 0.62378097 0.74405283
0.78159040 0.65279347 0.77048039
0.79640979 0.67469954 0.79567510
0.79730415 0.68492019 0.81851721
0.64754188 0.50786120 0.64553207
0.68880296 0.54907739 0.68208206
0.72576696 0.58783293 0.71423900
0.75695002 0.62259793 0.74304360
0.78086823 0.65184265 0.76953638
0.79603779 0.67403734 0.79475796
0.79753608 0.68476045 0.81774330
0.78930801 0.68779027 0.83891732
0.77757925 0.68824470 0.85976607
0.72450042 0.58646846 0.71312177
0.75592244 0.62140739 0.74203122
0.78013426 0.65088230 0.76859063
0.79565191 0.67336345 0.79384053
0.79776227 0.68459690 0.81697023
0.78967732 0.68772584 0.83813840
0.77806401 0.68827093 0.85901564
0.76367569 0.68646258 0.87866855
0.74726582 0.68253130 0.89616382
0.77938849 0.64991248 0.76764309
0.79525226 0.67267799 0.79292274
0.79798269 0.68442953 0.81619799
0.79004192 0.68765795 0.83735907
0.77854502 0.68829399 0.85826355
0.76424545 0.68656814 0.87797809
0.74789661 0.68271089 0.89556921
0.73025191 0.67695260 0.91010368
0.71206474 0.66952384 0.92064804
0.79819721 0.68425834 0.81542665
0.79040170 0.68758649 0.83657944
0.77902228 0.68831384 0.85750985
0.76481247 0.68667084 0.87728471
0.74852562 0.68288785 0.89497048
0.73091525 0.67719549 0.90963393
0.71273470 0.66982406 0.92034161
0.69191146 0.65760505 0.92136127
0.64087629 0.60717094 0.86541843
0.77949566 0.68833053 0.85675460
0.76537663 0.68677062 0.87658846
0.74915290 0.68306226 0.89436769
0.73157781 0.67743605 0.90915883
0.71340495 0.67012233 0.92002863
0.69321841 0.65874100 0.92235410
0.64320940 0.60960513 0.86833930
0.57138503 0.53249091 0.77226263
0.49036434 0.44257551 0.65560812
0.30671898 0.24649057 0.30670455
0.33121783 0.26309031 0.33105859
0.36979157 0.28925660 0.36940747
0.41824737 0.32280469 0.41765273
0.47239241 0.36154979 0.47169587
0.52803391 0.40330717 0.52743846
0.58097899 0.44589210 0.58078200
0.62701750 0.48800832 0.62647438
0.66979009 0.52985412 0.66545707
0.36817169 0.28814980 0.36779621
0.41633824 0.32146502 0.41575000
0.47034827 0.36005762 0.46965247
0.52600896 0.40174291 0.52540511
0.57912755 0.44433609 0.57890952
0.62539452 0.48645547 0.62493366
0.66827118 0.52833611 0.66411585
0.70760506 0.56853366 0.69837600
0.74191236 0.60551846 0.72875476
0.46830636 0.35856965 0.46761155
0.52398062 0.40017986 0.52336878
0.57726705 0.44277838 0.57702851
0.62376875 0.48490244 0.62338483
0.66674745 0.52681577 0.66276789
0.70623797 0.56710237 0.69719070
0.74075651 0.60423249 0.72769386
0.76881915 0.63667625 0.75531787
0.78894198 0.66290390 0.78110343
0.57539755 0.44121903 0.57513911
0.62214029 0.48334926 0.62182784
0.66521901 0.52529329 0.66141331
0.70486414 0.56566685 0.69600016
0.73959190 0.60294014 0.72662902
0.76791835 0.63558346 0.75434053
0.78835958 0.66206694 0.78017533
0.79943180 0.68086076 0.80517393
0.79457045 0.68635517 0.82657504
0.66368592 0.52376866 0.66005194
0.70348370 0.56422710 0.69480419
0.73841864 0.60164154 0.72556025
0.76700681 0.63448232 0.75336069
0.78776449 0.66121948 0.77924603
0.79920763 0.68032330 0.80425704
0.79485983 0.68623406 0.82579529
0.78520817 0.68825477 0.84695542
0.77234304 0.68778795 0.86743432
0.73723674 0.60033679 0.72448754
0.76608473 0.63337290 0.75237823
0.78715676 0.66036171 0.77831560
0.79896891 0.67977351 0.80334032
0.79514384 0.68610930 0.82501596
0.78562480 0.68822592 0.84618330
0.77286458 0.68784654 0.86670381
0.75761664 0.68520159 0.88564420
0.74063438 0.68052155 0.90207100
0.78653651 0.65949368 0.77738392
0.79871559 0.67921132 0.80242378
0.79542249 0.68598086 0.82423693
0.78603703 0.68819368 0.84541029
0.77338266 0.68790203 0.86597121
0.75821292 0.68533635 0.88498622
0.74128109 0.68072712 0.90152198
0.72334075 0.67430478 0.91464525
0.70514518 0.66629976 0.92342257
0.79569566 0.68584871 0.82345843
0.78644484 0.68815809 0.84463650
0.77389741 0.68795449 0.86523646
0.75880682 0.68546838 0.88432485
0.74192649 0.68093026 0.90096843
0.72400987 0.67457050 0.91423374
0.70581037 0.66661960 0.92318743
0.67577475 0.64257616 0.90626729
0.61511058 0.57989746 0.83205467
0.77440870 0.68800384 0.86449963
0.75939834 0.68559760 0.88366020
0.74257052 0.68113089 0.90041023
0.72467864 0.67483407 0.91381639
0.70647615 0.66693765 0.92294526
0.67752773 0.64427292 0.90808845
0.61771268 0.58267957 0.83550262
0.54089361 0.49889448 0.72904611
0.45968950 0.40809473 0.61020303
0.31413266 0.25155213 0.31407848
0.34449241 0.27205703 0.34425175
0.38732845 0.30129546 0.38685727
0.43844795 0.33708271 0.43779650
0.49365810 0.37723401 0.49297103
0.54876608 0.41956460 0.54828233
0.59939998 0.46191484 0.59945416
0.64365530 0.50407070 0.64197963
0.68523139 0.54543376 0.67897755
0.38558009 0.30009040 0.38511708
0.43646914 0.33567542 0.43582237
0.49160308 0.37570488 0.49091369
0.54678911 0.41799402 0.54629254
0.59773999 0.46036866 0.59777075
0.64206558 0.50252450 0.64051944
0.68376648 0.54394382 0.67770225
0.72135895 0.58309692 0.71035981
0.75335902 0.61845398 0.73953271
0.48954815 0.37417883 0.48885670
0.54480654 0.41642353 0.54429764
0.59607846 0.45882353 0.59607846
0.64047229 0.50097728 0.63905174
0.68229604 0.54245085 0.67642087
0.72006595 0.58171439 0.70922649
0.75229806 0.61723816 0.73850918
0.77750850 0.64749241 0.76530951
0.79421341 0.67094719 0.79066813
0.59431142 0.45728624 0.59428585
0.63887548 0.49942917 0.63757646
0.68082011 0.54095483 0.67513335
0.71876544 0.58032680 0.70808840
0.75122756 0.61601532 0.73748219
0.77672261 0.64649045 0.76435542
0.79376674 0.67022252 0.78974867
0.79869890 0.68382186 0.81353760
0.79126406 0.68739623 0.83466452
0.67933881 0.53945595 0.67383957
0.71745753 0.57893425 0.70694548
0.75014764 0.61478531 0.73645186
0.77592534 0.64547938 0.76339936
0.79330665 0.66948664 0.78882861
0.79889303 0.68363738 0.81276983
0.79160690 0.68731260 0.83388400
0.78064120 0.68835771 0.85489446
0.76674932 0.68700314 0.87486792
0.74905843 0.61354840 0.73541808
0.77511668 0.64445931 0.76244128
0.79283321 0.66873968 0.78790796
0.79908115 0.68344903 0.81200320
0.79194474 0.68722540 0.83310336
0.78110105 0.68836319 0.85413414
0.76730347 0.68709284 0.87416232
0.75130540 0.68364477 0.89225441
0.73386031 0.67824948 0.90747708
0.79234642 0.66798162 0.78698653
0.79926324 0.68325675 0.81123769
0.79227763 0.68713462 0.83232260
0.78155696 0.68836540 0.85337251
0.76785469 0.68717957 0.87345409
0.75192422 0.68380755 0.89163393
0.73451900 0.67847979 0.90697873
0.71639246 0.67142683 0.91855508
0.69829798 0.66287911 0.92542964
0.79260540 0.68704027 0.83154178
0.78200877 0.68836433 0.85260952
0.76840287 0.68726331 0.87274325
0.75254107 0.68396765 0.89100963
0.73517674 0.67870778 0.90647525
0.71706337 0.67171419 0.91820675
0.69895440 0.66321737 0.92527086
0.65539926 0.62219620 0.88324142
0.58694053 0.54947919 0.79388219
0.76894802 0.68734413 0.87202996
0.75315583 0.68412513 0.89038152
0.73583347 0.67893344 0.90596670
0.71773428 0.67199957 0.91785216
0.69961178 0.66355395 0.92510450
0.65753078 0.62437266 0.88577598
0.58974415 0.55252808 0.79774219
0.50976473 0.46427834 0.68402898
0.43021160 0.37480053 0.56612045
0.32396951 0.25820088 0.32385543
0.35958064 0.28229332 0.35925218
0.40606946 0.31428632 0.40551853
0.45924318 0.35199514 0.45855597
0.51490891 0.39323503 0.51426607
0.56887388 0.43582124 0.56855035
0.61649483 0.47798380 0.61638612
0.65990365 0.52001780 0.65668130
0.70006746 0.56067586 0.69184572
0.40421507 0.31299466 0.40367135
0.45721713 0.35053191 0.45653230
0.51286548 0.39168063 0.51221669
0.56696731 0.43425602 0.56662601
0.61485517 0.47643095 0.61479235
0.65835506 0.51848644 0.65529615
0.69866461 0.55922216 0.69063091
0.73429984 0.59710836 0.72183710
0.76377696 0.63061523 0.74995542
0.51081991 0.39012814 0.51016557
0.56505293 0.43268976 0.56469446
0.61321324 0.47487840 0.61319017
0.65680218 0.51695323 0.65390402
0.69725537 0.55776465 0.68941045
0.73308885 0.59578276 0.72075015
0.76281887 0.62947786 0.74896359
0.78496140 0.65732008 0.77509153
0.79803270 0.67777973 0.80017447
0.61156905 0.47332621 0.61157954
0.65524507 0.51541835 0.65250480
0.69583988 0.55630332 0.68818444
0.73186964 0.59445137 0.71965891
0.76185048 0.62833261 0.74796897
0.78429848 0.65641725 0.77415520
0.79772973 0.67717558 0.79925817
0.79634291 0.68550855 0.82154953
0.78742683 0.68805617 0.84273392
0.69441825 0.55483836 0.68695265
0.73064220 0.59311414 0.71856344
0.76087189 0.62717944 0.74697149
0.78362328 0.65550447 0.77321738
0.79741257 0.67655945 0.79834175
0.79659700 0.68536353 0.82077289
0.78781909 0.68800879 0.84195757
0.77564883 0.68811178 0.86268276
0.76083970 0.68590295 0.88201505
0.75988317 0.62601858 0.74597108
0.78293598 0.65458184 0.77227807
0.79708129 0.67593139 0.79742527
0.79684550 0.68521470 0.81999683
0.78820676 0.68795794 0.84118062
0.77614796 0.68815035 0.86193925
0.76142251 0.68602252 0.88133937
0.74478388 0.68180484 0.89844751
0.72698545 0.67572784 0.91233039
0.79673594 0.67529148 0.79650861
0.79708833 0.68506217 0.81922144
0.78858978 0.68790358 0.84040314
0.77664346 0.68818581 0.86119395
0.76200277 0.68613923 0.88066053
0.74542117 0.68199438 0.89786953
0.72765207 0.67598170 0.91188765
0.70944887 0.66833162 0.92178142
0.68484050 0.65120643 0.91527575
0.78896815 0.68784583 0.83962506
0.77713531 0.68821812 0.86044681
0.76258039 0.68625313 0.87997866
0.74605685 0.68218136 0.89728725
0.72831810 0.67623329 0.91143924
0.71011752 0.66863942 0.92150134
0.68636709 0.65261823 0.91667527
0.63148445 0.59730637 0.85347438
0.55706555 0.51675731 0.75209165
0.76315534 0.68636417 0.87929374
0.74669087 0.68236583 0.89670068
0.72898346 0.67648274 0.91098535
0.71078652 0.66894525 0.92121446
0.68785024 0.65397525 0.91799402
0.63392699 0.59988135 0.85660756
0.56000316 0.51999182 0.75624883
0.47869787 0.42948368 0.63840199
0.40263009 0.34353405 0.52455103
0.33599710 0.26631570 0.33580825
0.37625015 0.29367808 0.37583268
0.42578226 0.32810804 0.42516407
0.48040065 0.36742085 0.47970393
0.53591251 0.40943176 0.53535384
0.58812499 0.45195600 0.58801526
0.63333368 0.49407509 0.63242090
0.67568028 0.53576493 0.67063719
0.71421617 0.57549548 0.70411932
0.42384422 0.32674152 0.42323184
0.47834978 0.36591339 0.47765270
0.53390306 0.40786374 0.53333437
0.58631116 0.45040780 0.58617836
0.63172227 0.49252379 0.63091123
0.67418081 0.53425652 0.66932148
0.71288317 0.57408625 0.70295936
0.74634558 0.61048317 0.73286551
0.77308404 0.64191753 0.76008052
0.53188932 0.40629652 0.53131104
0.58448744 0.44885746 0.58433205
0.63010788 0.49097198 0.62939364
0.67267627 0.53274554 0.66799933
0.71154314 0.57267243 0.70179433
0.74522454 0.60922271 0.73181933
0.77223670 0.64086676 0.75911492
0.79109567 0.66607463 0.78472167
0.79968435 0.68276834 0.80936396
0.62849039 0.48941976 0.62786812
0.67116672 0.53123212 0.66667062
0.71019602 0.57125401 0.70062423
0.74409455 0.60795563 0.73076946
0.77137834 0.63980722 0.75814700
0.79056352 0.66527903 0.78379750
0.79984528 0.68256265 0.80860287
0.79338831 0.68679345 0.82962537
0.78310055 0.68834782 0.85073155
0.70884198 0.56983107 0.69944894
0.74295551 0.60668194 0.72971588
0.77050894 0.63873911 0.75717682
0.79001844 0.66447270 0.78287238
0.80000001 0.68235296 0.80784315
0.79369831 0.68668664 0.82884479
0.78353816 0.68833542 0.84996438
0.77027291 0.68752980 0.87026858
0.75465596 0.68450022 0.88882405
0.76962876 0.63766241 0.75620419
0.78946042 0.66365576 0.78194624
0.79981881 0.68185204 0.80692524
0.79400313 0.68657613 0.82806432
0.78397155 0.68831962 0.84919614
0.77080721 0.68760026 0.86954689
0.75526345 0.68464845 0.88818324
0.73809373 0.67969465 0.90417176
0.72005153 0.67296946 0.91657919
0.79962277 0.68133849 0.80600774
0.79430270 0.68646204 0.82728410
0.78440076 0.68830055 0.84842682
0.77133828 0.68766767 0.86882287
0.75586867 0.68479389 0.88753879
0.73874545 0.67990971 0.90364128
0.72072202 0.67324555 0.91619700
0.70255172 0.66503191 0.92427254
0.66660875 0.63353801 0.89627612
0.78482562 0.68827808 0.84765655
0.77186608 0.68773204 0.86809653
0.75647175 0.68493664 0.88689083
0.73939598 0.68012238 0.90310603
0.72139227 0.67351961 0.91580874
0.70321405 0.66535884 0.92406565
0.66854942 0.63547212 0.89844954
0.60472971 0.56874794 0.81815696
0.52618498 0.48257297 0.70787376
0.75707251 0.68507671 0.88623941
0.74004525 0.68033254 0.90256602
0.72206235 0.67379153 0.91541445
0.70387715 0.66568404 0.92385149
0.67045307 0.63735938 0.90055329
0.60741580 0.57164019 0.82177377
0.52918917 0.48591194 0.71221328
0.44839233 0.39535168 0.59335583
0.37764433 0.31513646 0.48668563
0.34998310 0.27577549 0.34970978
0.39426851 0.30609024 0.39376611
0.44623443 0.34263960 0.44556677
0.50168800 0.38323879 0.50101328
0.55643648 0.42570311 0.55600715
0.60587293 0.46796793 0.60594982
0.64983422 0.51010394 0.64761627
0.69090295 0.55122721 0.68390483
0.72759521 0.58980793 0.71585602
0.44423518 0.34120983 0.44357136
0.49963474 0.38169876 0.49895635
0.55448341 0.42413318 0.55403954
0.60421962 0.46641827 0.60430086
0.64825910 0.50856239 0.64618504
0.68946052 0.54974997 0.68265301
0.72634006 0.58845133 0.71474534
0.75741386 0.62313664 0.74350274
0.78119797 0.65227604 0.76996571
0.55252397 0.42256290 0.55206591
0.60256457 0.46486938 0.60264325
0.64668012 0.50701952 0.64474648
0.68801224 0.54826939 0.68139529
0.72507709 0.58708930 0.71363020
0.75639075 0.62194943 0.74249178
0.78046936 0.65131998 0.76902074
0.79582906 0.67367119 0.79425758
0.79766017 0.68467170 0.81732148
0.64509737 0.50547540 0.64330059
0.68655819 0.54678553 0.68013155
0.72380632 0.58572197 0.71251041
0.75535786 0.62075490 0.74147767
0.77972889 0.65035450 0.76807398
0.79543567 0.67299098 0.79333997
0.79788321 0.68450606 0.81654888
0.78987682 0.68768924 0.83771336
0.77832687 0.68828392 0.85860562
0.72252780 0.58434933 0.71138602
0.75431520 0.61955291 0.74046040
0.77897674 0.64937955 0.76712549
0.79502851 0.67229933 0.79242200
0.79810041 0.68433660 0.81577712
0.79023874 0.68761939 0.83693385
0.77880579 0.68830520 0.85785264
0.76455510 0.68662453 0.87760019
0.74823993 0.68280774 0.89524317
0.77821290 0.64839524 0.76617509
0.79460776 0.67159623 0.79150349
0.79831177 0.68416333 0.81500638
0.79059589 0.68754607 0.83615398
0.77928096 0.68832332 0.85709810
0.76512057 0.68672562 0.87690526
0.74886799 0.68298334 0.89464217
0.73127675 0.67732698 0.90937543
0.71310025 0.66998702 0.92017168
0.79851729 0.68398619 0.81423652
0.79094809 0.68746918 0.83537388
0.77975225 0.68833822 0.85634202
0.76568317 0.68682379 0.87620753
0.74949425 0.68315631 0.89403719
0.73193890 0.67756629 0.90889746
0.71377057 0.67028421 0.91985512
0.69391173 0.65933609 0.92285943
0.64446956 0.61091697 0.86990863
0.78021967 0.68834990 0.85558444
0.76624292 0.68691909 0.87550706
0.75011867 0.68332672 0.89342809
0.73260021 0.67780334 0.90841419
0.71444112 0.67057937 0.91953194
0.69514638 0.66038150 0.92371887
0.64675683 0.61329234 0.87274110
0.57583445 0.53736192 0.77847987
0.49499831 0.44776741 0.66241932
0.75074118 0.68349451 0.89281511
0.73326069 0.67803812 0.90792567
0.71511179 0.67087263 0.91920227
0.69633347 0.66136730 0.92449069
0.64901352 0.61562860 0.87551498
0.57869655 0.54049039 0.78246546
0.49800155 0.45112965 0.66682625
0.41954759 0.36272350 0.55008137
0.35595375 0.29044896 0.45371494
0.36569506 0.28645918 0.36533287
0.41340339 0.31940871 0.41282532
0.46719360 0.35775986 0.46649945
0.52287287 0.39932787 0.52225679
0.57624841 0.44192800 0.57599896
0.62288082 0.48405525 0.62253660
0.66591436 0.52598560 0.66202986
0.70548946 0.56631988 0.69654197
0.74012232 0.60352838 0.72711349
0.46515554 0.35627857 0.46446282
0.52083963 0.39776695 0.52021617
0.57437420 0.44036782 0.57410502
0.62125093 0.48250204 0.62097520
0.66438335 0.52446193 0.66067159
0.70411199 0.56488204 0.69534850
0.73895299 0.60223258 0.72604656
0.76742244 0.63498384 0.75380641
0.78803653 0.66160595 0.77966857
0.57249141 0.43880618 0.57220304
0.61961842 0.48094881 0.61940557
0.66284776 0.52293617 0.65930647
0.70272791 0.56344002 0.69414961
0.73777503 0.60093063 0.72497565
0.76650518 0.63387817 0.75282514
0.78743458 0.66075289 0.77873868
0.79907924 0.68002492 0.80375695
0.79501545 0.68616647 0.82537013
0.66130763 0.52140838 0.65793455
0.70133728 0.56199396 0.69294530
0.73658848 0.59962249 0.72390068
0.76557738 0.63276428 0.75184125
0.78681999 0.65988952 0.77780759
0.79883254 0.67946839 0.80284035
0.79529649 0.68603969 0.82459098
0.78585017 0.68820876 0.84576178
0.77314758 0.68787718 0.86630446
0.73539352 0.59830832 0.72282165
0.76463902 0.63164228 0.75085467
0.78619295 0.65901595 0.77687520
0.79857135 0.67889953 0.80192387
0.79557216 0.68590921 0.82381225
0.78626001 0.68817466 0.84498835
0.77366388 0.68793106 0.86557066
0.75853717 0.68540871 0.88462585
0.74163330 0.68083823 0.90122062
0.78555346 0.65813220 0.77594155
0.79829574 0.67831850 0.80100751
0.79584241 0.68577504 0.82303393
0.78666544 0.68813723 0.84421408
0.77417672 0.68798178 0.86483479
0.75912976 0.68553925 0.88396275
0.74227798 0.68103999 0.90066451
0.72437471 0.67471451 0.91400683
0.70617342 0.66679329 0.92305624
0.79610711 0.68563718 0.82225615
0.78706634 0.68809634 0.84343910
0.77468610 0.68802947 0.86409694
0.75971991 0.68566692 0.88329631
0.74292117 0.68123925 0.90010387
0.72504324 0.67497689 0.91358632
0.70683962 0.66711032 0.92281020
0.67846704 0.64517719 0.90905029
0.61912239 0.58418453 0.83736402
0.77519202 0.68807399 0.86335707
0.76030761 0.68579185 0.88262665
0.74356294 0.68143606 0.89953876
0.72571135 0.67523712 0.91316003
0.70750636 0.66742551 0.92255712
0.68015772 0.64679557 0.91075522
0.62168866 0.58691990 0.84074062
0.54549801 0.50398964 0.73563385
0.46420488 0.41318178 0.61691904
0.74420315 0.68163037 0.89896917
0.72637898 0.67549515 0.91272801
0.70817363 0.66773880 0.92229706
0.68180740 0.64836210 0.91238356
0.62423092 0.58962411 0.84406972
0.54846865 0.50727308 0.73987329
0.46713969 0.41648614 0.62127846
0.39286304 0.33244035 0.50976920
0.33825776 0.27031276 0.42682967
0.38290066 0.29824570 0.38245037
0.43342236 0.33351240 0.43278313
0.48842737 0.37334773 0.48773497
0.54372287 0.41556698 0.54320741
0.59511602 0.45798534 0.59510195
0.63960171 0.50013298 0.63824797
0.68149167 0.54163522 0.67571938
0.71935749 0.58095819 0.70860630
0.75171530 0.61657202 0.73794943
0.48637295 0.37182662 0.48567900
0.54173201 0.41399685 0.54120493
0.59334302 0.45644662 0.59330368
0.63800311 0.49858436 0.63676852
0.68001276 0.54013765 0.67442840
0.71805292 0.57956785 0.70746559
0.75063968 0.61534530 0.73692065
0.77628917 0.64594012 0.76383424
0.79351747 0.66982251 0.78924692
0.59155929 0.45490530 0.59149528
0.63640112 0.49703497 0.63528144
0.67852855 0.53863716 0.67313123
0.71674103 0.57817262 0.70631999
0.74955469 0.61411148 0.73588842
0.77548563 0.64492410 0.76287705
0.79305005 0.66908056 0.78832650
0.79899639 0.68353510 0.81235152
0.79179180 0.68726546 0.83345819
0.67703897 0.53713387 0.67182767
0.71542180 0.57677245 0.70516950
0.74846035 0.61287081 0.73485267
0.77467084 0.64389908 0.76191777
0.79256934 0.66832757 0.78740543
0.79918122 0.68334460 0.81158549
0.79212695 0.68717635 0.83267748
0.78135026 0.68836480 0.85371888
0.76760453 0.68714046 0.87377632
0.74735677 0.61162323 0.73381341
0.77384472 0.64286518 0.76095641
0.79207534 0.66756350 0.78648365
0.79935998 0.68315029 0.81082064
0.79245704 0.68708360 0.83189672
0.78180391 0.68836522 0.85295647
0.76815408 0.68722558 0.87306666
0.75226092 0.68389517 0.89129388
0.73487788 0.67860442 0.90670472
0.79156816 0.66678858 0.78556108
0.79953265 0.68295199 0.81005704
0.79278207 0.68698728 0.83111590
0.78225356 0.68836242 0.85219282
0.76870060 0.68730778 0.87235451
0.75287664 0.68405384 0.89066750
0.73553509 0.67883116 0.90619850
0.71742934 0.67187011 0.91801411
0.69931287 0.66340119 0.92518103
0.79310197 0.68688738 0.83033514
0.78269911 0.68835628 0.85142791
0.76924407 0.68738693 0.87163979
0.75349027 0.68420988 0.89003736
0.73619121 0.67905551 0.90568721
0.71810025 0.67215431 0.91765606
0.69997078 0.66373676 0.92501056
0.65867925 0.62554187 0.88713169
0.59126645 0.55418181 0.79983306
0.76978439 0.68746310 0.87092263
0.75410187 0.68436319 0.88940346
0.73684627 0.67927748 0.90517098
0.71877110 0.67243648 0.91729182
0.70062971 0.66407067 0.92483258
0.66075861 0.62765199 0.88956720
0.59404433 0.55719608 0.80363888
0.51441985 0.46947217 0.69080967
0.43450412 0.37965727 0.57256365
0.73750025 0.67949712 0.90464979
0.71944183 0.67271662 0.91692132
0.70128953 0.66440278 0.92464715
0.66280335 0.62971812 0.89193720
0.59680474 0.56018698 0.80740833
0.51743162 0.47282946 0.69518811
0.43730301 0.38282254 0.57676071
0.36903805 0.30534336 0.47361019
0.32525572 0.25556898 0.40722057
0.40136746 0.31101394 0.40083513
0.45409307 0.34828022 0.45341241
0.50970340 0.38928217 0.50904620
0.56400555 0.43183503 0.56363785
0.61231667 0.47403169 0.61231267
0.65595335 0.51611626 0.65314168
0.69648403 0.55696803 0.68874240
0.73242486 0.59505725 0.72015548
0.76229191 0.62885416 0.74842143
0.50765502 0.38773289 0.50699282
0.56207961 0.43026739 0.56169546
0.61067128 0.47247973 0.61069745
0.65439397 0.51458049 0.65173864
0.69506520 0.55550474 0.68751323
0.73120117 0.59372270 0.71906191
0.76131791 0.62770456 0.74742526
0.78393167 0.65592062 0.77364385
0.79755849 0.67684096 0.79875833
0.60902375 0.47092825 0.60907364
0.65283042 0.51304311 0.65032846
0.69364017 0.55403775 0.68627840
0.72996932 0.59238237 0.71796411
0.76033384 0.62654722 0.74642617
0.78324986 0.65500247 0.77270520
0.79723364 0.67621833 0.79784191
0.79673326 0.68528283 0.82034951
0.78803110 0.68798149 0.84153390
0.69220912 0.55256712 0.68503773
0.72872937 0.59103638 0.71686190
0.75933963 0.62538207 0.74542409
0.78255600 0.65407449 0.77176505
0.79689467 0.67558378 0.79692531
0.79697865 0.68513197 0.81957382
0.78841627 0.68792874 0.84075660
0.77641869 0.68817008 0.86153293
0.76173931 0.68608654 0.88096946
0.75833541 0.62420934 0.74441904
0.78185010 0.65313685 0.77082330
0.79654163 0.67493749 0.79600853
0.79721838 0.68497735 0.81879884
0.78879672 0.68787253 0.83997881
0.77691215 0.68820381 0.86078662
0.76231813 0.68620169 0.88028896
0.74576807 0.68209672 0.89755249
0.72801542 0.67611921 0.91164374
0.79617465 0.67427945 0.79509151
0.79745239 0.68481898 0.81802464
0.78917253 0.68781286 0.83920050
0.77740204 0.68823439 0.86003852
0.76289433 0.68631405 0.87960541
0.74640286 0.68228233 0.89696783
0.72868109 0.67636961 0.91119236
0.71048242 0.66880649 0.92134565
0.68718153 0.65336525 0.91740465
0.78954357 0.68774968 0.83842170
0.77788818 0.68826175 0.85928875
0.76346785 0.68642348 0.87891895
0.74703598 0.68246537 0.89637899
0.72934616 0.67661780 0.91073549
0.71115160 0.66911131 0.92105508
0.68864065 0.65469217 0.91867894
0.63524789 0.60127121 0.85829437
0.56160134 0.52175009 0.75850648
0.76403856 0.68653011 0.87822950
0.74766743 0.68264586 0.89578593
0.73001051 0.67686373 0.91027313
0.71182120 0.66941416 0.92075777
0.69005525 0.65596318 0.91987079
0.63764828 0.60379189 0.86134559
0.56452328 0.52496207 0.76262665
0.48329934 0.43465078 0.64519811
0.40659544 0.34803501 0.53054392
0.73067409 0.67710739 0.90980536
0.71249104 0.66971511 0.92045379
0.69142479 0.65717763 0.92097914
0.64002067 0.60627651 0.86434239
0.56743431 0.52815855 0.76672149
0.48628470 0.43800071 0.64960063
0.40919092 0.35098010 0.53446376
0.34877202 0.28227377 0.44279498
0.31764707 0.24705882 0.39607844
