Purple_Sky_Major/Purple Sky Major.cube
# VEGAS Pro LUT
TITLE "Purple Sky Major"
LUT_3D_SIZE 33
0.30196080 0.24313726 0.30196080
0.30476922 0.24513708 0.30476290
0.30875379 0.24788928 0.30872947
0.31384897 0.25135973 0.31379643
0.31998926 0.25551429 0.31989980
0.32710913 0.26031882 0.32697552
0.33514309 0.26573917 0.33495951
0.34402561 0.27174121 0.34378779
0.35369119 0.27829084 0.35339630
0.36407432 0.28535387 0.36372098
0.37510946 0.29289618 0.37469780
0.38673115 0.30088365 0.38626274
0.39887381 0.30928212 0.39835176
0.41147196 0.31805748 0.41090080
0.42446011 0.32717559 0.42384586
0.43777272 0.33660230 0.43712285
0.45134428 0.34630346 0.45066777
0.46510926 0.35624495 0.46441656
0.47900218 0.36639264 0.47830519
0.49295753 0.37671238 0.49226964
0.50690973 0.38717005 0.50624585
0.52079338 0.39773148 0.52016973
0.53454286 0.40836257 0.53397733
0.54809272 0.41902918 0.54760462
0.56137747 0.42969716 0.56098747
0.57433152 0.44033235 0.57406187
0.58688939 0.45090064 0.58676386
0.59883428 0.46138763 0.59888124
0.61007243 0.47191551 0.61010796
0.62121385 0.48246673 0.62093961
0.63223535 0.49301744 0.63139242
0.64311373 0.50354367 0.64148271
0.65382588 0.51402158 0.65122664
0.30858713 0.24777509 0.30856365
0.31364262 0.25121972 0.31359127
0.31974560 0.25534973 0.31965765
0.32683060 0.26013094 0.32669872
0.33483210 0.26552925 0.33465043
0.34368455 0.27151048 0.34344879
0.35332251 0.27804056 0.35302973
0.36368039 0.28508532 0.36332920
0.37469271 0.29261062 0.37428316
0.38629395 0.30058232 0.38582760
0.39841864 0.30896628 0.39789847
0.41100118 0.31772837 0.41043174
0.42397612 0.32683447 0.42336333
0.43727797 0.33625042 0.43662927
0.45084116 0.34594208 0.45016545
0.46460021 0.35587534 0.46390787
0.47848958 0.36601606 0.47779250
0.49244377 0.37633008 0.49175528
0.50639731 0.38678327 0.50573218
0.52028459 0.39734149 0.51965916
0.53404015 0.40797064 0.53347218
0.54759854 0.41863653 0.54710722
0.56089419 0.42930505 0.56050020
0.57386154 0.43994206 0.57358712
0.58643514 0.45051342 0.58630389
0.59841931 0.46100107 0.59846050
0.60966057 0.47152764 0.60970205
0.62080592 0.48207843 0.62054789
0.63183224 0.49262959 0.63101441
0.64271635 0.50315714 0.64111769
0.65343499 0.51363724 0.65087414
0.66396499 0.52404600 0.66029996
0.67428321 0.53435946 0.66941136
0.31950328 0.25518602 0.31941682
0.32655331 0.25994390 0.32642314
0.33452225 0.26532009 0.33434251
0.34334457 0.27128053 0.34311083
0.35295478 0.27779099 0.35266411
0.36328733 0.28481743 0.36293828
0.37427673 0.29232565 0.37386933
0.38585749 0.30028152 0.38539317
0.39796406 0.30865091 0.39744580
0.41053092 0.31739971 0.40996319
0.42349261 0.32649377 0.42288128
0.43678358 0.33589891 0.43613604
0.45033830 0.34558105 0.44966343
0.46409130 0.35550603 0.46339941
0.47797704 0.36563972 0.47727993
0.49193001 0.37594795 0.49124095
0.50588471 0.38639662 0.50521845
0.51977563 0.39695159 0.51914841
0.53353721 0.40757874 0.53296679
0.54710400 0.41824389 0.54660946
0.56041044 0.42891291 0.56001252
0.57339108 0.43955168 0.57311177
0.58598036 0.45012608 0.58584332
0.59800422 0.46061456 0.59803915
0.60924858 0.47113979 0.60929561
0.62039787 0.48169011 0.62015575
0.63142902 0.49224168 0.63063586
0.64231873 0.50277054 0.64075226
0.65304387 0.51325279 0.65052116
0.66358119 0.52366459 0.65995884
0.67390764 0.53398198 0.66908157
0.68399990 0.54418111 0.67790556
0.69383490 0.55423796 0.68644714
0.33421355 0.26511174 0.33403572
0.34300566 0.27105129 0.34277397
0.35258803 0.27754214 0.35229948
0.36289516 0.28455019 0.36254829
0.37386158 0.29204127 0.37345627
0.38542172 0.29998130 0.38495946
0.39751011 0.30833608 0.39699379
0.41006121 0.31707153 0.40949520
0.42300951 0.32615349 0.42239967
0.43628952 0.33554778 0.43564320
0.44983572 0.34522033 0.44916168
0.46358258 0.35513699 0.46289110
0.47746459 0.36526358 0.47676745
0.49141628 0.37556604 0.49072665
0.50537205 0.38601014 0.50470471
0.51926649 0.39656180 0.51863754
0.53303397 0.40718690 0.53246111
0.54660910 0.41785124 0.54611140
0.55992627 0.42852074 0.55952442
0.57292008 0.43916124 0.57263601
0.58552486 0.44973859 0.58538222
0.59758902 0.46022815 0.59761727
0.60883641 0.47075197 0.60888857
0.61998963 0.48130181 0.61976302
0.63102555 0.49185374 0.63025683
0.64192086 0.50238389 0.64038634
0.65265244 0.51286829 0.65016776
0.66319716 0.52328306 0.65961730
0.67353177 0.53360438 0.66875136
0.68363303 0.54380822 0.67758602
0.69347787 0.55387080 0.68613768
0.70304304 0.56376809 0.69442254
0.71230537 0.57347631 0.70245689
0.35222223 0.27729398 0.35193586
0.36250389 0.28428358 0.36215916
0.37344721 0.29175752 0.37304404
0.38498667 0.29968163 0.38452646
0.39705679 0.30802175 0.39654237
0.40959203 0.31674382 0.40902776
0.42252690 0.32581362 0.42191854
0.43579584 0.33519703 0.43515071
0.44933340 0.34485996 0.44866019
0.46307406 0.35476822 0.46238300
0.47695225 0.36488771 0.47625509
0.49090251 0.37518427 0.49021238
0.50485933 0.38562378 0.50419086
0.51875716 0.39617211 0.51812649
0.53253049 0.40679508 0.53195524
0.54611385 0.41745859 0.54561305
0.55944169 0.42812851 0.55903590
0.57244849 0.43877068 0.57215971
0.58506882 0.44935098 0.58492053
0.59717375 0.45984179 0.59719485
0.60842419 0.47036421 0.60848105
0.61958128 0.48091352 0.61936980
0.63062185 0.49146578 0.62987733
0.64152277 0.50199711 0.64001995
0.65226084 0.51248366 0.64981389
0.66281283 0.52290148 0.65927535
0.67315555 0.53322661 0.66842067
0.68326581 0.54343522 0.67726612
0.69312048 0.55350339 0.68582791
0.70269638 0.56340718 0.69412231
0.71197027 0.57312280 0.70216560
0.72091901 0.58262616 0.70997399
0.72951937 0.59189355 0.71756381
0.37303364 0.29147437 0.37263262
0.38455233 0.29938254 0.38409418
0.39660409 0.30770797 0.39609161
0.40912339 0.31641656 0.40856084
0.42204469 0.32547417 0.42143786
0.43530253 0.33484668 0.43465859
0.44883138 0.34449992 0.44815904
0.46256569 0.35439977 0.46187511
0.47644001 0.36451209 0.47574285
0.49038878 0.37480274 0.48969814
0.50434649 0.38523760 0.50367695
0.51824766 0.39578250 0.51761532
0.53202677 0.40640336 0.53144914
0.54561824 0.41706598 0.54511434
0.55895668 0.42773625 0.55854696
0.57197642 0.43838006 0.57168293
0.58461213 0.44896322 0.58445823
0.59675837 0.45945549 0.59677184
0.60801178 0.46997648 0.60807300
0.61917275 0.48052523 0.61897606
0.63021803 0.49107781 0.62949735
0.64112449 0.50161034 0.63965309
0.65186894 0.51209897 0.64945954
0.66242814 0.52251971 0.65893298
0.67277902 0.53284866 0.66808969
0.68289828 0.54306197 0.67694581
0.69276273 0.55313575 0.68551779
0.70234931 0.56304604 0.69382173
0.71163470 0.57276893 0.70187396
0.72059578 0.58228058 0.70969069
0.72920936 0.59155709 0.71728826
0.73745227 0.60057449 0.72468287
0.74530131 0.60930890 0.73189080
0.39615202 0.30739468 0.39564148
0.40865529 0.31608978 0.40809450
0.42156297 0.32513517 0.42095762
0.43480960 0.33449668 0.43416685
0.44832963 0.34414020 0.44765815
0.46205753 0.35403159 0.46136743
0.47592786 0.36413670 0.47523072
0.48987505 0.37442139 0.48918393
0.50383359 0.38485155 0.50316304
0.51773798 0.39539301 0.51710397
0.53152275 0.40601167 0.53094280
0.54512233 0.41667336 0.54461533
0.55847120 0.42734396 0.55805767
0.57150388 0.43798932 0.57120568
0.58415484 0.44857535 0.58399534
0.59634292 0.45906928 0.59634829
0.60759926 0.46958879 0.60766441
0.61876404 0.48013690 0.61858183
0.62981403 0.49068978 0.62911683
0.64072597 0.50122350 0.63928574
0.65147680 0.51171410 0.64910477
0.66204327 0.52213776 0.65859020
0.67240214 0.53247058 0.66775823
0.68253034 0.54268855 0.67662513
0.69240463 0.55276787 0.68520725
0.70200181 0.56268460 0.69352078
0.71129870 0.57241488 0.70158195
0.72027212 0.58193469 0.70940709
0.72889894 0.59122026 0.71701247
0.73715585 0.60024762 0.72441423
0.74501979 0.60899282 0.73162872
0.75246745 0.61743206 0.73867220
0.75947577 0.62554139 0.74556094
0.42108169 0.32479659 0.42047787
0.43431699 0.33414707 0.43367553
0.44782814 0.34378082 0.44715756
0.46154958 0.35366368 0.46085995
0.47541583 0.36376154 0.47471872
0.48936135 0.37404025 0.48866975
0.50332063 0.38446563 0.50264901
0.51722819 0.39500362 0.51659256
0.53101850 0.40562004 0.53043622
0.54462606 0.41628075 0.54411602
0.55798531 0.42695165 0.55756795
0.57103074 0.43759856 0.57072794
0.58369690 0.44818735 0.58353192
0.59591830 0.45868388 0.59591591
0.60718662 0.46920112 0.60725522
0.61835515 0.47974864 0.61818707
0.62940979 0.49030176 0.62873584
0.64032727 0.50083661 0.63891792
0.65108442 0.51132923 0.64874953
0.66165805 0.52175575 0.65824693
0.67202502 0.53209233 0.66742635
0.68216211 0.54231495 0.67630410
0.69204611 0.55239981 0.68489641
0.70165390 0.56232291 0.69321948
0.71096230 0.57206047 0.70128971
0.71994799 0.58158845 0.70912319
0.72858799 0.59088308 0.71673638
0.73685890 0.59992033 0.72414535
0.74473768 0.60867637 0.73136646
0.75220114 0.61712730 0.73841596
0.75922602 0.62524921 0.74531007
0.76578915 0.63301820 0.75206506
0.77186739 0.64041030 0.75869727
0.44732693 0.34342179 0.44665727
0.46104181 0.35329607 0.46035269
0.47490388 0.36338663 0.47420684
0.48884764 0.37365928 0.48815560
0.50280762 0.38407990 0.50213498
0.51671821 0.39461434 0.51608092
0.53051400 0.40522847 0.52992946
0.54412943 0.41588816 0.54361641
0.55749899 0.42655927 0.55707783
0.57055718 0.43720767 0.57024968
0.58323842 0.44779921 0.58306795
0.59547728 0.45829976 0.59546852
0.60677385 0.46881351 0.60684556
0.61794615 0.47936034 0.61779177
0.62900537 0.48991367 0.62835437
0.63992828 0.50044960 0.63854969
0.65069175 0.51094425 0.64839387
0.66127259 0.52137363 0.65790325
0.67164755 0.53171390 0.66709411
0.68179351 0.54194117 0.67598265
0.69168729 0.55203152 0.68458515
0.70130563 0.56196100 0.69291788
0.71062541 0.57170582 0.70099711
0.71962345 0.58124191 0.70883906
0.72827649 0.59054554 0.71645999
0.73656142 0.59959269 0.72387618
0.74445504 0.60835952 0.73110396
0.75193417 0.61682206 0.73815942
0.75897563 0.62495649 0.74505901
0.76555616 0.63273889 0.75181884
0.77165264 0.64014530 0.75845522
0.77724189 0.64715183 0.76498449
0.78230071 0.65373462 0.77142274
0.47439206 0.36301196 0.47369507
0.48833397 0.37327853 0.48764151
0.50229448 0.38369429 0.50162089
0.51620811 0.39422515 0.51556921
0.53000927 0.40483698 0.52942240
0.54363245 0.41549560 0.54311651
0.55701226 0.42616689 0.55658734
0.57008302 0.43681672 0.56977099
0.58277935 0.44741097 0.58260339
0.59503561 0.45791546 0.59502041
0.60636103 0.46842593 0.60643530
0.61753702 0.47897208 0.61739594
0.62860078 0.48952559 0.62797242
0.63952917 0.50006258 0.63818091
0.65029889 0.51055914 0.64803773
0.66088682 0.52099138 0.65755916
0.67126977 0.53133535 0.66676146
0.68142456 0.54156721 0.67566079
0.69132799 0.55166298 0.68427354
0.70095694 0.56159884 0.69261593
0.71028811 0.57135081 0.70070416
0.71929836 0.58089507 0.70855457
0.72796452 0.59020764 0.71618336
0.73626345 0.59926468 0.72360682
0.74417186 0.60804224 0.73084116
0.75166661 0.61651641 0.73790276
0.75872457 0.62466335 0.74480772
0.76532251 0.63245910 0.75157243
0.77143717 0.63987976 0.75821310
0.77704549 0.64690143 0.76474595
0.78212422 0.65350026 0.77118731
0.78665024 0.65965229 0.77755344
0.79060024 0.66533363 0.78386050
0.50178134 0.38330886 0.50110674
0.51569784 0.39383611 0.51505738
0.52950430 0.40444553 0.52891523
0.54313523 0.41510305 0.54261625
0.55652505 0.42577448 0.55609649
0.56960839 0.43642572 0.56929183
0.58231962 0.44702259 0.58213824
0.59459329 0.45753101 0.59457171
0.60594803 0.46803838 0.60602456
0.61712772 0.47858381 0.61699963
0.62819600 0.48913750 0.62758994
0.63912976 0.49967551 0.63781166
0.64990574 0.51017398 0.64768118
0.66050076 0.52060902 0.65721464
0.67089170 0.53095663 0.66642839
0.68105531 0.54119307 0.67533857
0.69096839 0.55129427 0.68396157
0.70060784 0.56123644 0.69231361
0.70995033 0.57099563 0.70041090
0.71897286 0.58054793 0.70826977
0.72765207 0.58986944 0.71590644
0.73596489 0.59893626 0.72333717
0.74388808 0.60772455 0.73057818
0.75139850 0.61621034 0.73764580
0.75847292 0.62436968 0.74455631
0.76508820 0.63217878 0.75132585
0.77122104 0.63961369 0.75797081
0.77684844 0.64665049 0.76450735
0.78194708 0.65326524 0.77095181
0.78649378 0.65943414 0.77732038
0.79046541 0.66513324 0.78362936
0.79383874 0.67033857 0.78989500
0.79659057 0.67502630 0.79613352
0.52899903 0.40405416 0.52840775
0.54263759 0.41471049 0.54211575
0.55603749 0.42538202 0.55560517
0.56913328 0.43603459 0.56881213
0.58185935 0.44663408 0.58167255
0.59415025 0.45714635 0.59412235
0.60553491 0.46765089 0.60561323
0.61671823 0.47819555 0.61660278
0.62779105 0.48874936 0.62720692
0.63873017 0.49928838 0.63744199
0.64951235 0.50978875 0.64732414
0.66011447 0.52022648 0.65686965
0.67051333 0.53057778 0.66609484
0.68068570 0.54081869 0.67501599
0.69060838 0.55092531 0.68364924
0.70025831 0.56087375 0.69201094
0.70961219 0.57064009 0.70011735
0.71864682 0.58020043 0.70798469
0.72733915 0.58953089 0.71562922
0.73566586 0.59860754 0.72306722
0.74360377 0.60740644 0.73031497
0.75112981 0.61590379 0.73738867
0.75822067 0.62407559 0.74430466
0.76485318 0.63189799 0.75107914
0.77100426 0.63934708 0.75772834
0.77665061 0.64639890 0.76426864
0.78176910 0.65302968 0.77071613
0.78633654 0.65921539 0.77708721
0.79032975 0.66493213 0.78339809
0.79372549 0.67015612 0.78966504
0.79650062 0.67486334 0.79590434
0.79863197 0.67902988 0.80213219
0.79991287 0.68247259 0.80827463
0.55554950 0.42498955 0.55511355
0.56865764 0.43564343 0.56833202
0.58139849 0.44624549 0.58120632
0.59370655 0.45676157 0.59367239
0.60512167 0.46726343 0.60520136
0.61630863 0.47780731 0.61620539
0.62738591 0.48836121 0.62682343
0.63833034 0.49890119 0.63707179
0.64911872 0.50940341 0.64696664
0.65972787 0.51984388 0.65652430
0.67013460 0.53019881 0.66576099
0.68031573 0.54044420 0.67469299
0.69024807 0.55055618 0.68333656
0.69990838 0.56051081 0.69170797
0.70927358 0.57028431 0.69982344
0.71832037 0.57985264 0.70769930
0.72702569 0.58919197 0.71535176
0.73536623 0.59827834 0.72279704
0.74331892 0.60708791 0.73005152
0.75086045 0.61559677 0.73713136
0.75796777 0.62378097 0.74405283
0.76461756 0.63161665 0.75083220
0.77078676 0.63907993 0.75748575
0.77645212 0.64614683 0.76402974
0.78159040 0.65279347 0.77048039
0.78617853 0.65899599 0.77685404
0.79019326 0.66473043 0.78316683
0.79361141 0.66997290 0.78943509
0.79640979 0.67469954 0.79567510
0.79856527 0.67888647 0.80190307
0.79995143 0.68242007 0.80808473
0.79876578 0.68375939 0.81327575
0.79730415 0.68492019 0.81851721
0.58093703 0.44585675 0.58073950
0.59326220 0.45637661 0.59322172
0.60470831 0.46687603 0.60478896
0.61589885 0.47741911 0.61580753
0.62698060 0.48797303 0.62643945
0.63793033 0.49851397 0.63670111
0.64872491 0.50901794 0.64660865
0.65934104 0.51946115 0.65617841
0.66975564 0.52981961 0.66542667
0.67994547 0.54006946 0.67436957
0.68988734 0.55018681 0.68302345
0.69955808 0.56014770 0.69140464
0.70893455 0.56992823 0.69952923
0.71799350 0.57950455 0.70741361
0.72671175 0.58885270 0.71507400
0.73506612 0.59794885 0.72252661
0.74303347 0.60676903 0.72978783
0.75059056 0.61528933 0.73687381
0.75771427 0.62348592 0.74380082
0.76438135 0.63133484 0.75058514
0.77056861 0.63881224 0.75724304
0.77625287 0.64589411 0.76379073
0.78141099 0.65255666 0.77024454
0.78601974 0.65877593 0.77662069
0.79005599 0.66452801 0.78293544
0.79349649 0.66978908 0.78920507
0.79631811 0.67453510 0.79544586
0.79849762 0.67874229 0.80167395
0.79998964 0.68236738 0.80789489
0.79881436 0.68371332 0.81308377
0.79736269 0.68488061 0.81832367
0.79564643 0.68587303 0.82359993
0.79367733 0.68669403 0.82889801
0.60429484 0.46648869 0.60437602
0.61548895 0.47703087 0.61540908
0.62657511 0.48758486 0.62605500
0.63753015 0.49812669 0.63632995
0.64833081 0.50863248 0.64625025
0.65895391 0.51907831 0.65583217
0.66937631 0.52944034 0.66509193
0.67957479 0.53969461 0.67404580
0.68952620 0.54981720 0.68271005
0.69920737 0.55978429 0.69110090
0.70859504 0.56957185 0.69923466
0.71766609 0.57915610 0.70712763
0.72639728 0.58851314 0.71479595
0.73476547 0.59761894 0.72225595
0.74274749 0.60644972 0.72952390
0.75032008 0.61498147 0.73661602
0.75746012 0.62319040 0.74354857
0.76414442 0.63105255 0.75033790
0.77034974 0.63854396 0.75700015
0.77605295 0.64564085 0.76355165
0.78123081 0.65231925 0.77000862
0.78586024 0.65855527 0.77638733
0.78991795 0.66432494 0.78270406
0.79338074 0.66960448 0.78897506
0.79622555 0.67436987 0.79521656
0.79842907 0.67859733 0.80144489
0.79996818 0.68226284 0.80767626
0.79886258 0.68366694 0.81289190
0.79742086 0.68484080 0.81813014
0.79571414 0.68583953 0.82340533
0.79375416 0.68666679 0.82870287
0.79155272 0.68732613 0.83400816
0.78912157 0.68782121 0.83930665
0.62616944 0.48719665 0.62567002
0.63712966 0.49773934 0.63595831
0.64793646 0.50824690 0.64589143
0.65856647 0.51869535 0.65548545
0.66899669 0.52906090 0.66475677
0.67920387 0.53931952 0.67372161
0.68916476 0.54944742 0.68239623
0.69885629 0.55942065 0.69079685
0.70825517 0.56921524 0.69893980
0.71733826 0.57880741 0.70684129
0.72608238 0.58817321 0.71451765
0.73446435 0.59728867 0.72198498
0.74246097 0.60612994 0.72925973
0.75004905 0.61467320 0.73635805
0.75720537 0.62289441 0.74329621
0.76390684 0.63076973 0.75009048
0.77013022 0.63827521 0.75675708
0.77585226 0.64538705 0.76331240
0.78104991 0.65208125 0.76977253
0.78569990 0.65833396 0.77615386
0.78977907 0.66412121 0.78247255
0.79326415 0.66941923 0.78874499
0.79613209 0.67420399 0.79498726
0.79835963 0.67845160 0.80121577
0.79992360 0.68213820 0.80744672
0.79891038 0.68362039 0.81270009
0.79747868 0.68480074 0.81793672
0.79578143 0.68580586 0.82321078
0.79383057 0.68663937 0.82850778
0.79163784 0.68730479 0.83381301
0.78921491 0.68780583 0.83911198
0.78657365 0.68814605 0.84439009
0.78372580 0.68832898 0.84963280
0.64754188 0.50786120 0.64553207
0.65817881 0.51831228 0.65513831
0.66861677 0.52868128 0.66442126
0.67883259 0.53894430 0.67339706
0.68880296 0.54907739 0.68208206
0.69850475 0.55905676 0.69049251
0.70791483 0.56885839 0.69864464
0.71700996 0.57845837 0.70655471
0.72576696 0.58783293 0.71423900
0.73416263 0.59695804 0.72171378
0.74217385 0.60580987 0.72899532
0.74977738 0.61436445 0.73609984
0.75695002 0.62259793 0.74304360
0.76366860 0.63048637 0.74984288
0.76990998 0.63800591 0.75651389
0.77565092 0.64513266 0.76307297
0.78086823 0.65184265 0.76953638
0.78553879 0.65811205 0.77592027
0.78963935 0.66391683 0.78224105
0.79314673 0.66923326 0.78851485
0.79603779 0.67403734 0.79475796
0.79828930 0.67830515 0.80098671
0.79987806 0.68201280 0.80721730
0.79895782 0.68357360 0.81250834
0.79753608 0.68476045 0.81774330
0.79584849 0.68577194 0.82301629
0.79390675 0.68661171 0.82831264
0.79172266 0.68728328 0.83361787
0.78930801 0.68779027 0.83891732
0.78667456 0.68813634 0.84419650
0.78383410 0.68832499 0.84944069
0.78079844 0.68835992 0.85463542
0.77757925 0.68824470 0.85976607
0.66823655 0.52830154 0.66408527
0.67846096 0.53856885 0.67307210
0.68844074 0.54870719 0.68176752
0.69815290 0.55869257 0.69018775
0.70757407 0.56850117 0.69834912
0.71668118 0.57810909 0.70626783
0.72545105 0.58749229 0.71396011
0.73386043 0.59662700 0.72144234
0.74188620 0.60548931 0.72873068
0.74950516 0.61405528 0.73584139
0.75669408 0.62230098 0.74279082
0.76342976 0.63020259 0.74959511
0.76968908 0.63773608 0.75627059
0.77544886 0.64487773 0.76283348
0.78068584 0.65160346 0.76930010
0.78537691 0.65788949 0.77568668
0.78949887 0.66371179 0.78200942
0.79302847 0.66904658 0.78828466
0.79594260 0.67386991 0.79452866
0.79821807 0.67815787 0.80075765
0.79983163 0.68188661 0.80698782
0.79900491 0.68352652 0.81231666
0.79759318 0.68471992 0.81754994
0.79591513 0.68573779 0.82282180
0.79398251 0.68658382 0.82811755
0.79180717 0.68726152 0.83342272
0.78940082 0.68777448 0.83872265
0.78677517 0.68812639 0.84400278
0.78394216 0.68832082 0.84924859
0.78091341 0.68836135 0.85444534
0.77770078 0.68825155 0.85957861
0.77431601 0.68799508 0.86463374
0.77077085 0.68759555 0.86959618
0.68807822 0.54833680 0.68145257
0.69780058 0.55832821 0.68988264
0.70723289 0.56814373 0.69805324
0.71635199 0.57775944 0.70598060
0.72513467 0.58715135 0.71368098
0.73355776 0.59629565 0.72117060
0.74159801 0.60516840 0.72846580
0.74923229 0.61374563 0.73558277
0.75643748 0.62200356 0.74253780
0.76319027 0.62991828 0.74934715
0.76946753 0.63746578 0.75602710
0.77524608 0.64462221 0.76259387
0.78050274 0.65136367 0.76906371
0.78521430 0.65766627 0.77545291
0.78935760 0.66350609 0.78177774
0.79290938 0.66885924 0.78805447
0.79584658 0.67370182 0.79429930
0.79814595 0.67800993 0.80052853
0.79978430 0.68175960 0.80675840
0.79905164 0.68347925 0.81212509
0.79764992 0.68467915 0.81735665
0.79598147 0.68570346 0.82262731
0.79405802 0.68655568 0.82792246
0.79189134 0.68723953 0.83322752
0.78949326 0.68775851 0.83852792
0.78687555 0.68811625 0.84380907
0.78404993 0.68831640 0.84905636
0.78102815 0.68836254 0.85425520
0.77782208 0.68825823 0.85939109
0.77444345 0.68800706 0.86444932
0.77090400 0.68761271 0.86941540
0.76721549 0.68707877 0.87427473
0.76338977 0.68640876 0.87901270
0.70689130 0.56778604 0.69775707
0.71602231 0.57740951 0.70569307
0.72481781 0.58681005 0.71340150
0.73325449 0.59596390 0.72089863
0.74130929 0.60484701 0.72820067
0.74895895 0.61343563 0.73532391
0.75618029 0.62170571 0.74228460
0.76295012 0.62963343 0.74909902
0.76924527 0.63719487 0.75578344
0.77504259 0.64436615 0.76235408
0.78031886 0.65112329 0.76882720
0.78505087 0.65744245 0.77521908
0.78921551 0.66329974 0.78154600
0.79278946 0.66867119 0.78782421
0.79574966 0.67353296 0.79406995
0.79807293 0.67786115 0.80029947
0.79973596 0.68163180 0.80652905
0.79909796 0.68343168 0.81193352
0.79770631 0.68463814 0.81716341
0.79604739 0.68566883 0.82243288
0.79413313 0.68652731 0.82772738
0.79197526 0.68721730 0.83303237
0.78958547 0.68774229 0.83833319
0.78697562 0.68810594 0.84361529
0.78415740 0.68831182 0.84886408
0.78114265 0.68836349 0.85406500
0.77794319 0.68826467 0.85920340
0.77457064 0.68801886 0.86426479
0.77103692 0.68762970 0.86923450
0.76735371 0.68710083 0.87409800
0.76353282 0.68643576 0.87884074
0.75958604 0.68563813 0.88344806
0.75552505 0.68471158 0.88790536
0.72450042 0.58646846 0.71312177
0.73295075 0.59563178 0.72062635
0.74101996 0.60452533 0.72793531
0.74868494 0.61312515 0.73506480
0.75592244 0.62140739 0.74203122
0.76270932 0.62934810 0.74885076
0.76902235 0.63692343 0.75553966
0.77483839 0.64410949 0.76211417
0.78013426 0.65088230 0.76859063
0.78488672 0.65721804 0.77498519
0.78907257 0.66309273 0.78131419
0.79266870 0.66848248 0.78759390
0.79565191 0.67336345 0.79384053
0.79799902 0.67771167 0.80007035
0.79968679 0.68150324 0.80629963
0.79914391 0.68338388 0.81174207
0.79776227 0.68459690 0.81697023
0.79611301 0.68563396 0.82223850
0.79420793 0.68649876 0.82753235
0.79205883 0.68719488 0.83283716
0.78967732 0.68772584 0.83813840
0.78707540 0.68809539 0.84342146
0.78426462 0.68830699 0.84867173
0.78125691 0.68836433 0.85387468
0.77806401 0.68827093 0.85901564
0.77469766 0.68803048 0.86408013
0.77116966 0.68764657 0.86905348
0.76749170 0.68712270 0.87392116
0.76367569 0.68646258 0.87866855
0.75973332 0.68566978 0.88328111
0.75567633 0.68474793 0.88774425
0.75151658 0.68370056 0.89204329
0.74726582 0.68253130 0.89616382
0.74073011 0.60420316 0.72766966
0.74841040 0.61281425 0.73480552
0.75566405 0.62110859 0.74177766
0.76246792 0.62906229 0.74860227
0.76879877 0.63665152 0.75529569
0.77463353 0.64385229 0.76187414
0.77994889 0.65064073 0.76835388
0.78472173 0.65699297 0.77475125
0.78892893 0.66288501 0.78108233
0.79254717 0.66829306 0.78736359
0.79555333 0.67319316 0.79361111
0.79792422 0.67756140 0.79984128
0.79963660 0.68137389 0.80607033
0.79918951 0.68333590 0.81155068
0.79781795 0.68455541 0.81677705
0.79617834 0.68559891 0.82204413
0.79428244 0.68646997 0.82733732
0.79214203 0.68717217 0.83264202
0.78976893 0.68770921 0.83794361
0.78717488 0.68808460 0.84322757
0.78437161 0.68830192 0.84847933
0.78137094 0.68836486 0.85368425
0.77818465 0.68827701 0.85882777
0.77482444 0.68804193 0.86389530
0.77130216 0.68766320 0.86887228
0.76762956 0.68714440 0.87374413
0.76381838 0.68648928 0.87849623
0.75988042 0.68570125 0.88311398
0.75582749 0.68478405 0.88758284
0.75167131 0.68374127 0.89188820
0.74742365 0.68257642 0.89601552
0.74309635 0.68129319 0.89995021
