Purple_Sky_Major/Purple Sky Major.cube
# VEGAS Pro LUT
TITLE "Purple Sky Major"
LUT_3D_SIZE 5
0.30196080 0.24313726 0.30196080
0.35369119 0.27829084 0.35339630
0.45134428 0.34630346 0.45066777
0.56137747 0.42969716 0.56098747
0.65382588 0.51402158 0.65122664
0.44732693 0.34342179 0.44665727
0.55749899 0.42655927 0.55707783
0.65069175 0.51094425 0.64839387
0.72827649 0.59054554 0.71645999
0.78230071 0.65373462 0.77142274
0.64754188 0.50786120 0.64553207
0.72576696 0.58783293 0.71423900
0.78086823 0.65184265 0.76953638
0.79753608 0.68476045 0.81774330
0.77757925 0.68824470 0.85976607
0.77938849 0.64991248 0.76764309
0.79798269 0.68442953 0.81619799
0.77854502 0.68829399 0.85826355
0.74789661 0.68271089 0.89556921
0.71206474 0.66952384 0.92064804
0.77949566 0.68833053 0.85675460
0.74915290 0.68306226 0.89436769
0.71340495 0.67012233 0.92002863
0.64320940 0.60960513 0.86833930
0.49036434 0.44257551 0.65560812
0.31413266 0.25155213 0.31407848
0.38732845 0.30129546 0.38685727
0.49365810 0.37723401 0.49297103
0.59939998 0.46191484 0.59945416
0.68523139 0.54543376 0.67897755
0.48954815 0.37417883 0.48885670
0.59607846 0.45882353 0.59607846
0.68229604 0.54245085 0.67642087
0.75229806 0.61723816 0.73850918
0.79421341 0.67094719 0.79066813
0.67933881 0.53945595 0.67383957
0.75014764 0.61478531 0.73645186
0.79330665 0.66948664 0.78882861
0.79160690 0.68731260 0.83388400
0.76674932 0.68700314 0.87486792
0.79234642 0.66798162 0.78698653
0.79227763 0.68713462 0.83232260
0.76785469 0.68717957 0.87345409
0.73451900 0.67847979 0.90697873
0.69829798 0.66287911 0.92542964
0.76894802 0.68734413 0.87202996
0.73583347 0.67893344 0.90596670
0.69961178 0.66355395 0.92510450
0.58974415 0.55252808 0.79774219
0.43021160 0.37480053 0.56612045
0.33599710 0.26631570 0.33580825
0.42578226 0.32810804 0.42516407
0.53591251 0.40943176 0.53535384
0.63333368 0.49407509 0.63242090
0.71421617 0.57549548 0.70411932
0.53188932 0.40629652 0.53131104
0.63010788 0.49097198 0.62939364
0.71154314 0.57267243 0.70179433
0.77223670 0.64086676 0.75911492
0.79968435 0.68276834 0.80936396
0.70884198 0.56983107 0.69944894
0.77050894 0.63873911 0.75717682
0.80000001 0.68235296 0.80784315
0.78353816 0.68833542 0.84996438
0.75465596 0.68450022 0.88882405
0.79962277 0.68133849 0.80600774
0.78440076 0.68830055 0.84842682
0.75586867 0.68479389 0.88753879
0.72072202 0.67324555 0.91619700
0.66660875 0.63353801 0.89627612
0.75707251 0.68507671 0.88623941
0.72206235 0.67379153 0.91541445
0.67045307 0.63735938 0.90055329
0.52918917 0.48591194 0.71221328
0.37764433 0.31513646 0.48668563
0.36569506 0.28645918 0.36533287
0.46719360 0.35775986 0.46649945
0.57624841 0.44192800 0.57599896
0.66591436 0.52598560 0.66202986
0.74012232 0.60352838 0.72711349
0.57249141 0.43880618 0.57220304
0.66284776 0.52293617 0.65930647
0.73777503 0.60093063 0.72497565
0.78743458 0.66075289 0.77873868
0.79501545 0.68616647 0.82537013
0.73539352 0.59830832 0.72282165
0.78619295 0.65901595 0.77687520
0.79557216 0.68590921 0.82381225
0.77366388 0.68793106 0.86557066
0.74163330 0.68083823 0.90122062
0.79610711 0.68563718 0.82225615
0.77468610 0.68802947 0.86409694
0.74292117 0.68123925 0.90010387
0.70683962 0.66711032 0.92281020
0.61912239 0.58418453 0.83736402
0.74420315 0.68163037 0.89896917
0.70817363 0.66773880 0.92229706
0.62423092 0.58962411 0.84406972
0.46713969 0.41648614 0.62127846
0.33825776 0.27031276 0.42682967
0.40136746 0.31101394 0.40083513
0.50970340 0.38928217 0.50904620
0.61231667 0.47403169 0.61231267
0.69648403 0.55696803 0.68874240
0.76229191 0.62885416 0.74842143
0.60902375 0.47092825 0.60907364
0.69364017 0.55403775 0.68627840
0.76033384 0.62654722 0.74642617
0.79723364 0.67621833 0.79784191
0.78803110 0.68798149 0.84153390
0.75833541 0.62420934 0.74441904
0.79654163 0.67493749 0.79600853
0.78879672 0.68787253 0.83997881
0.76231813 0.68620169 0.88028896
0.72801542 0.67611921 0.91164374
0.78954357 0.68774968 0.83842170
0.76346785 0.68642348 0.87891895
0.72934616 0.67661780 0.91073549
0.68864065 0.65469217 0.91867894
0.56160134 0.52175009 0.75850648
0.73067409 0.67710739 0.90980536
0.69142479 0.65717763 0.92097914
0.56743431 0.52815855 0.76672149
0.40919092 0.35098010 0.53446376
0.31764707 0.24705882 0.39607844
