Moscow_Major/Moscow Major (HSL Adjust Only).cube
# VEGAS Pro LUT
TITLE "Moscow Major (HSL Adjust Only)"
LUT_3D_SIZE 5
0.00000050 0.00000050 0.00000050
0.25000000 0.20999998 0.00000000
0.50000000 0.41999996 0.00000000
0.75000000 0.62999994 0.00000000
1.00000000 0.83999991 0.00000000
0.00000000 0.25000000 0.21000004
0.03999999 0.25000000 0.00000000
0.33000001 0.50000000 0.00000000
0.62000000 0.75000000 0.00000000
0.90999997 1.00000000 0.00000000
0.00000000 0.50000000 0.42000008
0.00000000 0.50000000 0.16999996
0.07999998 0.50000000 0.00000000
0.37000009 0.75000000 0.00000000
0.66000003 1.00000000 0.00000000
0.00000000 0.75000000 0.63000011
0.00000000 0.75000000 0.38000000
0.00000000 0.75000000 0.13000014
0.11999997 0.75000000 0.00000000
0.41000009 1.00000000 0.00000000
0.00000000 1.00000000 0.84000015
0.00000000 1.00000000 0.59000003
0.00000000 1.00000000 0.33999991
0.00000000 1.00000000 0.09000015
0.15999997 1.00000000 0.00000000
0.21000001 0.00000000 0.25000000
0.25000000 0.00000000 0.03999996
0.50000000 0.17000020 0.00000000
0.75000000 0.37999982 0.00000000
1.00000000 0.59000015 0.00000000
0.00000000 0.04000002 0.25000000
0.25000000 0.25000000 0.25000000
0.50000000 0.45999998 0.25000000
0.75000000 0.66999996 0.25000000
1.00000000 0.87999994 0.25000000
0.00000000 0.32999998 0.50000000
0.25000000 0.50000000 0.46000004
0.28999999 0.50000000 0.25000000
0.58000004 0.75000000 0.25000000
0.87000000 1.00000000 0.25000000
0.00000000 0.62000000 0.75000000
0.25000000 0.75000000 0.67000008
0.25000000 0.75000000 0.41999996
0.32999998 0.75000000 0.25000000
0.62000012 1.00000000 0.25000000
0.00000000 0.91000009 1.00000000
0.25000000 1.00000000 0.88000011
0.25000000 1.00000000 0.63000000
0.25000000 1.00000000 0.38000014
0.36999997 1.00000000 0.25000000
0.42000002 0.00000000 0.50000000
0.50000000 0.00000000 0.33000004
0.50000000 0.00000000 0.07999992
0.75000000 0.13000023 0.00000000
1.00000000 0.34000039 0.00000000
0.17000008 0.00000000 0.50000000
0.46000001 0.25000000 0.50000000
0.50000000 0.25000000 0.28999996
0.75000000 0.42000020 0.25000000
1.00000000 0.62999982 0.25000000
0.00000000 0.08000004 0.50000000
0.25000000 0.29000002 0.50000000
0.50000000 0.50000000 0.50000000
0.75000006 0.71000004 0.49999994
1.00000000 0.91999996 0.50000000
0.00000000 0.36999992 0.75000000
0.25000000 0.57999998 0.75000000
0.49999994 0.75000006 0.71000010
0.53999996 0.75000006 0.49999994
0.83000004 1.00000000 0.50000000
0.00000000 0.65999997 1.00000000
0.25000000 0.87000000 1.00000000
0.50000000 1.00000000 0.92000008
0.50000000 1.00000000 0.66999996
0.57999998 1.00000000 0.50000000
0.63000000 0.00000000 0.75000000
0.75000000 0.00000000 0.61999989
0.75000000 0.00000000 0.37000000
0.75000000 0.00000000 0.11999989
1.00000000 0.08999991 0.00000000
0.38000017 0.00000000 0.75000000
0.67000002 0.25000000 0.75000000
0.75000000 0.25000000 0.58000004
0.75000000 0.25000000 0.32999992
1.00000000 0.38000023 0.25000000
0.13000005 0.00000000 0.75000000
0.42000008 0.25000000 0.75000000
0.71000004 0.49999994 0.75000006
0.75000006 0.49999994 0.53999990
1.00000000 0.67000020 0.50000000
0.00000000 0.12000006 0.75000000
0.25000000 0.33000004 0.75000000
0.49999994 0.53999996 0.75000006
0.75000000 0.75000000 0.75000000
1.00000000 0.95999998 0.75000000
0.00000000 0.40999985 1.00000000
0.25000000 0.61999989 1.00000000
0.50000000 0.82999998 1.00000000
0.75000000 1.00000000 0.96000004
0.78999996 1.00000000 0.75000000
0.84000003 0.00000000 1.00000000
1.00000000 0.00000000 0.90999985
1.00000000 0.00000000 0.66000009
1.00000000 0.00000000 0.40999997
1.00000000 0.00000000 0.15999985
0.58999991 0.00000000 1.00000000
0.88000000 0.25000000 1.00000000
1.00000000 0.25000000 0.86999989
1.00000000 0.25000000 0.62000000
1.00000000 0.25000000 0.36999989
0.34000015 0.00000000 1.00000000
0.63000017 0.25000000 1.00000000
0.92000002 0.50000000 1.00000000
1.00000000 0.50000000 0.83000004
1.00000000 0.50000000 0.57999992
0.09000003 0.00000000 1.00000000
0.38000005 0.25000000 1.00000000
0.67000008 0.50000000 1.00000000
0.96000004 0.75000000 1.00000000
1.00000000 0.75000000 0.78999996
0.00000000 0.16000009 1.00000000
0.25000000 0.37000006 1.00000000
0.50000000 0.58000004 1.00000000
0.75000000 0.79000002 1.00000000
1.00000048 1.00000048 1.00000048
