Moscow_Major/Moscow Major (HSL Adjust Only).cube
# VEGAS Pro LUT
TITLE "Moscow Major (HSL Adjust Only)"
LUT_3D_SIZE 9
0.00000050 0.00000050 0.00000050
0.12500000 0.10499999 0.00000000
0.25000000 0.20999998 0.00000000
0.37500000 0.31499997 0.00000000
0.50000000 0.41999996 0.00000000
0.62500000 0.52499998 0.00000000
0.75000000 0.62999994 0.00000000
0.87500000 0.73499990 0.00000000
1.00000000 0.83999991 0.00000000
0.00000000 0.12500000 0.10500002
0.02000000 0.12500000 0.00000000
0.16500001 0.25000000 0.00000000
0.31000000 0.37500000 0.00000000
0.45499998 0.50000000 0.00000000
0.60000002 0.62500000 0.00000000
0.74500000 0.75000000 0.00000000
0.87500000 0.85999990 0.00000000
1.00000000 0.96499997 0.00000000
0.00000000 0.25000000 0.21000004
0.00000000 0.25000000 0.08499998
0.03999999 0.25000000 0.00000000
0.18500005 0.37500000 0.00000000
0.33000001 0.50000000 0.00000000
0.47500002 0.62500000 0.00000000
0.62000000 0.75000000 0.00000000
0.76499999 0.87500000 0.00000000
0.90999997 1.00000000 0.00000000
0.00000000 0.37500000 0.31500006
0.00000000 0.37500000 0.19000000
0.00000000 0.37500000 0.06500007
0.05999999 0.37500000 0.00000000
0.20500004 0.50000000 0.00000000
0.34999996 0.62500000 0.00000000
0.49500000 0.75000000 0.00000000
0.64000005 0.87500000 0.00000000
0.78499997 1.00000000 0.00000000
0.00000000 0.50000000 0.42000008
0.00000000 0.50000000 0.29500002
0.00000000 0.50000000 0.16999996
0.00000000 0.50000000 0.04500008
0.07999998 0.50000000 0.00000000
0.22499996 0.62500000 0.00000000
0.37000009 0.75000000 0.00000000
0.51500005 0.87500000 0.00000000
0.66000003 1.00000000 0.00000000
0.00000000 0.62500000 0.52500010
0.00000000 0.62500000 0.39999998
0.00000000 0.62500000 0.27500010
0.00000000 0.62500000 0.15000001
0.00000000 0.62500000 0.02500013
0.09999998 0.62500000 0.00000000
0.24500003 0.75000000 0.00000000
0.38999996 0.87500000 0.00000000
0.53499997 1.00000000 0.00000000
0.00000000 0.75000000 0.63000011
0.00000000 0.75000000 0.50500005
0.00000000 0.75000000 0.38000000
0.00000000 0.75000000 0.25499994
0.00000000 0.75000000 0.13000014
0.00000000 0.75000000 0.00500008
0.11999997 0.75000000 0.00000000
0.26499996 0.87500000 0.00000000
0.41000009 1.00000000 0.00000000
0.00000000 0.87500000 0.73500013
0.00000000 0.87500000 0.61000001
0.00000000 0.87500000 0.48500013
0.00000000 0.87500000 0.36000001
0.00000000 0.87500000 0.23500016
0.00000000 0.87500000 0.11000001
0.01499982 0.87500000 0.00000000
0.13999997 0.87500000 0.00000000
0.28499985 1.00000000 0.00000000
0.00000000 1.00000000 0.84000015
0.00000000 1.00000000 0.71499991
0.00000000 1.00000000 0.59000003
0.00000000 1.00000000 0.46500015
0.00000000 1.00000000 0.33999991
0.00000000 1.00000000 0.21500003
0.00000000 1.00000000 0.09000015
0.03500009 1.00000000 0.00000000
0.15999997 1.00000000 0.00000000
0.10500000 0.00000000 0.12500000
0.12500000 0.00000000 0.01999998
0.25000000 0.08500010 0.00000000
0.37500000 0.18999991 0.00000000
0.50000000 0.29500008 0.00000000
0.62500000 0.40000007 0.00000000
0.75000000 0.50500041 0.00000000
0.87500000 0.61000037 0.00000000
1.00000000 0.71500039 0.00000000
0.00000000 0.02000001 0.12500000
0.12500000 0.12500000 0.12500000
0.25000000 0.22999999 0.12500000
0.37500000 0.33499998 0.12500000
0.50000000 0.43999997 0.12500000
0.62500000 0.54499996 0.12500000
0.75000000 0.64999998 0.12500000
0.87500000 0.75499994 0.12500000
1.00000000 0.85999990 0.12500000
0.00000000 0.16499999 0.25000000
0.12500000 0.25000000 0.23000002
0.14500000 0.25000000 0.12500000
0.29000002 0.37500000 0.12500000
0.43500000 0.50000000 0.12500000
0.57999998 0.62500000 0.12500000
0.72500002 0.75000000 0.12500000
0.87000000 0.87500000 0.12500000
1.00000000 0.98499990 0.12500000
0.00000000 0.31000000 0.37500000
0.12500000 0.37500000 0.33500004
0.12500000 0.37500000 0.20999998
0.16499999 0.37500000 0.12500000
0.31000006 0.50000000 0.12500000
0.45500001 0.62500000 0.12500000
0.60000002 0.75000000 0.12500000
0.74500000 0.87500000 0.12500000
0.88999999 1.00000000 0.12500000
0.00000000 0.45500004 0.50000000
0.12500000 0.50000000 0.44000006
0.12500000 0.50000000 0.31500000
0.12500000 0.50000000 0.19000007
0.18499999 0.50000000 0.12500000
0.33000004 0.62500000 0.12500000
0.47499996 0.75000000 0.12500000
0.62000000 0.87500000 0.12500000
0.76500005 1.00000000 0.12500000
0.00000000 0.60000002 0.62500000
0.12500000 0.62500000 0.54500008
0.12500000 0.62500000 0.42000002
0.12500000 0.62500000 0.29499996
0.12500000 0.62500000 0.17000008
0.20499998 0.62500000 0.12500000
0.34999996 0.75000000 0.12500000
0.49500009 0.87500000 0.12500000
0.64000005 1.00000000 0.12500000
0.00000000 0.74500012 0.75000000
0.12500000 0.75000000 0.65000010
0.12500000 0.75000000 0.52499998
0.12500000 0.75000000 0.40000010
0.12500000 0.75000000 0.27500001
0.12500000 0.75000000 0.15000013
0.22499998 0.75000000 0.12500000
0.37000003 0.87500000 0.12500000
0.51499999 1.00000000 0.12500000
0.00000000 0.87500000 0.85999995
0.12500000 0.87500000 0.75500011
0.12500000 0.87500000 0.63000005
0.12500000 0.87500000 0.50500000
0.12500000 0.87500000 0.37999994
0.12500000 0.87500000 0.25500014
0.12500000 0.87500000 0.13000008
0.24499997 0.87500000 0.12500000
0.38999996 1.00000000 0.12500000
0.00000000 1.00000000 0.96500003
0.12500000 1.00000000 0.86000013
0.12500000 1.00000000 0.73500001
0.12500000 1.00000000 0.61000013
0.12500000 1.00000000 0.48500001
0.12500000 1.00000000 0.36000016
0.12500000 1.00000000 0.23500001
0.13999982 1.00000000 0.12500000
0.26499999 1.00000000 0.12500000
0.21000001 0.00000000 0.25000000
0.25000000 0.00000000 0.16500002
0.25000000 0.00000000 0.03999996
0.37500000 0.06500012 0.00000000
0.50000000 0.17000020 0.00000000
0.62500000 0.27500018 0.00000000
0.75000000 0.37999982 0.00000000
0.87500000 0.48500025 0.00000000
1.00000000 0.59000015 0.00000000
0.08500004 0.00000000 0.25000000
0.23000000 0.12500000 0.25000000
0.25000000 0.12500000 0.14499998
0.37500000 0.21000010 0.12500000
0.50000000 0.31499991 0.12500000
0.62500000 0.42000008 0.12500000
0.75000000 0.52500010 0.12500000
0.87500000 0.63000041 0.12500000
1.00000000 0.73500037 0.12500000
0.00000000 0.04000002 0.25000000
0.12500000 0.14500001 0.25000000
0.25000000 0.25000000 0.25000000
0.37500000 0.35499999 0.25000000
0.50000000 0.45999998 0.25000000
0.62500000 0.56499994 0.25000000
0.75000000 0.66999996 0.25000000
0.87500000 0.77499998 0.25000000
1.00000000 0.87999994 0.25000000
0.00000000 0.18499996 0.37500000
0.12500000 0.28999999 0.37500000
0.25000000 0.37500000 0.35500002
0.26999998 0.37500000 0.25000000
0.41500002 0.50000000 0.25000000
0.56000000 0.62500000 0.25000000
0.70499998 0.75000000 0.25000000
0.85000002 0.87500000 0.25000000
0.99500000 1.00000000 0.25000000
0.00000000 0.32999998 0.50000000
0.12500000 0.43500000 0.50000000
0.25000000 0.50000000 0.46000004
0.25000000 0.50000000 0.33499998
0.28999999 0.50000000 0.25000000
0.43500006 0.62500000 0.25000000
0.58000004 0.75000000 0.25000000
0.72500002 0.87500000 0.25000000
0.87000000 1.00000000 0.25000000
0.00000000 0.47499990 0.62500000
0.12500000 0.58000004 0.62500000
0.25000000 0.62500000 0.56500006
0.25000000 0.62500000 0.44000000
0.25000000 0.62500000 0.31500006
0.31000000 0.62500000 0.25000000
0.45500004 0.75000000 0.25000000
0.59999996 0.87500000 0.25000000
0.74500000 1.00000000 0.25000000
0.00000000 0.62000000 0.75000000
0.12500000 0.72500002 0.75000000
0.25000000 0.75000000 0.67000008
0.25000000 0.75000000 0.54500002
0.25000000 0.75000000 0.41999996
0.25000000 0.75000000 0.29500008
0.32999998 0.75000000 0.25000000
0.47499996 0.87500000 0.25000000
0.62000012 1.00000000 0.25000000
0.00000000 0.76500022 0.87500000
0.12500000 0.87000012 0.87500000
0.25000000 0.87500000 0.77500010
0.25000000 0.87500000 0.64999998
0.25000000 0.87500000 0.52500010
0.25000000 0.87500000 0.40000001
0.25000000 0.87500000 0.27500013
0.34999996 0.87500000 0.25000000
0.49500003 1.00000000 0.25000000
0.00000000 0.91000009 1.00000000
0.12500000 1.00000000 0.98499995
0.25000000 1.00000000 0.88000011
0.25000000 1.00000000 0.75500005
0.25000000 1.00000000 0.63000000
0.25000000 1.00000000 0.50499994
0.25000000 1.00000000 0.38000014
0.25000000 1.00000000 0.25500008
0.36999997 1.00000000 0.25000000
0.31500000 0.00000000 0.37500000
0.37500000 0.00000000 0.30999994
0.37500000 0.00000000 0.18500000
0.37500000 0.00000000 0.05999994
0.50000000 0.04499996 0.00000000
0.62500000 0.15000030 0.00000000
0.75000000 0.25500029 0.00000000
0.87500000 0.36000010 0.00000000
1.00000000 0.46499991 0.00000000
0.19000009 0.00000000 0.37500000
0.33500001 0.12500000 0.37500000
0.37500000 0.12500000 0.29000002
0.37500000 0.12500000 0.16499996
0.50000000 0.19000012 0.12500000
0.62500000 0.29500020 0.12500000
0.75000000 0.40000018 0.12500000
0.87500000 0.50499982 0.12500000
1.00000000 0.61000025 0.12500000
0.06500003 0.00000000 0.37500000
0.21000004 0.12500000 0.37500000
0.35500002 0.25000000 0.37500000
0.37500000 0.25000000 0.26999998
0.50000000 0.33500010 0.25000000
0.62500000 0.43999991 0.25000000
0.75000000 0.54500008 0.25000000
0.87500000 0.65000010 0.25000000
1.00000000 0.75500041 0.25000000
0.00000000 0.06000003 0.37500000
0.12500000 0.16500002 0.37500000
0.25000000 0.27000001 0.37500000
0.37500000 0.37500000 0.37500000
0.50000000 0.47999999 0.37500000
0.62500000 0.58499998 0.37500000
0.75000000 0.68999994 0.37500000
0.87500006 0.79500002 0.37499994
1.00000000 0.89999998 0.37500000
0.00000000 0.20499992 0.50000000
0.12500000 0.30999994 0.50000000
0.25000000 0.41499999 0.50000000
0.37500000 0.50000000 0.48000002
0.39499998 0.50000000 0.37500000
0.54000002 0.62500000 0.37500000
0.68500000 0.75000000 0.37500000
0.83000004 0.87500006 0.37499994
0.97500002 1.00000000 0.37500000
0.00000000 0.35000002 0.62500000
0.12500000 0.45499998 0.62500000
0.25000000 0.56000000 0.62500000
0.37500000 0.62500000 0.58500004
0.37500000 0.62500000 0.45999998
0.41499999 0.62500000 0.37500000
0.56000006 0.75000000 0.37500000
0.70500004 0.87500006 0.37499994
0.85000002 1.00000000 0.37500000
0.00000000 0.49499997 0.75000000
0.12500000 0.59999990 0.75000000
0.25000000 0.70500004 0.75000000
0.37500000 0.75000000 0.69000006
0.37500000 0.75000000 0.56500000
0.37500000 0.75000000 0.44000006
0.43500000 0.75000000 0.37500000
0.58000004 0.87500006 0.37499994
0.72499996 1.00000000 0.37500000
0.00000000 0.64000005 0.87500000
0.12500000 0.74500000 0.87500000
0.25000000 0.85000002 0.87500000
0.37499994 0.87500006 0.79500014
0.37499994 0.87500006 0.67000002
0.37499994 0.87500006 0.54499996
0.37499994 0.87500006 0.42000002
0.45499995 0.87500006 0.37499994
0.59999996 1.00000000 0.37500000
0.00000000 0.78499985 1.00000000
0.12500000 0.89000022 1.00000000
0.25000000 0.99500012 1.00000000
0.37500000 1.00000000 0.90000010
0.37500000 1.00000000 0.77499998
0.37500000 1.00000000 0.65000010
0.37500000 1.00000000 0.52499998
0.37500000 1.00000000 0.40000013
0.47499996 1.00000000 0.37500000
0.42000002 0.00000000 0.50000000
0.50000000 0.00000000 0.45499992
0.50000000 0.00000000 0.33000004
0.50000000 0.00000000 0.20499998
0.50000000 0.00000000 0.07999992
0.62500000 0.02499998 0.00000000
0.75000000 0.13000023 0.00000000
0.87500000 0.23500058 0.00000000
1.00000000 0.34000039 0.00000000
0.29499996 0.00000000 0.50000000
0.44000000 0.12500000 0.50000000
0.50000000 0.12500000 0.43499994
0.50000000 0.12500000 0.31000000
0.50000000 0.12500000 0.18499994
0.62500000 0.16999996 0.12500000
0.75000000 0.27500030 0.12500000
0.87500000 0.38000029 0.12500000
1.00000000 0.48500010 0.12500000
0.17000008 0.00000000 0.50000000
0.31500009 0.12500000 0.50000000
0.46000001 0.25000000 0.50000000
0.50000000 0.25000000 0.41500002
0.50000000 0.25000000 0.28999996
0.62500000 0.31500012 0.25000000
0.75000000 0.42000020 0.25000000
0.87500000 0.52500021 0.25000000
1.00000000 0.62999982 0.25000000
0.04500002 0.00000000 0.50000000
0.19000003 0.12500000 0.50000000
0.33500004 0.25000000 0.50000000
0.48000002 0.37500000 0.50000000
0.50000000 0.37500000 0.39499998
0.62500000 0.46000010 0.37500000
0.75000000 0.56499994 0.37500000
0.87500006 0.67000008 0.37499994
1.00000000 0.77500010 0.37500000
0.00000000 0.08000004 0.50000000
0.12500000 0.18500003 0.50000000
0.25000000 0.29000002 0.50000000
0.37500000 0.39500001 0.50000000
0.50000000 0.50000000 0.50000000
0.62500000 0.60500002 0.50000000
0.75000006 0.71000004 0.49999994
0.87500000 0.81499994 0.50000000
1.00000000 0.91999996 0.50000000
0.00000000 0.22499993 0.62500000
0.12500000 0.32999992 0.62500000
0.25000000 0.43499994 0.62500000
0.37500000 0.53999996 0.62500000
0.50000000 0.62500000 0.60500002
0.51999998 0.62500000 0.50000000
0.66500002 0.75000006 0.49999994
0.81000000 0.87500000 0.50000000
0.95499998 1.00000000 0.50000000
0.00000000 0.36999992 0.75000000
0.12500000 0.47500002 0.75000000
0.25000000 0.57999998 0.75000000
0.37500000 0.68500000 0.75000000
0.49999994 0.75000006 0.71000010
0.49999994 0.75000006 0.58499998
0.53999996 0.75000006 0.49999994
0.68500006 0.87500000 0.50000000
0.83000004 1.00000000 0.50000000
0.00000000 0.51499987 0.87500000
0.12500000 0.62000000 0.87500000
0.25000000 0.72499990 0.87500000
0.37499994 0.83000010 0.87500006
0.50000000 0.87500000 0.81500006
0.50000000 0.87500000 0.69000000
0.50000000 0.87500000 0.56500006
0.56000000 0.87500000 0.50000000
0.70500004 1.00000000 0.50000000
0.00000000 0.65999997 1.00000000
0.12500000 0.76500005 1.00000000
0.25000000 0.87000000 1.00000000
0.37500000 0.97500002 1.00000000
0.50000000 1.00000000 0.92000008
0.50000000 1.00000000 0.79500002
0.50000000 1.00000000 0.66999996
0.50000000 1.00000000 0.54500008
0.57999998 1.00000000 0.50000000
0.52500004 0.00000000 0.62500000
0.62500000 0.00000000 0.60000008
0.62500000 0.00000000 0.47499999
0.62500000 0.00000000 0.35000011
0.62500000 0.00000000 0.22499979
0.62500000 0.00000000 0.09999990
0.75000000 0.00500017 0.00000000
0.87500000 0.10999981 0.00000000
1.00000000 0.21500015 0.00000000
0.39999992 0.00000000 0.62500000
0.54500002 0.12500000 0.62500000
0.62500000 0.12500000 0.57999992
0.62500000 0.12500000 0.45500004
0.62500000 0.12500000 0.32999998
0.62500000 0.12500000 0.20499992
0.75000000 0.14999998 0.12500000
0.87500000 0.25500023 0.12500000
1.00000000 0.36000058 0.12500000
0.27500004 0.00000000 0.62500000
0.41999996 0.12500000 0.62500000
0.56500000 0.25000000 0.62500000
0.62500000 0.25000000 0.55999994
0.62500000 0.25000000 0.43500000
0.62500000 0.25000000 0.30999994
0.75000000 0.29499996 0.25000000
0.87500000 0.40000030 0.25000000
1.00000000 0.50500029 0.25000000
0.15000015 0.00000000 0.62500000
0.29500008 0.12500000 0.62500000
0.44000009 0.25000000 0.62500000
0.58500004 0.37500000 0.62500000
0.62500000 0.37500000 0.54000002
0.62500000 0.37500000 0.41499996
0.75000000 0.44000012 0.37500000
0.87500006 0.54500020 0.37499994
1.00000000 0.65000021 0.37500000
0.02500005 0.00000000 0.62500000
0.17000002 0.12500000 0.62500000
0.31500003 0.25000000 0.62500000
0.46000004 0.37500000 0.62500000
0.60500002 0.50000000 0.62500000
0.62500000 0.50000000 0.51999998
0.75000006 0.58500010 0.49999994
0.87500000 0.68999994 0.50000000
1.00000000 0.79500008 0.50000000
0.00000000 0.10000005 0.62500000
0.12500000 0.20500004 0.62500000
0.25000000 0.31000003 0.62500000
0.37500000 0.41500002 0.62500000
0.50000000 0.51999998 0.62500000
0.62500000 0.62500000 0.62500000
0.75000000 0.73000002 0.62500000
0.87500000 0.83499998 0.62500000
1.00000000 0.93999994 0.62500000
0.00000000 0.24500012 0.75000000
0.12500000 0.34999993 0.75000000
0.25000000 0.45499992 0.75000000
0.37500000 0.55999994 0.75000000
0.49999994 0.66500002 0.75000006
0.62500000 0.75000000 0.73000002
0.64499998 0.75000000 0.62500000
0.79000002 0.87500000 0.62500000
0.93500000 1.00000000 0.62500000
0.00000000 0.39000005 0.87500000
0.12500000 0.49499992 0.87500000
0.25000000 0.60000002 0.87500000
0.37499994 0.70499998 0.87500006
0.50000000 0.81000000 0.87500000
0.62500000 0.87500000 0.83500004
0.62500000 0.87500000 0.70999998
0.66499996 0.87500000 0.62500000
0.81000006 1.00000000 0.62500000
0.00000000 0.53500009 1.00000000
0.12500000 0.63999987 1.00000000
0.25000000 0.74500000 1.00000000
0.37500000 0.84999990 1.00000000
0.50000000 0.95500004 1.00000000
0.62500000 1.00000000 0.94000006
0.62500000 1.00000000 0.81500000
0.62500000 1.00000000 0.69000006
0.68500000 1.00000000 0.62500000
0.63000000 0.00000000 0.75000000
0.75000000 0.00000000 0.74500018
0.75000000 0.00000000 0.61999989
0.75000000 0.00000000 0.49500006
0.75000000 0.00000000 0.37000000
0.75000000 0.00000000 0.24499995
0.75000000 0.00000000 0.11999989
0.87500000 0.00000000 0.01500003
1.00000000 0.08999991 0.00000000
0.50500023 0.00000000 0.75000000
0.65000004 0.12500000 0.75000000
0.75000000 0.12500000 0.72500008
0.75000000 0.12500000 0.60000002
0.75000000 0.12500000 0.47500011
0.75000000 0.12500000 0.34999979
0.75000000 0.12500000 0.22499990
0.87500000 0.13000017 0.12500000
1.00000000 0.23499981 0.12500000
0.38000017 0.00000000 0.75000000
0.52499992 0.12500000 0.75000000
0.67000002 0.25000000 0.75000000
0.75000000 0.25000000 0.70499992
0.75000000 0.25000000 0.58000004
0.75000000 0.25000000 0.45499998
0.75000000 0.25000000 0.32999992
0.87500000 0.27499998 0.25000000
1.00000000 0.38000023 0.25000000
0.25500011 0.00000000 0.75000000
0.40000004 0.12500000 0.75000000
0.54499996 0.25000000 0.75000000
0.69000000 0.37500000 0.75000000
0.75000000 0.37500000 0.68499994
0.75000000 0.37500000 0.56000000
0.75000000 0.37500000 0.43499994
0.87500006 0.41999990 0.37499994
1.00000000 0.52500033 0.37500000
0.13000005 0.00000000 0.75000000
0.27500015 0.12500000 0.75000000
0.42000008 0.25000000 0.75000000
0.56500006 0.37500000 0.75000000
0.71000004 0.49999994 0.75000006
0.75000006 0.49999994 0.66500002
0.75000006 0.49999994 0.53999990
0.87500000 0.56500012 0.50000000
1.00000000 0.67000020 0.50000000
0.00500000 0.00000000 0.75000000
0.15000005 0.12500000 0.75000000
0.29500002 0.25000000 0.75000000
0.44000003 0.37500000 0.75000000
0.58500004 0.49999994 0.75000006
0.73000002 0.62500000 0.75000000
0.75000000 0.62500000 0.64499998
0.87500000 0.71000010 0.62500000
1.00000000 0.81499994 0.62500000
0.00000000 0.12000006 0.75000000
0.12500000 0.22500005 0.75000000
0.25000000 0.33000004 0.75000000
0.37500000 0.43500003 0.75000000
0.49999994 0.53999996 0.75000006
0.62500000 0.64499998 0.75000000
0.75000000 0.75000000 0.75000000
0.87500006 0.85500002 0.74999994
1.00000000 0.95999998 0.75000000
0.00000000 0.26499993 0.87500000
0.12500000 0.37000012 0.87500000
0.25000000 0.47499993 0.87500000
0.37499994 0.57999992 0.87500006
0.50000000 0.68499994 0.87500000
0.62500000 0.78999996 0.87500000
0.74999994 0.87500006 0.85500008
0.76999998 0.87500006 0.74999994
0.91500002 1.00000000 0.75000000
0.00000000 0.40999985 1.00000000
0.12500000 0.51500005 1.00000000
0.25000000 0.61999989 1.00000000
0.37500000 0.72500002 1.00000000
0.50000000 0.82999998 1.00000000
0.62500000 0.93500000 1.00000000
0.75000000 1.00000000 0.96000004
0.75000000 1.00000000 0.83499998
0.78999996 1.00000000 0.75000000
0.73500001 0.00000000 0.87500000
0.85999990 0.00000000 0.87500000
0.87500000 0.00000000 0.76499999
0.87500000 0.00000000 0.64000016
0.87500000 0.00000000 0.51500034
0.87500000 0.00000000 0.38999987
0.87500000 0.00000000 0.26500002
0.87500000 0.00000000 0.13999987
1.00000000 0.00000000 0.03499997
0.61000019 0.00000000 0.87500000
0.75500000 0.12500000 0.87500000
0.87500000 0.12500000 0.87000018
0.87500000 0.12500000 0.74499989
0.87500000 0.12500000 0.62000006
0.87500000 0.12500000 0.49500000
0.87500000 0.12500000 0.36999995
0.87500000 0.12500000 0.24499989
1.00000000 0.12500000 0.14000003
0.48500004 0.00000000 0.87500000
0.63000023 0.12500000 0.87500000
0.77500004 0.25000000 0.87500000
0.87500000 0.25000000 0.85000008
0.87500000 0.25000000 0.72500002
0.87500000 0.25000000 0.60000014
0.87500000 0.25000000 0.47499979
0.87500000 0.25000000 0.34999990
1.00000000 0.25500017 0.25000000
0.35999990 0.00000000 0.87500000
0.50500017 0.12500000 0.87500000
0.64999992 0.25000000 0.87500000
0.79500008 0.37499994 0.87500006
0.87500006 0.37499994 0.82999998
0.87500006 0.37499994 0.70500004
0.87500006 0.37499994 0.57999998
0.87500006 0.37499994 0.45499989
1.00000000 0.39999998 0.37500000
0.23500006 0.00000000 0.87500000
0.38000011 0.12500000 0.87500000
0.52500004 0.25000000 0.87500000
0.66999996 0.37499994 0.87500006
0.81500000 0.50000000 0.87500000
0.87500000 0.50000000 0.80999994
0.87500000 0.50000000 0.68500000
0.87500000 0.50000000 0.55999994
1.00000000 0.54499996 0.50000000
0.11000022 0.00000000 0.87500000
0.25500005 0.12500000 0.87500000
0.40000015 0.25000000 0.87500000
0.54500008 0.37499994 0.87500006
0.69000006 0.50000000 0.87500000
0.83500004 0.62500000 0.87500000
0.87500000 0.62500000 0.79000002
0.87500000 0.62500000 0.66499996
1.00000000 0.69000012 0.62500000
0.00000000 0.01499993 0.87500000
0.13000000 0.12500000 0.87500000
0.27500004 0.25000000 0.87500000
0.41999996 0.37499994 0.87500006
0.56500006 0.50000000 0.87500000
0.71000004 0.62500000 0.87500000
0.85500002 0.74999994 0.87500006
0.87500006 0.74999994 0.76999992
1.00000000 0.83500010 0.75000000
0.00000000 0.14000008 0.87500000
0.12500000 0.24500006 0.87500000
0.25000000 0.35000005 0.87500000
0.37499994 0.45500001 0.87500006
0.50000000 0.56000006 0.87500000
0.62500000 0.66500002 0.87500000
0.74999994 0.76999998 0.87500006
0.87500000 0.87500000 0.87500000
1.00000000 0.98000002 0.87500000
0.00000000 0.28499997 1.00000000
0.12500000 0.38999993 1.00000000
0.25000000 0.49500012 1.00000000
0.37500000 0.59999990 1.00000000
0.50000000 0.70499992 1.00000000
0.62500000 0.80999994 1.00000000
0.75000000 0.91499996 1.00000000
0.87500000 1.00000000 0.98000002
0.89499998 1.00000000 0.87500000
0.84000003 0.00000000 1.00000000
0.96499991 0.00000000 1.00000000
1.00000000 0.00000000 0.90999985
1.00000000 0.00000000 0.78499997
1.00000000 0.00000000 0.66000009
1.00000000 0.00000000 0.53499985
1.00000000 0.00000000 0.40999997
1.00000000 0.00000000 0.28500009
1.00000000 0.00000000 0.15999985
0.71500015 0.00000000 1.00000000
0.86000001 0.12500000 1.00000000
0.98499990 0.12500000 1.00000000
1.00000000 0.12500000 0.88999999
1.00000000 0.12500000 0.76500016
1.00000000 0.12500000 0.64000034
1.00000000 0.12500000 0.51499987
1.00000000 0.12500000 0.39000002
1.00000000 0.12500000 0.26499987
0.58999991 0.00000000 1.00000000
0.73500019 0.12500000 1.00000000
0.88000000 0.25000000 1.00000000
1.00000000 0.25000000 0.99500018
1.00000000 0.25000000 0.86999989
1.00000000 0.25000000 0.74500006
1.00000000 0.25000000 0.62000000
1.00000000 0.25000000 0.49499995
1.00000000 0.25000000 0.36999989
0.46500003 0.00000000 1.00000000
0.61000001 0.12500000 1.00000000
0.75500023 0.25000000 1.00000000
0.90000004 0.37500000 1.00000000
1.00000000 0.37500000 0.97500008
1.00000000 0.37500000 0.85000002
1.00000000 0.37500000 0.72500014
1.00000000 0.37500000 0.59999979
1.00000000 0.37500000 0.47499990
0.34000015 0.00000000 1.00000000
0.48499990 0.12500000 1.00000000
0.63000017 0.25000000 1.00000000
0.77499992 0.37500000 1.00000000
0.92000002 0.50000000 1.00000000
1.00000000 0.50000000 0.95499992
1.00000000 0.50000000 0.83000004
1.00000000 0.50000000 0.70499998
1.00000000 0.50000000 0.57999992
0.21499991 0.00000000 1.00000000
0.36000007 0.12500000 1.00000000
0.50500011 0.25000000 1.00000000
0.65000004 0.37500000 1.00000000
0.79499996 0.50000000 1.00000000
0.94000000 0.62500000 1.00000000
1.00000000 0.62500000 0.93499994
1.00000000 0.62500000 0.81000000
1.00000000 0.62500000 0.68499994
0.09000003 0.00000000 1.00000000
0.23500022 0.12500000 1.00000000
0.38000005 0.25000000 1.00000000
0.52500015 0.37500000 1.00000000
0.67000008 0.50000000 1.00000000
0.81500006 0.62500000 1.00000000
0.96000004 0.75000000 1.00000000
1.00000000 0.75000000 0.91500002
1.00000000 0.75000000 0.78999996
0.00000000 0.03499985 1.00000000
0.12500000 0.13999993 1.00000000
0.25500000 0.25000000 1.00000000
0.40000004 0.37500000 1.00000000
0.54500002 0.50000000 1.00000000
0.69000006 0.62500000 1.00000000
0.83500004 0.75000000 1.00000000
0.98000002 0.87500000 1.00000000
1.00000000 0.87500000 0.89499998
0.00000000 0.16000009 1.00000000
0.12500000 0.26500008 1.00000000
0.25000000 0.37000006 1.00000000
0.37500000 0.47500005 1.00000000
0.50000000 0.58000004 1.00000000
0.62500000 0.68500006 1.00000000
0.75000000 0.79000002 1.00000000
0.87500000 0.89499998 1.00000000
1.00000048 1.00000048 1.00000048
