Moscow_Major/Moscow Major (HSL Adjust Only).cube
# VEGAS Pro LUT
TITLE "Moscow Major (HSL Adjust Only)"
LUT_3D_SIZE 33
0.00000050 0.00000050 0.00000050
0.03125000 0.02625000 0.00000000
0.06250000 0.05249999 0.00000000
0.09375000 0.07874999 0.00000000
0.12500000 0.10499999 0.00000000
0.15625000 0.13124999 0.00000000
0.18750000 0.15749998 0.00000000
0.21875000 0.18374997 0.00000000
0.25000000 0.20999998 0.00000000
0.28125000 0.23624998 0.00000000
0.31250000 0.26249999 0.00000000
0.34375000 0.28874996 0.00000000
0.37500000 0.31499997 0.00000000
0.40625000 0.34124997 0.00000000
0.43750000 0.36749995 0.00000000
0.46875000 0.39374995 0.00000000
0.50000000 0.41999996 0.00000000
0.53125000 0.44624996 0.00000000
0.56250000 0.47249997 0.00000000
0.59375000 0.49874994 0.00000000
0.62500000 0.52499998 0.00000000
0.65625000 0.55124992 0.00000000
0.68750000 0.57749993 0.00000000
0.71875000 0.60374993 0.00000000
0.75000000 0.62999994 0.00000000
0.78125000 0.65624994 0.00000000
0.81250000 0.68249995 0.00000000
0.84375000 0.70874995 0.00000000
0.87500000 0.73499990 0.00000000
0.90625000 0.76124990 0.00000000
0.93750000 0.78749990 0.00000000
0.96875000 0.81374991 0.00000000
1.00000000 0.83999991 0.00000000
0.00000000 0.03125000 0.02625000
0.00500000 0.03125000 0.00000000
0.04125000 0.06250000 0.00000000
0.07750000 0.09375000 0.00000000
0.11375000 0.12500000 0.00000000
0.15000001 0.15625000 0.00000000
0.18625000 0.18750000 0.00000000
0.21875000 0.21499997 0.00000000
0.25000000 0.24124999 0.00000000
0.28125000 0.26750001 0.00000000
0.31250000 0.29374999 0.00000000
0.34375000 0.31999999 0.00000000
0.37500000 0.34625000 0.00000000
0.40625000 0.37249997 0.00000000
0.43750000 0.39875001 0.00000000
0.46875000 0.42499995 0.00000000
0.50000000 0.45125002 0.00000000
0.53125000 0.47749999 0.00000000
0.56250000 0.50374997 0.00000000
0.59375000 0.52999997 0.00000000
0.62500000 0.55625004 0.00000000
0.65625000 0.58249998 0.00000000
0.68750000 0.60874999 0.00000000
0.71875000 0.63499999 0.00000000
0.75000000 0.66124994 0.00000000
0.78125000 0.68750006 0.00000000
0.81250000 0.71375000 0.00000000
0.84375000 0.74000001 0.00000000
0.87500000 0.76624995 0.00000000
0.90625000 0.79250002 0.00000000
0.93750000 0.81875002 0.00000000
0.96875000 0.84500009 0.00000000
1.00000000 0.87124997 0.00000000
0.00000000 0.06250000 0.05250001
0.00000000 0.06250000 0.02124999
0.01000000 0.06250000 0.00000000
0.04625001 0.09375000 0.00000000
0.08250000 0.12500000 0.00000000
0.11875001 0.15625000 0.00000000
0.15500000 0.18750000 0.00000000
0.19125000 0.21875000 0.00000000
0.22749999 0.25000000 0.00000000
0.26375002 0.28125000 0.00000000
0.30000001 0.31250000 0.00000000
0.33625004 0.34375000 0.00000000
0.37250000 0.37500000 0.00000000
0.40625000 0.40375000 0.00000000
0.43750000 0.42999995 0.00000000
0.46875000 0.45624995 0.00000000
0.50000000 0.48249999 0.00000000
0.53125000 0.50875002 0.00000000
0.56250000 0.53500003 0.00000000
0.59375000 0.56125003 0.00000000
0.62500000 0.58749998 0.00000000
0.65625000 0.61375004 0.00000000
0.68750000 0.63999999 0.00000000
0.71875000 0.66624999 0.00000000
0.75000000 0.69250000 0.00000000
0.78125000 0.71875000 0.00000000
0.81250000 0.74499995 0.00000000
0.84375000 0.77125007 0.00000000
0.87500000 0.79750001 0.00000000
0.90625000 0.82374996 0.00000000
0.93750000 0.84999990 0.00000000
0.96875000 0.87625003 0.00000000
1.00000000 0.90250003 0.00000000
0.00000000 0.09375000 0.07875001
0.00000000 0.09375000 0.04750000
0.00000000 0.09375000 0.01625002
0.01500000 0.09375000 0.00000000
0.05125001 0.12500000 0.00000000
0.08749999 0.15625000 0.00000000
0.12375000 0.18750000 0.00000000
0.16000001 0.21875000 0.00000000
0.19624999 0.25000000 0.00000000
0.23250000 0.28125000 0.00000000
0.26875001 0.31250000 0.00000000
0.30500001 0.34375000 0.00000000
0.34125000 0.37500000 0.00000000
0.37750000 0.40625000 0.00000000
0.41374999 0.43750000 0.00000000
0.45000005 0.46875000 0.00000000
0.48624998 0.50000000 0.00000000
0.52249998 0.53125000 0.00000000
0.55875003 0.56250000 0.00000000
0.59375000 0.59250003 0.00000000
0.62500000 0.61874998 0.00000000
0.65625000 0.64499998 0.00000000
0.68750000 0.67124999 0.00000000
0.71875000 0.69749999 0.00000000
0.75000000 0.72375000 0.00000000
0.78125000 0.75000000 0.00000000
0.81250000 0.77625000 0.00000000
0.84375000 0.80250001 0.00000000
0.87500000 0.82875001 0.00000000
0.90625000 0.85499996 0.00000000
0.93750000 0.88125002 0.00000000
0.96875000 0.90750003 0.00000000
1.00000000 0.93375003 0.00000000
0.00000000 0.12500000 0.10500002
0.00000000 0.12500000 0.07375000
0.00000000 0.12500000 0.04249999
0.00000000 0.12500000 0.01125002
0.02000000 0.12500000 0.00000000
0.05624999 0.15625000 0.00000000
0.09250002 0.18750000 0.00000000
0.12875001 0.21875000 0.00000000
0.16500001 0.25000000 0.00000000
0.20125000 0.28125000 0.00000000
0.23750001 0.31250000 0.00000000
0.27375001 0.34375000 0.00000000
0.31000000 0.37500000 0.00000000
0.34625000 0.40625000 0.00000000
0.38249999 0.43750000 0.00000000
0.41875002 0.46875000 0.00000000
0.45499998 0.50000000 0.00000000
0.49125001 0.53125000 0.00000000
0.52750003 0.56250000 0.00000000
0.56374997 0.59375000 0.00000000
0.60000002 0.62500000 0.00000000
0.63625002 0.65625000 0.00000000
0.67250007 0.68750000 0.00000000
0.70875001 0.71875000 0.00000000
0.74500000 0.75000000 0.00000000
0.78125000 0.78125000 0.00000000
0.81250000 0.80750000 0.00000000
0.84375000 0.83375001 0.00000000
0.87500000 0.85999990 0.00000000
0.90625000 0.88625002 0.00000000
0.93750000 0.91249990 0.00000000
0.96875000 0.93874997 0.00000000
1.00000000 0.96499997 0.00000000
0.00000000 0.15625000 0.13125002
0.00000000 0.15625000 0.09999999
0.00000000 0.15625000 0.06875002
0.00000000 0.15625000 0.03750000
0.00000000 0.15625000 0.00625003
0.02499999 0.15625000 0.00000000
0.06125001 0.18750000 0.00000000
0.09749999 0.21875000 0.00000000
0.13374999 0.25000000 0.00000000
0.16999999 0.28125000 0.00000000
0.20625001 0.31250000 0.00000000
0.24249999 0.34375000 0.00000000
0.27875003 0.37500000 0.00000000
0.31500000 0.40625000 0.00000000
0.35124999 0.43750000 0.00000000
0.38750002 0.46875000 0.00000000
0.42375001 0.50000000 0.00000000
0.46000001 0.53125000 0.00000000
0.49625000 0.56250000 0.00000000
0.53250003 0.59375000 0.00000000
0.56874996 0.62500000 0.00000000
0.60500002 0.65625000 0.00000000
0.64125001 0.68750000 0.00000000
0.67749995 0.71875000 0.00000000
0.71375000 0.75000000 0.00000000
0.74999994 0.78125000 0.00000000
0.78625000 0.81250000 0.00000000
0.82249999 0.84375000 0.00000000
0.85875005 0.87500000 0.00000000
0.89499998 0.90625000 0.00000000
0.93124998 0.93750000 0.00000000
0.96749997 0.96875000 0.00000000
1.00000000 0.99625003 0.00000000
0.00000000 0.18750000 0.15750003
0.00000000 0.18750000 0.12625001
0.00000000 0.18750000 0.09500000
0.00000000 0.18750000 0.06374998
0.00000000 0.18750000 0.03250004
0.00000000 0.18750000 0.00125002
0.02999999 0.18750000 0.00000000
0.06624999 0.21875000 0.00000000
0.10250002 0.25000000 0.00000000
0.13875003 0.28125000 0.00000000
0.17499998 0.31250000 0.00000000
0.21125002 0.34375000 0.00000000
0.24750000 0.37500000 0.00000000
0.28375000 0.40625000 0.00000000
0.32000002 0.43750000 0.00000000
0.35625002 0.46875000 0.00000000
0.39249998 0.50000000 0.00000000
0.42875001 0.53125000 0.00000000
0.46500000 0.56250000 0.00000000
0.50125003 0.59375000 0.00000000
0.53750002 0.62500000 0.00000000
0.57375002 0.65625000 0.00000000
0.61000001 0.68750000 0.00000000
0.64624995 0.71875000 0.00000000
0.68250000 0.75000000 0.00000000
0.71874994 0.78125000 0.00000000
0.75500000 0.81250000 0.00000000
0.79125005 0.84375000 0.00000000
0.82749999 0.87500000 0.00000000
0.86374998 0.90625000 0.00000000
0.90000010 0.93750000 0.00000000
0.93624991 0.96875000 0.00000000
0.97249997 1.00000000 0.00000000
0.00000000 0.21875000 0.18375003
0.00000000 0.21875000 0.15250000
0.00000000 0.21875000 0.12125003
0.00000000 0.21875000 0.09000000
0.00000000 0.21875000 0.05875004
0.00000000 0.21875000 0.02750000
0.00374996 0.21875000 0.00000000
0.03499999 0.21875000 0.00000000
0.07124996 0.25000000 0.00000000
0.10749996 0.28125000 0.00000000
0.14375001 0.31250000 0.00000000
0.17999999 0.34375000 0.00000000
0.21625000 0.37500000 0.00000000
0.25250000 0.40625000 0.00000000
0.28875002 0.43750000 0.00000000
0.32500002 0.46875000 0.00000000
0.36124998 0.50000000 0.00000000
0.39750001 0.53125000 0.00000000
0.43374997 0.56250000 0.00000000
0.46999997 0.59375000 0.00000000
0.50625002 0.62500000 0.00000000
0.54250002 0.65625000 0.00000000
0.57875001 0.68750000 0.00000000
0.61500001 0.71875000 0.00000000
0.65125000 0.75000000 0.00000000
0.68750000 0.78125000 0.00000000
0.72375000 0.81250000 0.00000000
0.76000005 0.84375000 0.00000000
0.79625005 0.87500000 0.00000000
0.83249998 0.90625000 0.00000000
0.86875004 0.93750000 0.00000000
0.90499997 0.96875000 0.00000000
0.94125003 1.00000000 0.00000000
0.00000000 0.25000000 0.21000004
0.00000000 0.25000000 0.17874998
0.00000000 0.25000000 0.14750001
0.00000000 0.25000000 0.11625004
0.00000000 0.25000000 0.08499998
0.00000000 0.25000000 0.05375001
0.00000000 0.25000000 0.02250004
0.00875002 0.25000000 0.00000000
0.03999999 0.25000000 0.00000000
0.07624997 0.28125000 0.00000000
0.11249998 0.31250000 0.00000000
0.14875002 0.34375000 0.00000000
0.18500005 0.37500000 0.00000000
0.22125001 0.40625000 0.00000000
0.25750002 0.43750000 0.00000000
0.29375002 0.46875000 0.00000000
0.33000001 0.50000000 0.00000000
0.36625001 0.53125000 0.00000000
0.40250000 0.56250000 0.00000000
0.43875000 0.59375000 0.00000000
0.47500002 0.62500000 0.00000000
0.51125002 0.65625000 0.00000000
0.54750001 0.68750000 0.00000000
0.58375001 0.71875000 0.00000000
0.62000000 0.75000000 0.00000000
0.65625000 0.78125000 0.00000000
0.69250000 0.81250000 0.00000000
0.72874999 0.84375000 0.00000000
0.76499999 0.87500000 0.00000000
0.80124998 0.90625000 0.00000000
0.83750004 0.93750000 0.00000000
0.87374997 0.96875000 0.00000000
0.90999997 1.00000000 0.00000000
0.00000000 0.28125000 0.23625004
0.00000000 0.28125000 0.20499995
0.00000000 0.28125000 0.17374998
0.00000000 0.28125000 0.14250000
0.00000000 0.28125000 0.11125001
0.00000000 0.28125000 0.08000004
0.00000000 0.28125000 0.04875005
0.00000000 0.28125000 0.01749997
0.01375001 0.28125000 0.00000000
0.04499999 0.28125000 0.00000000
0.08124996 0.31250000 0.00000000
0.11749999 0.34375000 0.00000000
0.15375003 0.37500000 0.00000000
0.18999998 0.40625000 0.00000000
0.22625002 0.43750000 0.00000000
0.26250002 0.46875000 0.00000000
0.29874998 0.50000000 0.00000000
0.33499998 0.53125000 0.00000000
0.37125000 0.56250000 0.00000000
0.40750000 0.59375000 0.00000000
0.44374999 0.62500000 0.00000000
0.48000002 0.65625000 0.00000000
0.51625001 0.68750000 0.00000000
0.55250001 0.71875000 0.00000000
0.58875000 0.75000000 0.00000000
0.62500000 0.78125000 0.00000000
0.66125000 0.81250000 0.00000000
0.69749999 0.84375000 0.00000000
0.73375005 0.87500000 0.00000000
0.76999998 0.90625000 0.00000000
0.80625004 0.93750000 0.00000000
0.84250003 0.96875000 0.00000000
0.87874997 1.00000000 0.00000000
0.00000000 0.31250000 0.26250005
0.00000000 0.31250000 0.23125008
0.00000000 0.31250000 0.19999999
0.00000000 0.31250000 0.16875002
0.00000000 0.31250000 0.13750005
0.00000000 0.31250000 0.10624997
0.00000000 0.31250000 0.07500000
0.00000000 0.31250000 0.04375003
0.00000000 0.31250000 0.01250006
0.01875002 0.31250000 0.00000000
0.04999999 0.31250000 0.00000000
0.08624996 0.34375000 0.00000000
0.12250002 0.37500000 0.00000000
0.15875006 0.40625000 0.00000000
0.19499998 0.43750000 0.00000000
0.23125006 0.46875000 0.00000000
0.26749998 0.50000000 0.00000000
0.30375001 0.53125000 0.00000000
0.33999997 0.56250000 0.00000000
0.37624997 0.59375000 0.00000000
0.41250002 0.62500000 0.00000000
0.44875002 0.65625000 0.00000000
0.48499998 0.68750000 0.00000000
0.52125001 0.71875000 0.00000000
0.55750006 0.75000000 0.00000000
0.59374994 0.78125000 0.00000000
0.63000000 0.81250000 0.00000000
0.66624993 0.84375000 0.00000000
0.70249999 0.87500000 0.00000000
0.73875004 0.90625000 0.00000000
0.77500004 0.93750000 0.00000000
0.81124997 0.96875000 0.00000000
0.84750003 1.00000000 0.00000000
0.00000000 0.34375000 0.28875005
0.00000000 0.34375000 0.25750008
0.00000000 0.34375000 0.22624999
0.00000000 0.34375000 0.19500002
0.00000000 0.34375000 0.16375005
0.00000000 0.34375000 0.13249996
0.00000000 0.34375000 0.10124999
0.00000000 0.34375000 0.07000002
0.00000000 0.34375000 0.03875005
0.00000000 0.34375000 0.00750007
0.02375002 0.34375000 0.00000000
0.05499999 0.34375000 0.00000000
0.09125000 0.37500000 0.00000000
0.12749998 0.40625000 0.00000000
0.16374993 0.43750000 0.00000000
0.19999997 0.46875000 0.00000000
0.23625001 0.50000000 0.00000000
0.27249998 0.53125000 0.00000000
0.30875000 0.56250000 0.00000000
0.34499997 0.59375000 0.00000000
0.38125005 0.62500000 0.00000000
0.41749996 0.65625000 0.00000000
0.45375001 0.68750000 0.00000000
0.49000001 0.71875000 0.00000000
0.52625000 0.75000000 0.00000000
0.56250000 0.78125000 0.00000000
0.59875000 0.81250000 0.00000000
0.63499999 0.84375000 0.00000000
0.67124999 0.87500000 0.00000000
0.70749992 0.90625000 0.00000000
0.74375004 0.93750000 0.00000000
0.77999997 0.96875000 0.00000000
0.81624997 1.00000000 0.00000000
0.00000000 0.37500000 0.31500006
0.00000000 0.37500000 0.28375006
0.00000000 0.37500000 0.25250003
0.00000000 0.37500000 0.22125001
0.00000000 0.37500000 0.19000000
0.00000000 0.37500000 0.15874998
0.00000000 0.37500000 0.12749997
0.00000000 0.37500000 0.09625009
0.00000000 0.37500000 0.06500007
0.00000000 0.37500000 0.03375006
0.00000000 0.37500000 0.00250004
0.02874997 0.37500000 0.00000000
0.05999999 0.37500000 0.00000000
0.09624998 0.40625000 0.00000000
0.13249998 0.43750000 0.00000000
0.16875006 0.46875000 0.00000000
0.20500004 0.50000000 0.00000000
0.24125007 0.53125000 0.00000000
0.27750006 0.56250000 0.00000000
0.31375000 0.59375000 0.00000000
0.34999996 0.62500000 0.00000000
0.38625002 0.65625000 0.00000000
0.42250004 0.68750000 0.00000000
0.45875001 0.71875000 0.00000000
0.49500000 0.75000000 0.00000000
0.53125000 0.78125000 0.00000000
0.56750000 0.81250000 0.00000000
0.60374999 0.84375000 0.00000000
0.64000005 0.87500000 0.00000000
0.67625004 0.90625000 0.00000000
0.71250004 0.93750000 0.00000000
0.74875003 0.96875000 0.00000000
0.78499997 1.00000000 0.00000000
0.00000000 0.40625000 0.34125006
0.00000000 0.40625000 0.31000000
0.00000000 0.40625000 0.27875006
0.00000000 0.40625000 0.24750000
0.00000000 0.40625000 0.21625006
0.00000000 0.40625000 0.18500000
0.00000000 0.40625000 0.15375008
0.00000000 0.40625000 0.12250000
0.00000000 0.40625000 0.09125008
0.00000000 0.40625000 0.06000001
0.00000000 0.40625000 0.02875008
0.00249999 0.40625000 0.00000000
0.03374992 0.40625000 0.00000000
0.06499998 0.40625000 0.00000000
0.10125002 0.43750000 0.00000000
0.13749999 0.46875000 0.00000000
0.17374998 0.50000000 0.00000000
0.20999998 0.53125000 0.00000000
0.24624999 0.56250000 0.00000000
0.28250000 0.59375000 0.00000000
0.31874999 0.62500000 0.00000000
0.35499996 0.65625000 0.00000000
0.39125001 0.68750000 0.00000000
0.42750004 0.71875000 0.00000000
0.46375000 0.75000000 0.00000000
0.50000006 0.78125000 0.00000000
0.53625000 0.81250000 0.00000000
0.57249999 0.84375000 0.00000000
0.60875005 0.87500000 0.00000000
0.64499998 0.90625000 0.00000000
0.68125004 0.93750000 0.00000000
0.71749997 0.96875000 0.00000000
0.75375003 1.00000000 0.00000000
0.00000000 0.43750000 0.36750007
0.00000000 0.43750000 0.33625004
0.00000000 0.43750000 0.30500001
0.00000000 0.43750000 0.27375013
0.00000000 0.43750000 0.24250007
0.00000000 0.43750000 0.21125004
0.00000000 0.43750000 0.18000001
0.00000000 0.43750000 0.14874996
0.00000000 0.43750000 0.11750008
0.00000000 0.43750000 0.08625004
0.00000000 0.43750000 0.05500001
0.00000000 0.43750000 0.02374997
0.00749991 0.43750000 0.00000000
0.03874995 0.43750000 0.00000000
0.06999999 0.43750000 0.00000000
0.10624998 0.46875000 0.00000000
0.14249992 0.50000000 0.00000000
0.17874998 0.53125000 0.00000000
0.21499991 0.56250000 0.00000000
0.25125003 0.59375000 0.00000000
0.28750002 0.62500000 0.00000000
0.32375008 0.65625000 0.00000000
0.35999998 0.68750000 0.00000000
0.39625004 0.71875000 0.00000000
0.43250000 0.75000000 0.00000000
0.46875000 0.78125000 0.00000000
0.50500000 0.81250000 0.00000000
0.54125005 0.84375000 0.00000000
0.57750005 0.87500000 0.00000000
0.61374998 0.90625000 0.00000000
0.65000004 0.93750000 0.00000000
0.68624997 0.96875000 0.00000000
0.72249997 1.00000000 0.00000000
0.00000000 0.46875000 0.39375007
0.00000000 0.46875000 0.36249998
0.00000000 0.46875000 0.33125007
0.00000000 0.46875000 0.29999998
0.00000000 0.46875000 0.26875007
0.00000000 0.46875000 0.23750000
0.00000000 0.46875000 0.20625009
0.00000000 0.46875000 0.17500000
0.00000000 0.46875000 0.14375009
0.00000000 0.46875000 0.11250000
0.00000000 0.46875000 0.08125009
0.00000000 0.46875000 0.05000001
0.00000000 0.46875000 0.01875009
0.01249999 0.46875000 0.00000000
0.04374990 0.46875000 0.00000000
0.07499999 0.46875000 0.00000000
0.11125004 0.50000000 0.00000000
0.14749998 0.53125000 0.00000000
0.18375003 0.56250000 0.00000000
0.21999992 0.59375000 0.00000000
0.25625005 0.62500000 0.00000000
0.29249996 0.65625000 0.00000000
0.32875001 0.68750000 0.00000000
0.36500004 0.71875000 0.00000000
0.40124997 0.75000000 0.00000000
0.43749994 0.78125000 0.00000000
0.47375003 0.81250000 0.00000000
0.50999999 0.84375000 0.00000000
0.54624999 0.87500000 0.00000000
0.58249998 0.90625000 0.00000000
0.61875004 0.93750000 0.00000000
0.65500003 0.96875000 0.00000000
0.69124997 1.00000000 0.00000000
0.00000000 0.50000000 0.42000008
0.00000000 0.50000000 0.38875002
0.00000000 0.50000000 0.35749996
0.00000000 0.50000000 0.32625008
0.00000000 0.50000000 0.29500002
0.00000000 0.50000000 0.26374996
0.00000000 0.50000000 0.23250008
0.00000000 0.50000000 0.20125002
0.00000000 0.50000000 0.16999996
0.00000000 0.50000000 0.13875008
0.00000000 0.50000000 0.10750002
0.00000000 0.50000000 0.07624996
0.00000000 0.50000000 0.04500008
0.00000000 0.50000000 0.01375002
0.01750004 0.50000000 0.00000000
0.04874992 0.50000000 0.00000000
0.07999998 0.50000000 0.00000000
0.11624998 0.53125000 0.00000000
0.15249994 0.56250000 0.00000000
0.18875004 0.59375000 0.00000000
0.22499996 0.62500000 0.00000000
0.26124996 0.65625000 0.00000000
0.29750004 0.68750000 0.00000000
0.33375004 0.71875000 0.00000000
0.37000009 0.75000000 0.00000000
0.40625000 0.78125000 0.00000000
0.44250003 0.81250000 0.00000000
0.47874999 0.84375000 0.00000000
0.51500005 0.87500000 0.00000000
0.55124998 0.90625000 0.00000000
0.58750004 0.93750000 0.00000000
0.62375003 0.96875000 0.00000000
0.66000003 1.00000000 0.00000000
0.00000000 0.53125000 0.44625008
0.00000000 0.53125000 0.41499999
0.00000000 0.53125000 0.38375008
0.00000000 0.53125000 0.35249999
0.00000000 0.53125000 0.32125008
0.00000000 0.53125000 0.28999999
0.00000000 0.53125000 0.25875008
0.00000000 0.53125000 0.22749999
0.00000000 0.53125000 0.19625010
0.00000000 0.53125000 0.16500001
0.00000000 0.53125000 0.13375010
0.00000000 0.53125000 0.10250001
0.00000000 0.53125000 0.07125010
0.00000000 0.53125000 0.04000001
0.00000000 0.53125000 0.00875011
0.02249999 0.53125000 0.00000000
0.05374989 0.53125000 0.00000000
0.08499998 0.53125000 0.00000000
0.12125006 0.56250000 0.00000000
0.15749995 0.59375000 0.00000000
0.19374989 0.62500000 0.00000000
0.22999997 0.65625000 0.00000000
0.26625007 0.68750000 0.00000000
0.30249992 0.71875000 0.00000000
0.33874995 0.75000000 0.00000000
0.37500000 0.78125000 0.00000000
0.41125003 0.81250000 0.00000000
0.44750002 0.84375000 0.00000000
0.48375008 0.87500000 0.00000000
0.51999998 0.90625000 0.00000000
0.55625004 0.93750000 0.00000000
0.59249997 0.96875000 0.00000000
0.62874997 1.00000000 0.00000000
0.00000000 0.56250000 0.47250009
0.00000000 0.56250000 0.44125000
0.00000000 0.56250000 0.40999991
0.00000000 0.56250000 0.37875003
0.00000000 0.56250000 0.34749997
0.00000000 0.56250000 0.31625009
0.00000000 0.56250000 0.28500000
0.00000000 0.56250000 0.25375012
0.00000000 0.56250000 0.22250003
0.00000000 0.56250000 0.19124995
0.00000000 0.56250000 0.16000007
0.00000000 0.56250000 0.12875000
0.00000000 0.56250000 0.09750011
0.00000000 0.56250000 0.06625003
0.00000000 0.56250000 0.03499994
0.00000000 0.56250000 0.00375006
0.02750002 0.56250000 0.00000000
0.05874990 0.56250000 0.00000000
0.08999998 0.56250000 0.00000000
0.12624997 0.59375000 0.00000000
0.16249992 0.62500000 0.00000000
0.19874997 0.65625000 0.00000000
0.23499998 0.68750000 0.00000000
0.27124995 0.71875000 0.00000000
0.30750006 0.75000000 0.00000000
0.34375006 0.78125000 0.00000000
0.37999997 0.81250000 0.00000000
0.41625011 0.84375000 0.00000000
0.45250005 0.87500000 0.00000000
0.48875001 0.90625000 0.00000000
0.52500004 0.93750000 0.00000000
0.56124991 0.96875000 0.00000000
0.59749997 1.00000000 0.00000000
0.00000000 0.59375000 0.49875009
0.00000000 0.59375000 0.46750000
0.00000000 0.59375000 0.43624991
0.00000000 0.59375000 0.40500003
0.00000000 0.59375000 0.37375015
0.00000000 0.59375000 0.34250006
0.00000000 0.59375000 0.31124997
0.00000000 0.59375000 0.28000009
0.00000000 0.59375000 0.24874999
0.00000000 0.59375000 0.21750011
0.00000000 0.59375000 0.18625000
0.00000000 0.59375000 0.15500012
0.00000000 0.59375000 0.12375003
0.00000000 0.59375000 0.09249994
0.00000000 0.59375000 0.06125006
0.00000000 0.59375000 0.02999997
0.00124991 0.59375000 0.00000000
0.03250001 0.59375000 0.00000000
0.06374989 0.59375000 0.00000000
0.09499998 0.59375000 0.00000000
0.13124995 0.62500000 0.00000000
0.16749997 0.65625000 0.00000000
0.20374990 0.68750000 0.00000000
0.23999995 0.71875000 0.00000000
0.27624992 0.75000000 0.00000000
0.31250006 0.78125000 0.00000000
0.34875003 0.81250000 0.00000000
0.38499996 0.84375000 0.00000000
0.42124999 0.87500000 0.00000000
0.45750004 0.90625000 0.00000000
0.49375004 0.93750000 0.00000000
0.52999997 0.96875000 0.00000000
0.56625003 1.00000000 0.00000000
0.00000000 0.62500000 0.52500010
0.00000000 0.62500000 0.49375013
0.00000000 0.62500000 0.46250015
0.00000000 0.62500000 0.43124998
0.00000000 0.62500000 0.39999998
0.00000000 0.62500000 0.36875004
0.00000000 0.62500000 0.33750004
0.00000000 0.62500000 0.30625010
0.00000000 0.62500000 0.27500010
0.00000000 0.62500000 0.24374992
0.00000000 0.62500000 0.21249995
0.00000000 0.62500000 0.18124998
0.00000000 0.62500000 0.15000001
0.00000000 0.62500000 0.11875004
0.00000000 0.62500000 0.08750007
0.00000000 0.62500000 0.05625010
0.00000000 0.62500000 0.02500013
0.00625007 0.62500000 0.00000000
0.03750004 0.62500000 0.00000000
0.06875001 0.62500000 0.00000000
0.09999998 0.62500000 0.00000000
0.13624997 0.65625000 0.00000000
0.17249992 0.68750000 0.00000000
0.20874995 0.71875000 0.00000000
0.24500003 0.75000000 0.00000000
0.28124997 0.78125000 0.00000000
0.31750011 0.81250000 0.00000000
0.35374999 0.84375000 0.00000000
0.38999996 0.87500000 0.00000000
0.42624995 0.90625000 0.00000000
0.46250013 0.93750000 0.00000000
0.49874997 0.96875000 0.00000000
0.53499997 1.00000000 0.00000000
0.00000000 0.65625000 0.55125010
0.00000000 0.65625000 0.51999998
0.00000000 0.65625000 0.48875010
0.00000000 0.65625000 0.45749998
0.00000000 0.65625000 0.42625010
0.00000000 0.65625000 0.39499998
0.00000000 0.65625000 0.36375010
0.00000000 0.65625000 0.33249998
0.00000000 0.65625000 0.30125010
0.00000000 0.65625000 0.27000001
0.00000000 0.65625000 0.23875012
0.00000000 0.65625000 0.20750001
0.00000000 0.65625000 0.17625013
0.00000000 0.65625000 0.14500001
0.00000000 0.65625000 0.11375013
0.00000000 0.65625000 0.08250001
0.00000000 0.65625000 0.05125013
0.00000000 0.65625000 0.02000001
0.01124987 0.65625000 0.00000000
0.04249998 0.65625000 0.00000000
0.07374986 0.65625000 0.00000000
0.10499997 0.65625000 0.00000000
0.14124995 0.68750000 0.00000000
0.17749996 0.71875000 0.00000000
0.21374989 0.75000000 0.00000000
0.24999985 0.78125000 0.00000000
0.28624988 0.81250000 0.00000000
0.32249987 0.84375000 0.00000000
0.35875008 0.87500000 0.00000000
0.39500004 0.90625000 0.00000000
0.43125004 0.93750000 0.00000000
0.46750003 0.96875000 0.00000000
