Wrecked_X/Wrecked X (Invert + HSL Adjust).cube
# VEGAS Pro LUT
TITLE "Wrecked X (Invert + HSL Adjust)"
LUT_3D_SIZE 33
1.00000048 1.00000048 1.00000048
0.99011481 0.95312500 1.01562500
0.98022962 0.90625000 1.03125000
0.97034436 0.85937500 1.04687500
0.96045917 0.81250000 1.06250000
0.95057398 0.76562500 1.07812500
0.94068873 0.71875000 1.09375000
0.93080354 0.67187500 1.10937500
0.92091835 0.62500000 1.12500000
0.91103315 0.57812500 1.14062500
0.90114796 0.53125000 1.15625000
0.89126271 0.48437500 1.17187500
0.88137752 0.43750000 1.18750000
0.87149233 0.39062500 1.20312500
0.86160707 0.34375000 1.21875000
0.85172188 0.29687500 1.23437500
0.84183669 0.25000000 1.25000000
0.83195150 0.20312500 1.26562500
0.82206631 0.15625000 1.28125000
0.81218106 0.10937500 1.29687500
0.80229586 0.06250000 1.31250000
0.79241067 0.01562500 1.32812500
0.78252542 -0.03125000 1.34375000
0.77264023 -0.07812500 1.35937500
0.76275504 -0.12500000 1.37500000
0.75286984 -0.17187500 1.39062500
0.74298465 -0.21875000 1.40625000
0.73309940 -0.26562500 1.42187500
0.72321421 -0.31250000 1.43750000
0.71332902 -0.35937500 1.45312500
0.70344377 -0.40625000 1.46875000
0.69355857 -0.45312500 1.48437500
0.68367338 -0.50000000 1.50000000
1.01562500 0.99011481 0.95312500
1.01562500 0.95312500 0.97863519
1.03125000 0.90625000 1.01977038
1.03284442 0.85937500 1.04687500
1.02295923 0.81250000 1.06250000
1.01307404 0.76562500 1.07812500
1.00318885 0.71875000 1.09375000
0.99330366 0.67187500 1.10937500
0.98341846 0.62500000 1.12500000
0.97353327 0.57812500 1.14062500
0.96364784 0.53125000 1.15625000
0.95376265 0.48437500 1.17187500
0.94387758 0.43750000 1.18750000
0.93399245 0.39062500 1.20312500
0.92410719 0.34375000 1.21875000
0.91422206 0.29687500 1.23437500
0.90433681 0.25000000 1.25000000
0.89445168 0.20312500 1.26562500
0.88456643 0.15625000 1.28125000
0.87468123 0.10937500 1.29687500
0.86479580 0.06250000 1.31250000
0.85491091 0.01562500 1.32812500
0.84502542 -0.03125000 1.34375000
0.83514023 -0.07812500 1.35937500
0.82525533 -0.12500000 1.37500000
0.81536978 -0.17187500 1.39062500
0.80548447 -0.21875000 1.40625000
0.79560000 -0.26562500 1.42187500
0.78571463 -0.31250000 1.43750000
0.77582914 -0.35937500 1.45312500
0.76594394 -0.40625000 1.46875000
0.75605851 -0.45312500 1.48437500
0.74617386 -0.50000000 1.50000000
1.03125000 0.98022962 0.90625000
1.03125000 0.91772962 0.90625000
1.03125000 0.90625000 0.95727038
1.04687500 0.85937500 0.99840558
1.06250000 0.81250000 1.03954077
1.07557404 0.76562500 1.07812500
1.06568885 0.71875000 1.09375000
1.05580366 0.67187500 1.10937500
1.04591846 0.62500000 1.12500000
1.03603327 0.57812500 1.14062500
1.02614808 0.53125000 1.15625000
1.01626289 0.48437500 1.17187500
1.00637758 0.43750000 1.18750000
0.99649262 0.39062500 1.20312500
0.98660725 0.34375000 1.21875000
0.97672224 0.29687500 1.23437500
0.96683693 0.25000000 1.25000000
0.95695186 0.20312500 1.26562500
0.94706661 0.15625000 1.28125000
0.93718147 0.10937500 1.29687500
0.92729574 0.06250000 1.31250000
0.91741109 0.01562500 1.32812500
0.90752530 -0.03125000 1.34375000
0.89764023 -0.07812500 1.35937500
0.88775510 -0.12500000 1.37500000
0.87786973 -0.17187500 1.39062500
0.86798489 -0.21875000 1.40625000
0.85809934 -0.26562500 1.42187500
0.84821439 -0.31250000 1.43750000
0.83832932 -0.35937500 1.45312500
0.82844412 -0.40625000 1.46875000
0.81855845 -0.45312500 1.48437500
0.80867362 -0.50000000 1.50000000
1.04687500 0.97034442 0.85937500
1.04687500 0.90784442 0.85937500
1.04687500 0.85937500 0.87340558
1.04687500 0.85937500 0.93590558
1.06250000 0.81250000 0.97704083
1.07812500 0.76562500 1.01817596
1.09375000 0.71875000 1.05931115
1.10937500 0.67187500 1.10044634
1.10841835 0.62500000 1.12500000
1.09853327 0.57812500 1.14062500
1.08864796 0.53125000 1.15625000
1.07876277 0.48437500 1.17187500
1.06887758 0.43750000 1.18750000
1.05899239 0.39062500 1.20312500
1.04910731 0.34375000 1.21875000
1.03922200 0.29687500 1.23437500
1.02933669 0.25000000 1.25000000
1.01945162 0.20312500 1.26562500
1.00956631 0.15625000 1.28125000
0.99968123 0.10937500 1.29687500
0.98979616 0.06250000 1.31250000
0.97991085 0.01562500 1.32812500
0.97002578 -0.03125000 1.34375000
0.96014023 -0.07812500 1.35937500
0.95025539 -0.12500000 1.37500000
0.94036967 -0.17187500 1.39062500
0.93048477 -0.21875000 1.40625000
0.92059994 -0.26562500 1.42187500
0.91071475 -0.31250000 1.43750000
0.90082943 -0.35937500 1.45312500
0.89094365 -0.40625000 1.46875000
0.88105839 -0.45312500 1.48437500
0.87117338 -0.50000000 1.50000000
1.06250000 0.96045923 0.81250000
1.06250000 0.89795911 0.81250000
1.06250000 0.83545917 0.81250000
1.06250000 0.81250000 0.85204077
1.06250000 0.81250000 0.91454077
1.07812500 0.76562500 0.95567608
1.09375000 0.71875000 0.99681115
1.10937500 0.67187500 1.03794646
1.12500000 0.62500000 1.07908154
1.14062500 0.57812500 1.12021685
1.15114808 0.53125000 1.15625000
1.14126301 0.48437500 1.17187500
1.13137770 0.43750000 1.18750000
1.12149227 0.39062500 1.20312500
1.11160743 0.34375000 1.21875000
1.10172188 0.29687500 1.23437500
1.09183681 0.25000000 1.25000000
1.08195150 0.20312500 1.26562500
1.07206655 0.15625000 1.28125000
1.06218100 0.10937500 1.29687500
1.05229604 0.06250000 1.31250000
1.04241061 0.01562500 1.32812500
1.03252566 -0.03125000 1.34375000
1.02264023 -0.07812500 1.35937500
1.01275516 -0.12500000 1.37500000
1.00287020 -0.17187500 1.39062500
0.99298519 -0.21875000 1.40625000
0.98309928 -0.26562500 1.42187500
0.97321451 -0.31250000 1.43750000
0.96332955 -0.35937500 1.45312500
0.95344448 -0.40625000 1.46875000
0.94355834 -0.45312500 1.48437500
0.93367386 -0.50000000 1.50000000
1.07812500 0.95057404 0.76562500
1.07812500 0.88807410 0.76562500
1.07812500 0.82557392 0.76562500
1.07812500 0.76562500 0.76817602
1.07812500 0.76562500 0.83067608
1.07812500 0.76562500 0.89317602
1.09375000 0.71875000 0.93431109
1.10937500 0.67187500 0.97544640
1.12500000 0.62500000 1.01658154
1.14062500 0.57812500 1.05771685
1.15625000 0.53125000 1.09885192
1.17187500 0.48437500 1.13998711
1.18750000 0.43750000 1.18112230
1.18399239 0.39062500 1.20312500
1.17410719 0.34375000 1.21875000
1.16422200 0.29687500 1.23437500
1.15433693 0.25000000 1.25000000
1.14445162 0.20312500 1.26562500
1.13456631 0.15625000 1.28125000
1.12468112 0.10937500 1.29687500
1.11479604 0.06250000 1.31250000
1.10491085 0.01562500 1.32812500
1.09502566 -0.03125000 1.34375000
1.08514023 -0.07812500 1.35937500
1.07525492 -0.12500000 1.37500000
1.06537008 -0.17187500 1.39062500
1.05548501 -0.21875000 1.40625000
1.04559982 -0.26562500 1.42187500
1.03571427 -0.31250000 1.43750000
1.02582908 -0.35937500 1.45312500
1.01594400 -0.40625000 1.46875000
1.00605893 -0.45312500 1.48437500
0.99617362 -0.50000000 1.50000000
1.09375000 0.94068885 0.71875000
1.09375000 0.87818885 0.71875000
1.09375000 0.81568879 0.71875000
1.09375000 0.75318873 0.71875000
1.09375000 0.71875000 0.74681115
1.09375000 0.71875000 0.80931127
1.09375000 0.71875000 0.87181121
1.10937500 0.67187500 0.91294634
1.12500000 0.62500000 0.95408165
1.14062500 0.57812500 0.99521667
1.15625000 0.53125000 1.03635192
1.17187500 0.48437500 1.07748711
1.18750000 0.43750000 1.11862230
1.20312500 0.39062500 1.15975738
1.21875000 0.34375000 1.20089281
1.22672224 0.29687500 1.23437500
1.21683669 0.25000000 1.25000000
1.20695186 0.20312500 1.26562500
1.19706643 0.15625000 1.28125000
1.18718135 0.10937500 1.29687500
1.17729592 0.06250000 1.31250000
1.16741109 0.01562500 1.32812500
1.15752554 -0.03125000 1.34375000
1.14764011 -0.07812500 1.35937500
1.13775516 -0.12500000 1.37500000
1.12787008 -0.17187500 1.39062500
1.11798489 -0.21875000 1.40625000
1.10809982 -0.26562500 1.42187500
1.09821463 -0.31250000 1.43750000
1.08832920 -0.35937500 1.45312500
1.07844412 -0.40625000 1.46875000
1.06855893 -0.45312500 1.48437500
1.05867338 -0.50000000 1.50000000
1.10937500 0.93080366 0.67187500
1.10937500 0.86830360 0.67187500
1.10937500 0.80580354 0.67187500
1.10937500 0.74330342 0.67187500
1.10937500 0.68080336 0.67187500
1.10937500 0.67187500 0.72544640
1.10937500 0.67187500 0.78794646
1.10937500 0.67187500 0.85044640
1.12500000 0.62500000 0.89158154
1.14062500 0.57812500 0.93271691
1.15625000 0.53125000 0.97385204
1.17187500 0.48437500 1.01498723
1.18750000 0.43750000 1.05612230
1.20312500 0.39062500 1.09725761
1.21875000 0.34375000 1.13839269
1.23437500 0.29687500 1.17952800
1.25000000 0.25000000 1.22066319
1.26562500 0.20312500 1.26179838
1.25956619 0.15625000 1.28125000
1.24968112 0.10937500 1.29687500
1.23979592 0.06250000 1.31250000
1.22991085 0.01562500 1.32812500
1.22002554 -0.03125000 1.34375000
1.21014011 -0.07812500 1.35937500
1.20025551 -0.12500000 1.37500000
1.19036996 -0.17187500 1.39062500
1.18048477 -0.21875000 1.40625000
1.17059970 -0.26562500 1.42187500
1.16071439 -0.31250000 1.43750000
1.15082932 -0.35937500 1.45312500
1.14094424 -0.40625000 1.46875000
1.13105881 -0.45312500 1.48437500
1.12117386 -0.50000000 1.50000000
1.12500000 0.92091846 0.62500000
1.12500000 0.85841835 0.62500000
1.12500000 0.79591823 0.62500000
1.12500000 0.73341846 0.62500000
1.12500000 0.67091835 0.62500000
1.12500000 0.62500000 0.64158159
1.12500000 0.62500000 0.70408154
1.12500000 0.62500000 0.76658165
1.12500000 0.62500000 0.82908159
1.14062500 0.57812500 0.87021673
1.15625000 0.53125000 0.91135210
1.17187500 0.48437500 0.95248723
1.18750000 0.43750000 0.99362224
1.20312500 0.39062500 1.03475773
1.21875000 0.34375000 1.07589293
1.23437500 0.29687500 1.11702812
1.25000000 0.25000000 1.15816307
1.26562500 0.20312500 1.19929850
1.28125000 0.15625000 1.24043357
1.29687500 0.10937500 1.28156877
1.30229628 0.06250000 1.31250000
1.29241061 0.01562500 1.32812500
1.28252602 -0.03125000 1.34375000
1.27264011 -0.07812500 1.35937500
1.26275527 -0.12500000 1.37500000
1.25286996 -0.17187500 1.39062500
1.24298453 -0.21875000 1.40625000
1.23309970 -0.26562500 1.42187500
1.22321486 -0.31250000 1.43750000
1.21332884 -0.35937500 1.45312500
1.20344377 -0.40625000 1.46875000
1.19355881 -0.45312500 1.48437500
1.18367362 -0.50000000 1.50000000
1.14062500 0.91103327 0.57812500
1.14062500 0.84853309 0.57812500
1.14062500 0.78603292 0.57812500
1.14062500 0.72353315 0.57812500
1.14062500 0.66103303 0.57812500
1.14062500 0.59853327 0.57812500
1.14062500 0.57812500 0.62021673
1.14062500 0.57812500 0.68271667
1.14062500 0.57812500 0.74521685
1.14062500 0.57812500 0.80771679
1.15625000 0.53125000 0.84885192
1.17187500 0.48437500 0.88998705
1.18750000 0.43750000 0.93112248
1.20312500 0.39062500 0.97225755
1.21875000 0.34375000 1.01339281
1.23437500 0.29687500 1.05452800
1.25000000 0.25000000 1.09566331
1.26562500 0.20312500 1.13679838
1.28125000 0.15625000 1.17793345
1.29687500 0.10937500 1.21906853
1.31250000 0.06250000 1.26020384
1.32812500 0.01562500 1.30133915
1.34375000 -0.03125000 1.34247410
1.33514011 -0.07812500 1.35937500
1.32525504 -0.12500000 1.37500000
1.31536984 -0.17187500 1.39062500
1.30548441 -0.21875000 1.40625000
1.29559970 -0.26562500 1.42187500
1.28571463 -0.31250000 1.43750000
1.27582896 -0.35937500 1.45312500
1.26594388 -0.40625000 1.46875000
1.25605869 -0.45312500 1.48437500
1.24617338 -0.50000000 1.50000000
1.15625000 0.90114808 0.53125000
1.15625000 0.83864814 0.53125000
1.15625000 0.77614820 0.53125000
1.15625000 0.71364784 0.53125000
1.15625000 0.65114784 0.53125000
1.15625000 0.58864796 0.53125000
1.15625000 0.53125000 0.53635204
1.15625000 0.53125000 0.59885192
1.15625000 0.53125000 0.66135210
1.15625000 0.53125000 0.72385204
1.15625000 0.53125000 0.78635198
1.17187500 0.48437500 0.82748711
1.18750000 0.43750000 0.86862218
1.20312500 0.39062500 0.90975744
1.21875000 0.34375000 0.95089281
1.23437500 0.29687500 0.99202782
1.25000000 0.25000000 1.03316319
1.26562500 0.20312500 1.07429814
1.28125000 0.15625000 1.11543369
1.29687500 0.10937500 1.15656877
1.31250000 0.06250000 1.19770384
1.32812500 0.01562500 1.23883891
1.34375000 -0.03125000 1.27997422
1.35937500 -0.07812500 1.32110989
1.37500000 -0.12500000 1.36224461
1.37787032 -0.17187500 1.39062500
1.36798489 -0.21875000 1.40625000
1.35809970 -0.26562500 1.42187500
1.34821439 -0.31250000 1.43750000
1.33832908 -0.35937500 1.45312500
1.32844412 -0.40625000 1.46875000
1.31855869 -0.45312500 1.48437500
1.30867386 -0.50000000 1.50000000
1.17187500 0.89126289 0.48437500
1.17187500 0.82876295 0.48437500
1.17187500 0.76626301 0.48437500
1.17187500 0.70376259 0.48437500
1.17187500 0.64126265 0.48437500
1.17187500 0.57876271 0.48437500
1.17187500 0.51626277 0.48437500
1.17187500 0.48437500 0.51498717
1.17187500 0.48437500 0.57748735
1.17187500 0.48437500 0.63998729
1.17187500 0.48437500 0.70248723
1.17187500 0.48437500 0.76498717
1.18750000 0.43750000 0.80612242
1.20312500 0.39062500 0.84725761
1.21875000 0.34375000 0.88839269
1.23437500 0.29687500 0.92952800
1.25000000 0.25000000 0.97066307
1.26562500 0.20312500 1.01179838
1.28125000 0.15625000 1.05293357
1.29687500 0.10937500 1.09406900
1.31250000 0.06250000 1.13520384
1.32812500 0.01562500 1.17633915
1.34375000 -0.03125000 1.21747422
1.35937500 -0.07812500 1.25860941
1.37500000 -0.12500000 1.29974484
1.39062500 -0.17187500 1.34087968
1.40625000 -0.21875000 1.38201523
1.42059958 -0.26562500 1.42187500
1.41071415 -0.31250000 1.43750000
1.40082932 -0.35937500 1.45312500
1.39094424 -0.40625000 1.46875000
1.38105857 -0.45312500 1.48437500
1.37117362 -0.50000000 1.50000000
1.18750000 0.88137770 0.43750000
1.18750000 0.81887740 0.43750000
1.18750000 0.75637764 0.43750000
1.18750000 0.69387734 0.43750000
1.18750000 0.63137758 0.43750000
1.18750000 0.56887782 0.43750000
1.18750000 0.50637752 0.43750000
1.18750000 0.44387722 0.43750000
1.18750000 0.43750000 0.49362227
1.18750000 0.43750000 0.55612230
1.18750000 0.43750000 0.61862260
1.18750000 0.43750000 0.68112236
1.18750000 0.43750000 0.74362242
1.20312500 0.39062500 0.78475744
1.21875000 0.34375000 0.82589263
1.23437500 0.29687500 0.86702782
1.25000000 0.25000000 0.90816331
1.26562500 0.20312500 0.94929856
1.28125000 0.15625000 0.99043334
1.29687500 0.10937500 1.03156877
1.31250000 0.06250000 1.07270396
1.32812500 0.01562500 1.11383939
1.34375000 -0.03125000 1.15497422
1.35937500 -0.07812500 1.19610989
1.37500000 -0.12500000 1.23724461
1.39062500 -0.17187500 1.27837980
1.40625000 -0.21875000 1.31951487
1.42187500 -0.26562500 1.36065042
1.43750000 -0.31250000 1.40178549
1.45312500 -0.35937500 1.44292057
1.45344448 -0.40625000 1.46875000
1.44355929 -0.45312500 1.48437500
1.43367338 -0.50000000 1.50000000
1.20312500 0.87149251 0.39062500
1.20312500 0.80899262 0.39062500
1.20312500 0.74649221 0.39062500
1.20312500 0.68399239 0.39062500
1.20312500 0.62149191 0.39062500
1.20312500 0.55899209 0.39062500
1.20312500 0.49649224 0.39062500
1.20312500 0.43399239 0.39062500
1.20312500 0.39062500 0.40975747
1.20312500 0.39062500 0.47225732
1.20312500 0.39062500 0.53475773
1.20312500 0.39062500 0.59725761
1.20312500 0.39062500 0.65975773
1.20312500 0.39062500 0.72225761
1.21875000 0.34375000 0.76339287
1.23437500 0.29687500 0.80452800
1.25000000 0.25000000 0.84566319
1.26562500 0.20312500 0.88679838
1.28125000 0.15625000 0.92793357
1.29687500 0.10937500 0.96906865
1.31250000 0.06250000 1.01020408
1.32812500 0.01562500 1.05133915
1.34375000 -0.03125000 1.09247434
1.35937500 -0.07812500 1.13360941
1.37500000 -0.12500000 1.17474484
1.39062500 -0.17187500 1.21587980
1.40625000 -0.21875000 1.25701499
1.42187500 -0.26562500 1.29815042
1.43750000 -0.31250000 1.33928514
1.45312500 -0.35937500 1.38042116
1.46875000 -0.40625000 1.42155612
1.48437500 -0.45312500 1.46269083
1.49617386 -0.50000000 1.50000000
1.21875000 0.86160731 0.34375000
1.21875000 0.79910696 0.34375000
1.21875000 0.73660719 0.34375000
1.21875000 0.67410678 0.34375000
1.21875000 0.61160702 0.34375000
1.21875000 0.54910725 0.34375000
1.21875000 0.48660687 0.34375000
1.21875000 0.42410710 0.34375000
1.21875000 0.36160672 0.34375000
1.21875000 0.34375000 0.38839275
1.21875000 0.34375000 0.45089281
1.21875000 0.34375000 0.51339257
1.21875000 0.34375000 0.57589293
1.21875000 0.34375000 0.63839304
1.21875000 0.34375000 0.70089281
1.23437500 0.29687500 0.74202782
1.25000000 0.25000000 0.78316307
1.26562500 0.20312500 0.82429820
1.28125000 0.15625000 0.86543381
1.29687500 0.10937500 0.90656888
1.31250000 0.06250000 0.94770408
1.32812500 0.01562500 0.98883891
1.34375000 -0.03125000 1.02997446
1.35937500 -0.07812500 1.07110941
1.37500000 -0.12500000 1.11224461
1.39062500 -0.17187500 1.15337992
1.40625000 -0.21875000 1.19451511
1.42187500 -0.26562500 1.23565054
1.43750000 -0.31250000 1.27678537
1.45312500 -0.35937500 1.31792092
1.46875000 -0.40625000 1.35905588
1.48437500 -0.45312500 1.40019083
1.50000000 -0.50000000 1.44132638
1.23437500 0.85172212 0.29687500
1.23437500 0.78922194 0.29687500
1.23437500 0.72672176 0.29687500
1.23437500 0.66422230 0.29687500
1.23437500 0.60172147 0.29687500
1.23437500 0.53922200 0.29687500
1.23437500 0.47672182 0.29687500
1.23437500 0.41422164 0.29687500
1.23437500 0.35172215 0.29687500
1.23437500 0.29687500 0.30452800
1.23437500 0.29687500 0.36702785
1.23437500 0.29687500 0.42952836
1.23437500 0.29687500 0.49202818
1.23437500 0.29687500 0.55452800
1.23437500 0.29687500 0.61702818
1.23437500 0.29687500 0.67952800
1.25000000 0.25000000 0.72066331
1.26562500 0.20312500 0.76179838
1.28125000 0.15625000 0.80293369
1.29687500 0.10937500 0.84406871
1.31250000 0.06250000 0.88520414
1.32812500 0.01562500 0.92633915
1.34375000 -0.03125000 0.96747446
1.35937500 -0.07812500 1.00860941
1.37500000 -0.12500000 1.04974484
1.39062500 -0.17187500 1.09087992
1.40625000 -0.21875000 1.13201523
1.42187500 -0.26562500 1.17315054
1.43750000 -0.31250000 1.21428561
1.45312500 -0.35937500 1.25542080
1.46875000 -0.40625000 1.29655576
1.48437500 -0.45312500 1.33769095
1.50000000 -0.50000000 1.37882662
1.25000000 0.84183693 0.25000000
1.25000000 0.77933645 0.25000000
1.25000000 0.71683669 0.25000000
1.25000000 0.65433693 0.25000000
1.25000000 0.59183645 0.25000000
1.25000000 0.52933669 0.25000000
1.25000000 0.46683693 0.25000000
1.25000000 0.40433645 0.25000000
1.25000000 0.34183669 0.25000000
1.25000000 0.27933693 0.25000000
1.25000000 0.25000000 0.28316319
1.25000000 0.25000000 0.34566331
1.25000000 0.25000000 0.40816307
1.25000000 0.25000000 0.47066319
1.25000000 0.25000000 0.53316331
1.25000000 0.25000000 0.59566307
1.25000000 0.25000000 0.65816319
1.26562500 0.20312500 0.69929856
1.28125000 0.15625000 0.74043351
1.29687500 0.10937500 0.78156853
1.31250000 0.06250000 0.82270420
1.32812500 0.01562500 0.86383939
1.34375000 -0.03125000 0.90497452
1.35937500 -0.07812500 0.94610947
1.37500000 -0.12500000 0.98724449
1.39062500 -0.17187500 1.02838004
1.40625000 -0.21875000 1.06951547
1.42187500 -0.26562500 1.11064994
1.43750000 -0.31250000 1.15178585
1.45312500 -0.35937500 1.19292068
1.46875000 -0.40625000 1.23405623
1.48437500 -0.45312500 1.27519095
1.50000000 -0.50000000 1.31632614
1.26562500 0.83195174 0.20312500
1.26562500 0.76945114 0.20312500
1.26562500 0.70695138 0.20312500
1.26562500 0.64445156 0.20312500
1.26562500 0.58195102 0.20312500
1.26562500 0.51945198 0.20312500
1.26562500 0.45695138 0.20312500
1.26562500 0.39445156 0.20312500
1.26562500 0.33195177 0.20312500
1.26562500 0.26945120 0.20312500
1.26562500 0.20695139 0.20312500
1.26562500 0.20312500 0.26179841
1.26562500 0.20312500 0.32429859
1.26562500 0.20312500 0.38679802
1.26562500 0.20312500 0.44929820
1.26562500 0.20312500 0.51179838
1.26562500 0.20312500 0.57429820
1.26562500 0.20312500 0.63679838
1.28125000 0.15625000 0.67793375
1.29687500 0.10937500 0.71906877
1.31250000 0.06250000 0.76020426
1.32812500 0.01562500 0.80133915
1.34375000 -0.03125000 0.84247458
1.35937500 -0.07812500 0.88360947
1.37500000 -0.12500000 0.92474473
1.39062500 -0.17187500 0.96588004
1.40625000 -0.21875000 1.00701499
1.42187500 -0.26562500 1.04815066
1.43750000 -0.31250000 1.08928549
1.45312500 -0.35937500 1.13042057
1.46875000 -0.40625000 1.17155612
1.48437500 -0.45312500 1.21269107
1.50000000 -0.50000000 1.25382638
1.28125000 0.82206655 0.15625000
1.28125000 0.75956678 0.15625000
1.28125000 0.69706619 0.15625000
1.28125000 0.63456643 0.15625000
1.28125000 0.57206589 0.15625000
1.28125000 0.50956613 0.15625000
1.28125000 0.44706637 0.15625000
1.28125000 0.38456661 0.15625000
1.28125000 0.32206604 0.15625000
1.28125000 0.25956628 0.15625000
1.28125000 0.19706652 0.15625000
1.28125000 0.15625000 0.17793365
1.28125000 0.15625000 0.24043341
1.28125000 0.15625000 0.30293357
1.28125000 0.15625000 0.36543334
1.28125000 0.15625000 0.42793390
1.28125000 0.15625000 0.49043366
1.28125000 0.15625000 0.55293381
1.28125000 0.15625000 0.61543357
1.29687500 0.10937500 0.65656900
1.31250000 0.06250000 0.69770384
1.32812500 0.01562500 0.73883891
1.34375000 -0.03125000 0.77997416
1.35937500 -0.07812500 0.82110953
1.37500000 -0.12500000 0.86224496
1.39062500 -0.17187500 0.90338016
1.40625000 -0.21875000 0.94451517
1.42187500 -0.26562500 0.98565006
1.43750000 -0.31250000 1.02678573
1.45312500 -0.35937500 1.06792104
1.46875000 -0.40625000 1.10905600
1.48437500 -0.45312500 1.15019107
1.50000000 -0.50000000 1.19132662
1.29687500 0.81218135 0.10937500
1.29687500 0.74968159 0.10937500
1.29687500 0.68718100 0.10937500
1.29687500 0.62468123 0.10937500
1.29687500 0.56218064 0.10937500
1.29687500 0.49968085 0.10937500
1.29687500 0.43718109 0.10937500
1.29687500 0.37468132 0.10937500
1.29687500 0.31218156 0.10937500
1.29687500 0.24968095 0.10937500
1.29687500 0.18718119 0.10937500
1.29687500 0.12468058 0.10937500
1.29687500 0.10937500 0.15656877
1.29687500 0.10937500 0.21906894
1.29687500 0.10937500 0.28156871
1.29687500 0.10937500 0.34406847
1.29687500 0.10937500 0.40656906
1.29687500 0.10937500 0.46906883
1.29687500 0.10937500 0.53156900
1.29687500 0.10937500 0.59406877
1.31250000 0.06250000 0.63520396
1.32812500 0.01562500 0.67633915
1.34375000 -0.03125000 0.71747422
1.35937500 -0.07812500 0.75860953
1.37500000 -0.12500000 0.79974467
1.39062500 -0.17187500 0.84088016
1.40625000 -0.21875000 0.88201529
1.42187500 -0.26562500 0.92315066
1.43750000 -0.31250000 0.96428531
1.45312500 -0.35937500 1.00542092
1.46875000 -0.40625000 1.04655576
1.48437500 -0.45312500 1.08769119
1.50000000 -0.50000000 1.12882614
1.31250000 0.80229616 0.06250000
1.31250000 0.73979533 0.06250000
1.31250000 0.67729628 0.06250000
1.31250000 0.61479545 0.06250000
1.31250000 0.55229640 0.06250000
1.31250000 0.48979557 0.06250000
1.31250000 0.42729563 0.06250000
1.31250000 0.36479568 0.06250000
1.31250000 0.30229574 0.06250000
1.31250000 0.23979580 0.06250000
1.31250000 0.17729586 0.06250000
1.31250000 0.11479592 0.06250000
1.31250000 0.06250000 0.07270402
1.31250000 0.06250000 0.13520396
1.31250000 0.06250000 0.19770390
1.31250000 0.06250000 0.26020384
1.31250000 0.06250000 0.32270423
1.31250000 0.06250000 0.38520372
1.31250000 0.06250000 0.44770411
1.31250000 0.06250000 0.51020360
1.31250000 0.06250000 0.57270396
1.32812500 0.01562500 0.61383939
1.34375000 -0.03125000 0.65497428
1.35937500 -0.07812500 0.69610953
1.37500000 -0.12500000 0.73724437
1.39062500 -0.17187500 0.77838027
1.40625000 -0.21875000 0.81951487
1.42187500 -0.26562500 0.86065012
1.43750000 -0.31250000 0.90178555
1.45312500 -0.35937500 0.94292074
1.46875000 -0.40625000 0.98405564
1.48437500 -0.45312500 1.02519119
1.50000000 -0.50000000 1.06632638
1.32812500 0.79241097 0.01562500
1.32812500 0.72991121 0.01562500
1.32812500 0.66741049 0.01562500
1.32812500 0.60491073 0.01562500
1.32812500 0.54241002 0.01562500
1.32812500 0.47991028 0.01562500
1.32812500 0.41741052 0.01562500
1.32812500 0.35491076 0.01562500
1.32812500 0.29241100 0.01562500
1.32812500 0.22991124 0.01562500
1.32812500 0.16741054 0.01562500
1.32812500 0.10491078 0.01562500
1.32812500 0.04241008 0.01562500
1.32812500 0.01562500 0.05133922
1.32812500 0.01562500 0.11383898
1.32812500 0.01562500 0.17633921
1.32812500 0.01562500 0.23883897
1.32812500 0.01562500 0.30133873
1.32812500 0.01562500 0.36383945
1.32812500 0.01562500 0.42633921
1.32812500 0.01562500 0.48883942
1.32812500 0.01562500 0.55133921
1.34375000 -0.03125000 0.59247434
1.35937500 -0.07812500 0.63360953
1.37500000 -0.12500000 0.67474461
