Wrecked_X/Wrecked X (Invert + HSL Adjust).cube
# VEGAS Pro LUT
TITLE "Wrecked X (Invert + HSL Adjust)"
LUT_3D_SIZE 9
1.00000048 1.00000048 1.00000048
0.96045917 0.81250000 1.06250000
0.92091835 0.62500000 1.12500000
0.88137752 0.43750000 1.18750000
0.84183669 0.25000000 1.25000000
0.80229586 0.06250000 1.31250000
0.76275504 -0.12500000 1.37500000
0.72321421 -0.31250000 1.43750000
0.68367338 -0.50000000 1.50000000
1.06250000 0.96045923 0.81250000
1.06250000 0.81250000 0.91454077
1.12500000 0.62500000 1.07908154
1.13137770 0.43750000 1.18750000
1.09183681 0.25000000 1.25000000
1.05229604 0.06250000 1.31250000
1.01275516 -0.12500000 1.37500000
0.97321451 -0.31250000 1.43750000
0.93367386 -0.50000000 1.50000000
1.12500000 0.92091846 0.62500000
1.12500000 0.67091835 0.62500000
1.12500000 0.62500000 0.82908159
1.18750000 0.43750000 0.99362224
1.25000000 0.25000000 1.15816307
1.30229628 0.06250000 1.31250000
1.26275527 -0.12500000 1.37500000
1.22321486 -0.31250000 1.43750000
1.18367362 -0.50000000 1.50000000
1.18750000 0.88137770 0.43750000
1.18750000 0.63137758 0.43750000
1.18750000 0.43750000 0.49362227
1.18750000 0.43750000 0.74362242
1.25000000 0.25000000 0.90816331
1.31250000 0.06250000 1.07270396
1.37500000 -0.12500000 1.23724461
1.43750000 -0.31250000 1.40178549
1.43367338 -0.50000000 1.50000000
1.25000000 0.84183693 0.25000000
1.25000000 0.59183645 0.25000000
1.25000000 0.34183669 0.25000000
1.25000000 0.25000000 0.40816307
1.25000000 0.25000000 0.65816319
1.31250000 0.06250000 0.82270420
1.37500000 -0.12500000 0.98724449
1.43750000 -0.31250000 1.15178585
1.50000000 -0.50000000 1.31632614
1.31250000 0.80229616 0.06250000
1.31250000 0.55229640 0.06250000
1.31250000 0.30229574 0.06250000
1.31250000 0.06250000 0.07270402
1.31250000 0.06250000 0.32270423
1.31250000 0.06250000 0.57270396
1.37500000 -0.12500000 0.73724437
1.43750000 -0.31250000 0.90178555
1.50000000 -0.50000000 1.06632638
1.37500000 0.76275539 -0.12500000
1.37500000 0.51275527 -0.12500000
1.37500000 0.26275516 -0.12500000
1.37500000 0.01275504 -0.12500000
1.37500000 -0.12500000 -0.01275545
1.37500000 -0.12500000 0.23724520
1.37500000 -0.12500000 0.48724478
1.43750000 -0.31250000 0.65178525
1.50000000 -0.50000000 0.81632662
1.43750000 0.72321463 -0.31250000
1.43750000 0.47321433 -0.31250000
1.43750000 0.22321403 -0.31250000
1.43750000 -0.02678627 -0.31250000
1.43750000 -0.27678657 -0.31250000
1.43750000 -0.31250000 -0.09821439
1.43750000 -0.31250000 0.15178591
1.43750000 -0.31250000 0.40178558
1.50000000 -0.50000000 0.56632614
1.50000000 0.68367386 -0.50000000
1.50000000 0.43367338 -0.50000000
1.50000000 0.18367290 -0.50000000
1.50000000 -0.06632614 -0.50000000
1.50000000 -0.31632662 -0.50000000
1.50000000 -0.50000000 -0.43367362
1.50000000 -0.50000000 -0.18367386
1.50000000 -0.50000000 0.06632662
1.50000000 -0.50000000 0.31632638
0.81250000 1.06250000 0.96045923
0.81250000 0.91454077 1.06250000
0.67091841 0.62500000 1.12500000
0.63137770 0.43750000 1.18750000
0.59183693 0.25000000 1.25000000
0.55229610 0.06250000 1.31250000
0.51275492 -0.12500000 1.37500000
0.47321454 -0.31250000 1.43750000
0.43367362 -0.50000000 1.50000000
0.91454083 1.06250000 0.81250000
0.87500000 0.87500000 0.87500000
0.83545917 0.68749994 0.93750006
0.79591835 0.50000000 1.00000000
0.75637752 0.31250000 1.06250000
0.71683669 0.12500000 1.12500000
0.67729586 -0.06250000 1.18750000
0.63775504 -0.25000000 1.25000000
0.59821421 -0.43750000 1.31250000
1.07908177 1.12500000 0.62500000
0.93750006 0.83545923 0.68749994
0.93750006 0.68749994 0.78954077
1.00000000 0.50000000 0.95408154
1.00637770 0.31250000 1.06250000
0.96683681 0.12500000 1.12500000
0.92729604 -0.06250000 1.18750000
0.88775516 -0.25000000 1.25000000
0.84821451 -0.43750000 1.31250000
1.18750000 1.13137782 0.43750000
1.00000000 0.79591846 0.50000000
1.00000000 0.54591835 0.50000000
1.00000000 0.50000000 0.70408159
1.06250000 0.31250000 0.86862224
1.12500000 0.12500000 1.03316307
1.17729628 -0.06250000 1.18750000
1.13775527 -0.25000000 1.25000000
1.09821486 -0.43750000 1.31250000
1.25000000 1.09183669 0.25000000
1.06250000 0.75637770 0.31250000
1.06250000 0.50637758 0.31250000
1.06250000 0.31250000 0.36862227
1.06250000 0.31250000 0.61862242
1.12500000 0.12500000 0.78316331
1.18750000 -0.06250000 0.94770396
1.25000000 -0.25000000 1.11224461
1.31250000 -0.43750000 1.27678549
1.31250000 1.05229592 0.06250000
1.12500000 0.71683693 0.12500000
1.12500000 0.46683645 0.12500000
1.12500000 0.21683669 0.12500000
1.12500000 0.12500000 0.28316307
1.12500000 0.12500000 0.53316319
1.18750000 -0.06250000 0.69770420
1.25000000 -0.25000000 0.86224449
1.31250000 -0.43750000 1.02678585
1.37500000 1.01275444 -0.12500000
1.18750000 0.67729616 -0.06250000
1.18750000 0.42729640 -0.06250000
1.18750000 0.17729574 -0.06250000
1.18750000 -0.06250000 -0.05229598
1.18750000 -0.06250000 0.19770423
1.18750000 -0.06250000 0.44770399
1.25000000 -0.25000000 0.61224437
1.31250000 -0.43750000 0.77678555
1.43750000 0.97321367 -0.31250000
1.25000000 0.63775539 -0.25000000
1.25000000 0.38775527 -0.25000000
1.25000000 0.13775516 -0.25000000
1.25000000 -0.11224496 -0.25000000
1.25000000 -0.25000000 -0.13775545
1.25000000 -0.25000000 0.11224520
1.25000000 -0.25000000 0.36224478
1.31250000 -0.43750000 0.52678525
1.50000000 0.93367290 -0.50000000
1.31250000 0.59821463 -0.43750000
1.31250000 0.34821433 -0.43750000
1.31250000 0.09821403 -0.43750000
1.31250000 -0.15178627 -0.43750000
1.31250000 -0.40178657 -0.43750000
1.31250000 -0.43750000 -0.22321439
1.31250000 -0.43750000 0.02678591
1.31250000 -0.43750000 0.27678558
0.62500000 1.12500000 0.92091841
0.62500000 1.07908165 1.12500000
0.62500000 0.82908154 1.12500000
0.43750000 0.49362245 1.18750000
0.34183681 0.25000000 1.25000000
0.30229589 0.06250000 1.31250000
0.26275533 -0.12500000 1.37500000
0.22321424 -0.31250000 1.43750000
0.18367386 -0.50000000 1.50000000
0.62500000 1.12500000 0.67091835
0.68749994 0.93750006 0.83545923
0.68749994 0.78954077 0.93750006
0.54591841 0.50000000 1.00000000
0.50637770 0.31250000 1.06250000
0.46683693 0.12500000 1.12500000
0.42729610 -0.06250000 1.18750000
0.38775492 -0.25000000 1.25000000
0.34821454 -0.43750000 1.31250000
0.82908165 1.12500000 0.62500000
0.78954083 0.93750006 0.68749994
0.75000000 0.75000000 0.75000000
0.71045917 0.56250000 0.81250000
0.67091835 0.37499994 0.87500006
0.63137752 0.18750000 0.93750000
0.59183669 0.00000000 1.00000000
0.55229586 -0.18750000 1.06250000
0.51275504 -0.37500000 1.12500000
0.99362260 1.18750000 0.43750000
0.95408177 1.00000000 0.50000000
0.81250000 0.71045923 0.56250000
0.81250000 0.56250000 0.66454077
0.87500006 0.37499994 0.82908159
0.88137764 0.18750000 0.93750000
0.84183681 0.00000000 1.00000000
0.80229604 -0.18750000 1.06250000
0.76275516 -0.37500000 1.12500000
1.15816355 1.25000000 0.25000000
1.06250000 1.00637782 0.31250000
0.87500006 0.67091846 0.37499994
0.87500006 0.42091829 0.37499994
0.87500006 0.37499994 0.57908159
0.93750000 0.18750000 0.74362224
1.00000000 0.00000000 0.90816307
1.05229628 -0.18750000 1.06250000
1.01275527 -0.37500000 1.12500000
1.31250000 1.30229568 0.06250000
1.12500000 0.96683669 0.12500000
0.93750000 0.63137770 0.18750000
0.93750000 0.38137758 0.18750000
0.93750000 0.18750000 0.24362227
0.93750000 0.18750000 0.49362239
1.00000000 0.00000000 0.65816331
1.06250000 -0.18750000 0.82270396
1.12500000 -0.37500000 0.98724461
1.37500000 1.26275563 -0.12500000
1.18750000 0.92729592 -0.06250000
1.00000000 0.59183693 0.00000000
1.00000000 0.34183645 0.00000000
1.00000000 0.09183669 0.00000000
1.00000000 0.00000000 0.15816307
1.00000000 0.00000000 0.40816319
1.06250000 -0.18750000 0.57270420
1.12500000 -0.37500000 0.73724449
1.43750000 1.22321391 -0.31250000
1.25000000 0.88775444 -0.25000000
1.06250000 0.55229616 -0.18750000
1.06250000 0.30229640 -0.18750000
1.06250000 0.05229574 -0.18750000
1.06250000 -0.18750000 -0.17729598
1.06250000 -0.18750000 0.07270423
1.06250000 -0.18750000 0.32270399
1.12500000 -0.37500000 0.48724437
1.50000000 1.18367338 -0.50000000
1.31250000 0.84821367 -0.43750000
1.12500000 0.51275539 -0.37500000
1.12500000 0.26275527 -0.37500000
1.12500000 0.01275516 -0.37500000
1.12500000 -0.23724496 -0.37500000
1.12500000 -0.37500000 -0.26275545
1.12500000 -0.37500000 -0.01275480
1.12500000 -0.37500000 0.23724478
0.43750000 1.18750000 0.88137758
0.43750000 1.18750000 1.13137758
0.43750000 0.99362242 1.18750000
0.43750000 0.74362230 1.18750000
0.25000000 0.40816331 1.25000000
0.06250000 0.07270387 1.31250000
0.01275522 -0.12500000 1.37500000
-0.02678543 -0.31250000 1.43750000
-0.06632662 -0.50000000 1.50000000
0.43750000 1.18750000 0.63137746
0.50000000 1.00000000 0.79591841
0.50000000 0.95408165 1.00000000
0.50000000 0.70408154 1.00000000
0.31250000 0.36862245 1.06250000
0.21683681 0.12500000 1.12500000
0.17729589 -0.06250000 1.18750000
0.13775533 -0.25000000 1.25000000
0.09821424 -0.43750000 1.31250000
0.49362248 1.18750000 0.43750000
0.50000000 1.00000000 0.54591835
0.56250000 0.81250000 0.71045923
0.56250000 0.66454077 0.81250000
0.42091835 0.37499994 0.87500006
0.38137767 0.18750000 0.93750000
0.34183693 0.00000000 1.00000000
0.30229610 -0.18750000 1.06250000
0.26275492 -0.37500000 1.12500000
0.74362248 1.18750000 0.43750000
0.70408165 1.00000000 0.50000000
0.66454083 0.81250000 0.56250000
0.62500000 0.62500000 0.62500000
0.58545917 0.43750000 0.68750000
0.54591835 0.25000000 0.75000000
0.50637752 0.06250000 0.81250000
0.46683669 -0.12500006 0.87500006
0.42729586 -0.31250000 0.93750000
0.90816307 1.25000000 0.25000000
0.86862260 1.06250000 0.31250000
0.82908183 0.87500006 0.37499994
0.68750000 0.58545923 0.43750000
0.68750000 0.43750000 0.53954077
0.75000000 0.25000000 0.70408154
0.75637764 0.06250000 0.81250000
0.71683687 -0.12500006 0.87500006
0.67729604 -0.31250000 0.93750000
1.07270455 1.31250000 0.06250000
1.03316355 1.12500000 0.12500000
0.93750000 0.88137782 0.18750000
0.75000000 0.54591846 0.25000000
0.75000000 0.29591835 0.25000000
0.75000000 0.25000000 0.45408159
0.81250000 0.06250000 0.61862224
0.87500006 -0.12500006 0.78316313
0.92729628 -0.31250000 0.93750000
1.23724532 1.37500000 -0.12500000
1.18750000 1.17729568 -0.06250000
1.00000000 0.84183669 0.00000000
0.81250000 0.50637770 0.06250000
0.81250000 0.25637758 0.06250000
0.81250000 0.06250000 0.11862227
0.81250000 0.06250000 0.36862239
0.87500006 -0.12500006 0.53316331
0.93750000 -0.31250000 0.69770396
1.40178573 1.43750000 -0.31250000
1.25000000 1.13775563 -0.25000000
1.06250000 0.80229592 -0.18750000
0.87500006 0.46683693 -0.12500006
0.87500006 0.21683644 -0.12500006
0.87500006 -0.03316336 -0.12500006
0.87500006 -0.12500006 0.03316303
0.87500006 -0.12500006 0.28316319
0.93750000 -0.31250000 0.44770420
1.50000000 1.43367386 -0.50000000
1.31250000 1.09821391 -0.43750000
1.12500000 0.76275444 -0.37500000
0.93750000 0.42729616 -0.31250000
0.93750000 0.17729640 -0.31250000
0.93750000 -0.07270426 -0.31250000
0.93750000 -0.31250000 -0.30229598
0.93750000 -0.31250000 -0.05229577
0.93750000 -0.31250000 0.19770399
0.25000000 1.25000000 0.84183681
0.25000000 1.25000000 1.09183669
0.25000000 1.15816331 1.25000000
0.25000000 0.90816319 1.25000000
0.25000000 0.65816307 1.25000000
0.06250000 0.32270408 1.31250000
-0.12500000 -0.01275510 1.37500000
-0.27678573 -0.31250000 1.43750000
-0.31632638 -0.50000000 1.50000000
0.25000000 1.25000000 0.59183669
0.31250000 1.06250000 0.75637758
0.31250000 1.06250000 1.00637758
0.31250000 0.86862242 1.06250000
0.31250000 0.61862230 1.06250000
0.12500000 0.28316331 1.12500000
-0.06250000 -0.05229613 1.18750000
-0.11224478 -0.25000000 1.25000000
-0.15178543 -0.43750000 1.31250000
0.25000000 1.25000000 0.34183675
0.31250000 1.06250000 0.50637746
0.37499994 0.87500006 0.67091841
0.37499994 0.82908171 0.87500006
0.37499994 0.57908154 0.87500006
0.18750000 0.24362245 0.93750000
0.09183681 0.00000000 1.00000000
0.05229589 -0.18750000 1.06250000
0.01275533 -0.37500000 1.12500000
0.40816337 1.25000000 0.25000000
0.36862248 1.06250000 0.31250000
0.37499994 0.87500006 0.42091832
0.43750000 0.68750000 0.58545923
0.43750000 0.53954077 0.68750000
0.29591841 0.25000000 0.75000000
0.25637767 0.06250000 0.81250000
0.21683691 -0.12500006 0.87500006
0.17729610 -0.31250000 0.93750000
0.65816331 1.25000000 0.25000000
0.61862248 1.06250000 0.31250000
0.57908165 0.87500006 0.37499994
0.53954083 0.68750000 0.43750000
0.50000000 0.50000000 0.50000000
0.46045917 0.31250000 0.56250000
0.42091835 0.12500000 0.62500000
0.38137752 -0.06250000 0.68750000
0.34183669 -0.25000000 0.75000000
0.82270390 1.31250000 0.06250000
0.78316307 1.12500000 0.12500000
0.74362260 0.93750000 0.18750000
0.70408177 0.75000000 0.25000000
0.56250000 0.46045923 0.31250000
0.56250000 0.31250000 0.41454080
0.62500000 0.12500000 0.57908154
0.63137764 -0.06250000 0.68750000
0.59183681 -0.25000000 0.75000000
0.98724520 1.37500000 -0.12500000
0.94770455 1.18750000 -0.06250000
0.90816355 1.00000000 0.00000000
0.81250000 0.75637782 0.06250000
0.62500000 0.42091846 0.12500000
0.62500000 0.17091835 0.12500000
0.62500000 0.12500000 0.32908159
0.68750000 -0.06250000 0.49362224
0.75000000 -0.25000000 0.65816307
1.15178537 1.43750000 -0.31250000
1.11224532 1.25000000 -0.25000000
1.06250000 1.05229568 -0.18750000
0.87500006 0.71683675 -0.12500006
0.68750000 0.38137770 -0.06250000
0.68750000 0.13137758 -0.06250000
0.68750000 -0.06250000 -0.00637773
0.68750000 -0.06250000 0.24362239
0.75000000 -0.25000000 0.40816331
1.31632710 1.50000000 -0.50000000
1.27678573 1.31250000 -0.43750000
1.12500000 1.01275563 -0.37500000
0.93750000 0.67729592 -0.31250000
0.75000000 0.34183693 -0.25000000
0.75000000 0.09183645 -0.25000000
0.75000000 -0.15816331 -0.25000000
0.75000000 -0.25000000 -0.09183693
0.75000000 -0.25000000 0.15816319
0.06250000 1.31250000 0.80229604
0.06250000 1.31250000 1.05229604
0.06250000 1.31250000 1.30229592
0.06250000 1.07270432 1.31250000
0.06250000 0.82270408 1.31250000
0.06250000 0.57270384 1.31250000
-0.12500000 0.23724502 1.37500000
-0.31250000 -0.09821397 1.43750000
-0.50000000 -0.43367386 1.50000000
0.06250000 1.31250000 0.55229580
0.12500000 1.12500000 0.71683681
0.12500000 1.12500000 0.96683675
0.12500000 1.03316331 1.12500000
0.12500000 0.78316319 1.12500000
0.12500000 0.53316307 1.12500000
-0.06250000 0.19770408 1.18750000
-0.25000000 -0.13775510 1.25000000
-0.40178573 -0.43750000 1.31250000
0.06250000 1.31250000 0.30229604
0.12500000 1.12500000 0.46683669
0.18750000 0.93750000 0.63137758
0.18750000 0.93750000 0.88137758
0.18750000 0.74362242 0.93750000
0.18750000 0.49362230 0.93750000
0.00000000 0.15816331 1.00000000
-0.18750000 -0.17729613 1.06250000
-0.23724478 -0.37500000 1.12500000
0.07270417 1.31250000 0.06250000
0.12500000 1.12500000 0.21683675
0.18750000 0.93750000 0.38137749
0.25000000 0.75000000 0.54591841
0.25000000 0.70408165 0.75000000
0.25000000 0.45408154 0.75000000
0.06250000 0.11862245 0.81250000
-0.03316324 -0.12500006 0.87500006
-0.07270411 -0.31250000 0.93750000
0.32270414 1.31250000 0.06250000
0.28316337 1.12500000 0.12500000
0.24362250 0.93750000 0.18750000
0.25000000 0.75000000 0.29591838
0.31250000 0.56250000 0.46045920
0.31250000 0.41454077 0.56250000
0.17091841 0.12500000 0.62500000
0.13137767 -0.06250000 0.68750000
0.09183693 -0.25000000 0.75000000
0.57270414 1.31250000 0.06250000
0.53316331 1.12500000 0.12500000
0.49362248 0.93750000 0.18750000
0.45408165 0.75000000 0.25000000
0.41454083 0.56250000 0.31250000
0.37500000 0.37500000 0.37500000
0.33545917 0.18750000 0.43750000
0.29591835 0.00000000 0.50000000
0.25637752 -0.18750000 0.56250000
0.73724508 1.37500000 -0.12500000
0.69770390 1.18750000 -0.06250000
0.65816307 1.00000000 0.00000000
0.61862260 0.81250000 0.06250000
0.57908177 0.62500000 0.12500000
0.43750000 0.33545923 0.18750000
0.43750000 0.18750000 0.28954080
0.50000000 0.00000000 0.45408154
0.50637764 -0.18750000 0.56250000
0.90178514 1.43750000 -0.31250000
0.86224520 1.25000000 -0.25000000
0.82270455 1.06250000 -0.18750000
0.78316361 0.87500006 -0.12500006
0.68750000 0.63137782 -0.06250000
0.50000000 0.29591846 0.00000000
0.50000000 0.04591835 0.00000000
0.50000000 0.00000000 0.20408159
0.56250000 -0.18750000 0.36862224
1.06632662 1.50000000 -0.50000000
1.02678537 1.31250000 -0.43750000
0.98724532 1.12500000 -0.37500000
0.93750000 0.92729568 -0.31250000
0.75000000 0.59183669 -0.25000000
0.56250000 0.25637770 -0.18750000
0.56250000 0.00637758 -0.18750000
0.56250000 -0.18750000 -0.13137773
0.56250000 -0.18750000 0.11862239
-0.12500000 1.37500000 0.76275522
-0.12500000 1.37500000 1.01275504
-0.12500000 1.37500000 1.26275516
-0.12500000 1.23724496 1.37500000
-0.12500000 0.98724484 1.37500000
-0.12500000 0.73724473 1.37500000
-0.12500000 0.48724461 1.37500000
-0.31250000 0.15178570 1.43750000
-0.50000000 -0.18367338 1.50000000
-0.12500000 1.37500000 0.51275510
-0.06250000 1.18750000 0.67729604
-0.06250000 1.18750000 0.92729598
-0.06250000 1.18750000 1.17729592
-0.06250000 0.94770426 1.18750000
-0.06250000 0.69770408 1.18750000
-0.06250000 0.44770384 1.18750000
-0.25000000 0.11224502 1.25000000
-0.43750000 -0.22321397 1.31250000
-0.12500000 1.37500000 0.26275498
-0.06250000 1.18750000 0.42729580
0.00000000 1.00000000 0.59183681
0.00000000 1.00000000 0.84183675
0.00000000 0.90816331 1.00000000
0.00000000 0.65816319 1.00000000
0.00000000 0.40816307 1.00000000
-0.18750000 0.07270408 1.06250000
-0.37500000 -0.26275510 1.12500000
-0.12500000 1.37500000 0.01275513
-0.06250000 1.18750000 0.17729604
0.00000000 1.00000000 0.34183669
0.06250000 0.81250000 0.50637758
0.06250000 0.81250000 0.75637758
0.06250000 0.61862242 0.81250000
0.06250000 0.36862230 0.81250000
-0.12500006 0.03316327 0.87500006
-0.31250000 -0.30229613 0.93750000
-0.01275501 1.37500000 -0.12500000
-0.05229583 1.18750000 -0.06250000
0.00000000 1.00000000 0.09183675
0.06250000 0.81250000 0.25637749
0.12500000 0.62500000 0.42091841
0.12500000 0.57908165 0.62500000
0.12500000 0.32908154 0.62500000
-0.06250000 -0.00637755 0.68750000
-0.15816319 -0.25000000 0.75000000
0.23724511 1.37500000 -0.12500000
0.19770415 1.18750000 -0.06250000
0.15816337 1.00000000 0.00000000
0.11862250 0.81250000 0.06250000
0.12500000 0.62500000 0.17091838
0.18750000 0.43750000 0.33545920
0.18750000 0.28954077 0.43750000
0.04591841 0.00000000 0.50000000
0.00637767 -0.18750000 0.56250000
0.48724496 1.37500000 -0.12500000
0.44770414 1.18750000 -0.06250000
0.40816331 1.00000000 0.00000000
0.36862248 0.81250000 0.06250000
0.32908165 0.62500000 0.12500000
0.28954083 0.43750000 0.18750000
0.25000000 0.25000000 0.25000000
0.21045917 0.06250000 0.31250000
0.17091835 -0.12500000 0.37500000
0.65178609 1.43750000 -0.31250000
0.61224508 1.25000000 -0.25000000
0.57270390 1.06250000 -0.18750000
0.53316307 0.87500006 -0.12500006
0.49362260 0.68750000 -0.06250000
0.45408177 0.50000000 0.00000000
0.31250000 0.21045923 0.06250000
0.31250000 0.06250000 0.16454080
0.37500000 -0.12500000 0.32908154
0.81632614 1.50000000 -0.50000000
0.77678514 1.31250000 -0.43750000
0.73724520 1.12500000 -0.37500000
0.69770455 0.93750000 -0.31250000
0.65816355 0.75000000 -0.25000000
0.56250000 0.50637782 -0.18750000
0.37500000 0.17091846 -0.12500000
0.37500000 -0.07908165 -0.12500000
0.37500000 -0.12500000 0.07908159
-0.31250000 1.43750000 0.72321439
-0.31250000 1.43750000 0.97321439
-0.31250000 1.43750000 1.22321439
-0.31250000 1.40178537 1.43750000
-0.31250000 1.15178561 1.43750000
-0.31250000 0.90178597 1.43750000
-0.31250000 0.65178567 1.43750000
-0.31250000 0.40178537 1.43750000
-0.50000000 0.06632638 1.50000000
-0.31250000 1.43750000 0.47321412
-0.25000000 1.25000000 0.63775522
-0.25000000 1.25000000 0.88775504
-0.25000000 1.25000000 1.13775516
-0.25000000 1.11224496 1.25000000
-0.25000000 0.86224484 1.25000000
-0.25000000 0.61224473 1.25000000
-0.25000000 0.36224461 1.25000000
-0.43750000 0.02678570 1.31250000
-0.31250000 1.43750000 0.22321445
-0.25000000 1.25000000 0.38775510
-0.18750000 1.06250000 0.55229604
-0.18750000 1.06250000 0.80229598
-0.18750000 1.06250000 1.05229592
-0.18750000 0.82270426 1.06250000
-0.18750000 0.57270408 1.06250000
-0.18750000 0.32270384 1.06250000
-0.37500000 -0.01275498 1.12500000
-0.31250000 1.43750000 -0.02678585
-0.25000000 1.25000000 0.13775498
-0.18750000 1.06250000 0.30229580
-0.12500006 0.87500006 0.46683681
-0.12500006 0.87500006 0.71683681
-0.12500006 0.78316337 0.87500006
-0.12500006 0.53316319 0.87500006
-0.12500006 0.28316307 0.87500006
-0.31250000 -0.05229592 0.93750000
-0.31250000 1.43750000 -0.27678585
-0.25000000 1.25000000 -0.11224487
-0.18750000 1.06250000 0.05229604
-0.12500006 0.87500006 0.21683668
-0.06250000 0.68750000 0.38137761
-0.06250000 0.68750000 0.63137758
-0.06250000 0.49362242 0.68750000
-0.06250000 0.24362230 0.68750000
-0.25000000 -0.09183669 0.75000000
-0.09821418 1.43750000 -0.31250000
-0.13775501 1.25000000 -0.25000000
-0.17729583 1.06250000 -0.18750000
-0.12500006 0.87500006 -0.03316330
-0.06250000 0.68750000 0.13137749
0.00000000 0.50000000 0.29591841
0.00000000 0.45408165 0.50000000
0.00000000 0.20408154 0.50000000
-0.18750000 -0.13137755 0.56250000
0.15178581 1.43750000 -0.31250000
0.11224511 1.25000000 -0.25000000
0.07270415 1.06250000 -0.18750000
0.03316333 0.87500006 -0.12500006
-0.00637750 0.68750000 -0.06250000
0.00000000 0.50000000 0.04591838
0.06250000 0.31250000 0.21045920
0.06250000 0.16454077 0.31250000
-0.07908159 -0.12500000 0.37500000
0.40178579 1.43750000 -0.31250000
0.36224496 1.25000000 -0.25000000
0.32270414 1.06250000 -0.18750000
0.28316331 0.87500006 -0.12500006
0.24362248 0.68750000 -0.06250000
0.20408165 0.50000000 0.00000000
0.16454083 0.31250000 0.06250000
0.12500000 0.12500000 0.12500000
0.08545917 -0.06250000 0.18750000
0.56632710 1.50000000 -0.50000000
0.52678609 1.31250000 -0.43750000
0.48724508 1.12500000 -0.37500000
0.44770390 0.93750000 -0.31250000
0.40816307 0.75000000 -0.25000000
0.36862260 0.56250000 -0.18750000
0.32908177 0.37500000 -0.12500000
0.18750000 0.08545923 -0.06250000
0.18750000 -0.06250000 0.03954080
-0.50000000 1.50000000 0.68367362
-0.50000000 1.50000000 0.93367338
-0.50000000 1.50000000 1.18367350
-0.50000000 1.50000000 1.43367362
-0.50000000 1.31632662 1.50000000
-0.50000000 1.06632614 1.50000000
-0.50000000 0.81632638 1.50000000
-0.50000000 0.56632662 1.50000000
-0.50000000 0.31632614 1.50000000
-0.50000000 1.50000000 0.43367350
-0.43750000 1.31250000 0.59821439
-0.43750000 1.31250000 0.84821439
-0.43750000 1.31250000 1.09821439
-0.43750000 1.27678537 1.31250000
-0.43750000 1.02678561 1.31250000
-0.43750000 0.77678597 1.31250000
-0.43750000 0.52678567 1.31250000
-0.43750000 0.27678537 1.31250000
-0.50000000 1.50000000 0.18367338
-0.43750000 1.31250000 0.34821412
-0.37500000 1.12500000 0.51275522
-0.37500000 1.12500000 0.76275504
-0.37500000 1.12500000 1.01275516
-0.37500000 0.98724496 1.12500000
-0.37500000 0.73724484 1.12500000
-0.37500000 0.48724473 1.12500000
-0.37500000 0.23724461 1.12500000
-0.50000000 1.50000000 -0.06632638
-0.43750000 1.31250000 0.09821445
-0.37500000 1.12500000 0.26275510
-0.31250000 0.93750000 0.42729601
-0.31250000 0.93750000 0.67729598
-0.31250000 0.93750000 0.92729598
-0.31250000 0.69770426 0.93750000
-0.31250000 0.44770405 0.93750000
-0.31250000 0.19770384 0.93750000
-0.50000000 1.50000000 -0.31632650
-0.43750000 1.31250000 -0.15178585
-0.37500000 1.12500000 0.01275498
-0.31250000 0.93750000 0.17729580
-0.25000000 0.75000000 0.34183681
-0.25000000 0.75000000 0.59183675
-0.25000000 0.65816331 0.75000000
-0.25000000 0.40816319 0.75000000
-0.25000000 0.15816307 0.75000000
-0.43367338 1.50000000 -0.50000000
-0.43750000 1.31250000 -0.40178585
-0.37500000 1.12500000 -0.23724487
-0.31250000 0.93750000 -0.07270396
-0.25000000 0.75000000 0.09183669
-0.18750000 0.56250000 0.25637761
-0.18750000 0.56250000 0.50637758
-0.18750000 0.36862242 0.56250000
-0.18750000 0.11862230 0.56250000
-0.18367326 1.50000000 -0.50000000
-0.22321418 1.31250000 -0.43750000
-0.26275501 1.12500000 -0.37500000
-0.30229583 0.93750000 -0.31250000
-0.25000000 0.75000000 -0.15816325
-0.18750000 0.56250000 0.00637749
-0.12500000 0.37500000 0.17091841
-0.12500000 0.32908165 0.37500000
-0.12500000 0.07908154 0.37500000
0.06632650 1.50000000 -0.50000000
0.02678581 1.31250000 -0.43750000
-0.01275489 1.12500000 -0.37500000
-0.05229585 0.93750000 -0.31250000
-0.09183663 0.75000000 -0.25000000
-0.13137750 0.56250000 -0.18750000
-0.12500000 0.37500000 -0.07908162
-0.06250000 0.18750000 0.08545920
-0.06250000 0.03954077 0.18750000
0.31632662 1.50000000 -0.50000000
0.27678579 1.31250000 -0.43750000
0.23724496 1.12500000 -0.37500000
0.19770414 0.93750000 -0.31250000
0.15816331 0.75000000 -0.25000000
0.11862248 0.56250000 -0.18750000
0.07908165 0.37500000 -0.12500000
0.03954083 0.18750000 -0.06250000
0.00000050 0.00000050 0.00000050
