Wrecked_X/Wrecked X (Invert + HSL Adjust).cube
# VEGAS Pro LUT
TITLE "Wrecked X (Invert + HSL Adjust)"
LUT_3D_SIZE 5
1.00000048 1.00000048 1.00000048
0.92091835 0.62500000 1.12500000
0.84183669 0.25000000 1.25000000
0.76275504 -0.12500000 1.37500000
0.68367338 -0.50000000 1.50000000
1.12500000 0.92091846 0.62500000
1.12500000 0.62500000 0.82908159
1.25000000 0.25000000 1.15816307
1.26275527 -0.12500000 1.37500000
1.18367362 -0.50000000 1.50000000
1.25000000 0.84183693 0.25000000
1.25000000 0.34183669 0.25000000
1.25000000 0.25000000 0.65816319
1.37500000 -0.12500000 0.98724449
1.50000000 -0.50000000 1.31632614
1.37500000 0.76275539 -0.12500000
1.37500000 0.26275516 -0.12500000
1.37500000 -0.12500000 -0.01275545
1.37500000 -0.12500000 0.48724478
1.50000000 -0.50000000 0.81632662
1.50000000 0.68367386 -0.50000000
1.50000000 0.18367290 -0.50000000
1.50000000 -0.31632662 -0.50000000
1.50000000 -0.50000000 -0.18367386
1.50000000 -0.50000000 0.31632638
0.62500000 1.12500000 0.92091841
0.62500000 0.82908154 1.12500000
0.34183681 0.25000000 1.25000000
0.26275533 -0.12500000 1.37500000
0.18367386 -0.50000000 1.50000000
0.82908165 1.12500000 0.62500000
0.75000000 0.75000000 0.75000000
0.67091835 0.37499994 0.87500006
0.59183669 0.00000000 1.00000000
0.51275504 -0.37500000 1.12500000
1.15816355 1.25000000 0.25000000
0.87500006 0.67091846 0.37499994
0.87500006 0.37499994 0.57908159
1.00000000 0.00000000 0.90816307
1.01275527 -0.37500000 1.12500000
1.37500000 1.26275563 -0.12500000
1.00000000 0.59183693 0.00000000
1.00000000 0.09183669 0.00000000
1.00000000 0.00000000 0.40816319
1.12500000 -0.37500000 0.73724449
1.50000000 1.18367338 -0.50000000
1.12500000 0.51275539 -0.37500000
1.12500000 0.01275516 -0.37500000
1.12500000 -0.37500000 -0.26275545
1.12500000 -0.37500000 0.23724478
0.25000000 1.25000000 0.84183681
0.25000000 1.15816331 1.25000000
0.25000000 0.65816307 1.25000000
-0.12500000 -0.01275510 1.37500000
-0.31632638 -0.50000000 1.50000000
0.25000000 1.25000000 0.34183675
0.37499994 0.87500006 0.67091841
0.37499994 0.57908154 0.87500006
0.09183681 0.00000000 1.00000000
0.01275533 -0.37500000 1.12500000
0.65816331 1.25000000 0.25000000
0.57908165 0.87500006 0.37499994
0.50000000 0.50000000 0.50000000
0.42091835 0.12500000 0.62500000
0.34183669 -0.25000000 0.75000000
0.98724520 1.37500000 -0.12500000
0.90816355 1.00000000 0.00000000
0.62500000 0.42091846 0.12500000
0.62500000 0.12500000 0.32908159
0.75000000 -0.25000000 0.65816307
1.31632710 1.50000000 -0.50000000
1.12500000 1.01275563 -0.37500000
0.75000000 0.34183693 -0.25000000
0.75000000 -0.15816331 -0.25000000
0.75000000 -0.25000000 0.15816319
-0.12500000 1.37500000 0.76275522
-0.12500000 1.37500000 1.26275516
-0.12500000 0.98724484 1.37500000
-0.12500000 0.48724461 1.37500000
-0.50000000 -0.18367338 1.50000000
-0.12500000 1.37500000 0.26275498
0.00000000 1.00000000 0.59183681
0.00000000 0.90816331 1.00000000
0.00000000 0.40816307 1.00000000
-0.37500000 -0.26275510 1.12500000
-0.01275501 1.37500000 -0.12500000
0.00000000 1.00000000 0.09183675
0.12500000 0.62500000 0.42091841
0.12500000 0.32908154 0.62500000
-0.15816319 -0.25000000 0.75000000
0.48724496 1.37500000 -0.12500000
0.40816331 1.00000000 0.00000000
0.32908165 0.62500000 0.12500000
0.25000000 0.25000000 0.25000000
0.17091835 -0.12500000 0.37500000
0.81632614 1.50000000 -0.50000000
0.73724520 1.12500000 -0.37500000
0.65816355 0.75000000 -0.25000000
0.37500000 0.17091846 -0.12500000
0.37500000 -0.12500000 0.07908159
-0.50000000 1.50000000 0.68367362
-0.50000000 1.50000000 1.18367350
-0.50000000 1.31632662 1.50000000
-0.50000000 0.81632638 1.50000000
-0.50000000 0.31632614 1.50000000
-0.50000000 1.50000000 0.18367338
-0.37500000 1.12500000 0.51275522
-0.37500000 1.12500000 1.01275516
-0.37500000 0.73724484 1.12500000
-0.37500000 0.23724461 1.12500000
-0.50000000 1.50000000 -0.31632650
-0.37500000 1.12500000 0.01275498
-0.25000000 0.75000000 0.34183681
-0.25000000 0.65816331 0.75000000
-0.25000000 0.15816307 0.75000000
-0.18367326 1.50000000 -0.50000000
-0.26275501 1.12500000 -0.37500000
-0.25000000 0.75000000 -0.15816325
-0.12500000 0.37500000 0.17091841
-0.12500000 0.07908154 0.37500000
0.31632662 1.50000000 -0.50000000
0.23724496 1.12500000 -0.37500000
0.15816331 0.75000000 -0.25000000
0.07908165 0.37500000 -0.12500000
0.00000050 0.00000050 0.00000050
