Finn_Major/Finn Major.cube
# VEGAS Pro LUT
TITLE "Finn Major"
LUT_3D_SIZE 5
0.72941178 0.82352942 1.00000000
0.75965089 0.84653044 1.00000000
0.81772667 0.89076746 1.00000000
0.88869888 0.94127965 1.00000000
0.95762736 0.98310620 1.00000000
0.81527013 0.88893723 1.00000000
0.88603258 0.93948364 1.00000000
0.95530093 0.98189479 1.00000000
1.00000000 0.99735361 0.98826635
1.00000000 0.95851457 0.90915143
0.95295233 0.98065209 1.00000000
1.00000000 0.99800104 0.99061763
1.00000000 0.96055472 0.91252768
1.00000000 0.89460105 0.81097561
1.00000000 0.81955236 0.69509810
1.00000000 0.96255630 0.91587222
1.00000000 0.89730746 0.81502140
1.00000000 0.82224941 0.69950902
1.00000000 0.75679427 0.57847184
0.90154433 0.72974241 0.44319826
1.00000000 0.82495946 0.70391250
1.00000000 0.75880712 0.58291668
0.90930170 0.72972757 0.44890434
0.64822257 0.74703234 0.28696159
0.35237116 0.78382730 0.13423003
0.73670679 0.82884204 1.00000000
0.77932143 0.86170441 1.00000000
0.84407651 0.91009861 1.00000000
0.91603172 0.95906389 1.00000000
0.98024690 0.99363935 1.00000000
0.84147519 0.90821648 1.00000000
0.91343021 0.95742583 1.00000000
0.97819483 0.99279577 1.00000000
1.00000000 0.98705912 0.96141142
1.00000000 0.93533367 0.87240148
0.97611284 0.99191320 1.00000000
1.00000000 0.98832184 0.96419311
1.00000000 0.93771678 0.87608004
1.00000000 0.86600572 0.76798838
1.00000000 0.79260093 0.64905488
1.00000000 0.94007128 0.87973160
1.00000000 0.86879277 0.77221304
1.00000000 0.79510635 0.65351653
1.00000000 0.73842418 0.53277886
0.81119722 0.73306185 0.38237739
1.00000000 0.79763478 0.65797544
1.00000000 0.73998314 0.53715092
0.82062066 0.73250908 0.38835126
0.53375667 0.76005703 0.22569963
0.25261363 0.79800510 0.08590281
0.74939221 0.83858734 1.00000000
0.80221057 0.87913620 1.00000000
0.87147301 0.92951280 1.00000000
0.94223946 0.97475630 1.00000000
0.99956948 0.99990582 1.00000000
0.86880678 0.92765880 1.00000000
0.93978256 0.97335619 1.00000000
0.99787164 0.99951011 1.00000000
1.00000000 0.97097844 0.93037283
1.00000000 0.90918845 0.83279610
0.99613613 0.99906766 1.00000000
1.00000000 0.97275257 0.93353617
1.00000000 0.91181070 0.83672816
1.00000000 0.83716416 0.72342509
1.00000000 0.76822513 0.60276383
1.00000000 0.91441441 0.84063786
1.00000000 0.83992809 0.72777975
1.00000000 0.77043515 0.60722733
0.94811779 0.73070985 0.47934857
0.70681083 0.74123144 0.31986833
1.00000000 0.77267820 0.61169279
0.95455050 0.73109442 0.48479113
0.71733236 0.74026823 0.32591864
0.42012241 0.77459359 0.16776003
0.16912663 0.81022900 0.04609984
0.76663983 0.85193604 1.00000000
0.82749009 0.89799660 1.00000000
0.89908820 0.94818074 1.00000000
0.96649390 0.98752767 1.00000000
1.00000000 0.99326676 0.97609919
0.89643693 0.94643492 1.00000000
0.96426165 0.98644561 1.00000000
1.00000000 0.99421859 0.97866046
1.00000000 0.95018744 0.89565712
1.00000000 0.88115484 0.79084182
1.00000000 0.99511033 0.98117977
1.00000000 0.95236915 0.89915317
1.00000000 0.88391238 0.79497844
1.00000000 0.80915225 0.67779219
1.00000000 0.74750102 0.55673134
1.00000000 0.88666141 0.79909742
1.00000000 0.81178927 0.68222803
1.00000000 0.74931175 0.56114781
0.86948907 0.73034084 0.42058137
0.59427154 0.75292969 0.25765440
1.00000000 0.75116557 0.56557095
0.87794161 0.73010814 0.42641091
0.60532320 0.75168365 0.26358977
0.31320620 0.78932065 0.11512611
0.10779656 0.81917757 0.01680446
0.78762168 0.86805904 1.00000000
0.85433197 0.91745645 1.00000000
0.92609394 0.96527332 1.00000000
0.98796713 0.99654889 1.00000000
1.00000000 0.98009735 0.94719940
0.92353755 0.96371567 1.00000000
0.98603934 0.99586481 1.00000000
1.00000000 0.98161525 0.95016795
1.00000000 0.92576206 0.85777068
1.00000000 0.85230875 0.74704492
1.00000000 0.98308301 0.95309937
1.00000000 0.92824751 0.86155063
1.00000000 0.85509777 0.75133723
1.00000000 0.78304601 0.63159603
0.98039871 0.73362970 0.50843358
1.00000000 0.85788834 0.75561666
1.00000000 0.78545219 0.63606411
0.98554021 0.73439038 0.51359558
0.77315503 0.73564494 0.35889074
0.47946581 0.76683527 0.19771896
0.99042797 0.73522383 0.51870042
0.78305942 0.73492241 0.36491594
0.49047956 0.76543379 0.20334804
0.21889439 0.80291665 0.06978121
0.07450981 0.82352942 0.00000000
