Finn_Major/Finn Major.cube
# VEGAS Pro LUT
TITLE "Finn Major"
LUT_3D_SIZE 33
0.72941178 0.82352942 1.00000000
0.73115867 0.82473183 1.00000000
0.73354483 0.82647061 1.00000000
0.73654097 0.82871658 1.00000000
0.74011797 0.83144039 1.00000000
0.74424666 0.83461291 1.00000000
0.74889779 0.83820492 1.00000000
0.75404227 0.84218717 1.00000000
0.75965089 0.84653044 1.00000000
0.76569444 0.85120553 1.00000000
0.77214372 0.85618323 1.00000000
0.77896965 0.86143428 1.00000000
0.78614295 0.86692953 1.00000000
0.79363447 0.87263966 1.00000000
0.80141509 0.87853551 1.00000000
0.80945551 0.88458782 1.00000000
0.81772667 0.89076746 1.00000000
0.82619929 0.89704514 1.00000000
0.83484429 0.90339160 1.00000000
0.84363240 0.90977770 1.00000000
0.85253447 0.91617423 1.00000000
0.86152136 0.92255187 1.00000000
0.87056381 0.92888147 1.00000000
0.87963271 0.93513381 1.00000000
0.88869888 0.94127965 1.00000000
0.89773309 0.94728976 1.00000000
0.90670621 0.95313495 1.00000000
0.91558903 0.95878601 1.00000000
0.92435235 0.96421367 1.00000000
0.93296701 0.96938872 1.00000000
0.94140387 0.97428203 1.00000000
0.94963372 0.97886419 1.00000000
0.95762736 0.98310620 1.00000000
0.73344606 0.82639748 1.00000000
0.73642027 0.82862526 1.00000000
0.73997641 0.83133203 1.00000000
0.74408531 0.83448857 1.00000000
0.74871778 0.83806568 1.00000000
0.75384462 0.84203410 1.00000000
0.75943667 0.84636462 1.00000000
0.76546472 0.85102803 1.00000000
0.77189958 0.85599506 1.00000000
0.77871215 0.86123663 1.00000000
0.78587323 0.86672336 1.00000000
0.79335356 0.87242609 1.00000000
0.80112404 0.87831563 1.00000000
0.80915546 0.88436276 1.00000000
0.81741863 0.89053822 1.00000000
0.82588434 0.89681280 1.00000000
0.83452350 0.90315723 1.00000000
0.84330690 0.90954244 1.00000000
0.85220528 0.91593903 1.00000000
0.86118954 0.92231792 1.00000000
0.87023050 0.92864978 1.00000000
0.87929899 0.93490553 1.00000000
0.88836575 0.94105577 1.00000000
0.89740163 0.94707143 1.00000000
0.90637749 0.95292318 1.00000000
0.91526419 0.95858192 1.00000000
0.92403239 0.96401829 1.00000000
0.93265307 0.96920317 1.00000000
0.94109696 0.97410733 1.00000000
0.94933492 0.97870147 1.00000000
0.95733780 0.98295647 1.00000000
0.96507633 0.98684311 1.00000000
0.97252136 0.99033207 1.00000000
0.73983562 0.83122432 1.00000000
0.74392468 0.83436483 1.00000000
0.74853843 0.83792698 1.00000000
0.75364757 0.84188151 1.00000000
0.75922298 0.84619921 1.00000000
0.76523554 0.85085088 1.00000000
0.77165598 0.85580730 1.00000000
0.77845520 0.86103922 1.00000000
0.78560394 0.86651748 1.00000000
0.79307306 0.87221283 1.00000000
0.80083334 0.87809598 1.00000000
0.80885571 0.88413781 1.00000000
0.81711084 0.89030910 1.00000000
0.82556969 0.89658052 1.00000000
0.83420295 0.90292293 1.00000000
0.84298152 0.90930712 1.00000000
0.85187620 0.91570383 1.00000000
0.86085784 0.92208391 1.00000000
0.86989725 0.92841804 1.00000000
0.87896520 0.93467706 1.00000000
0.88803256 0.94083172 1.00000000
0.89707011 0.94685280 1.00000000
0.90604872 0.95271116 1.00000000
0.91493917 0.95837748 1.00000000
0.92371225 0.96382254 1.00000000
0.93233889 0.96901721 1.00000000
0.94078982 0.97393221 1.00000000
0.94903588 0.97853833 1.00000000
0.95704788 0.98280632 1.00000000
0.96479666 0.98670697 1.00000000
0.97225302 0.99021107 1.00000000
0.97938782 0.99328941 1.00000000
0.98617178 0.99591279 1.00000000
0.74835974 0.83778876 1.00000000
0.75345117 0.84172940 1.00000000
0.75900996 0.84603429 1.00000000
0.76500696 0.85067415 1.00000000
0.77141291 0.85561991 1.00000000
0.77819866 0.86084223 1.00000000
0.78533506 0.86631191 1.00000000
0.79279292 0.87199980 1.00000000
0.80054307 0.87787658 1.00000000
0.80855626 0.88391310 1.00000000
0.81680334 0.89008009 1.00000000
0.82525522 0.89634836 1.00000000
0.83388257 0.90268868 1.00000000
0.84265631 0.90907186 1.00000000
0.85154730 0.91546863 1.00000000
0.86052620 0.92184979 1.00000000
0.86956400 0.92818618 1.00000000
0.87863141 0.93444848 1.00000000
0.88769931 0.94060749 1.00000000
0.89673847 0.94663399 1.00000000
0.90571976 0.95249885 1.00000000
0.91461396 0.95817274 1.00000000
0.92339194 0.96362650 1.00000000
0.93202442 0.96883088 1.00000000
0.94048238 0.97375667 1.00000000
0.94873649 0.97837466 1.00000000
0.95675761 0.98265558 1.00000000
0.96451658 0.98657030 1.00000000
0.97198421 0.99008954 1.00000000
0.97913134 0.99318409 1.00000000
0.98592877 0.99582469 1.00000000
0.99234736 0.99798220 1.00000000
0.99835783 0.99962729 1.00000000
0.75879753 0.84586978 1.00000000
0.76477891 0.85049790 1.00000000
0.77117032 0.85543287 1.00000000
0.77794266 0.86064553 1.00000000
0.78506666 0.86610663 1.00000000
0.79251319 0.87178701 1.00000000
0.80025309 0.87765735 1.00000000
0.80825710 0.88368851 1.00000000
0.81649613 0.88985121 1.00000000
0.82494098 0.89611632 1.00000000
0.83356243 0.90245450 1.00000000
0.84233129 0.90883660 1.00000000
0.85121846 0.91523343 1.00000000
0.86019468 0.92161566 1.00000000
0.86923081 0.92795420 1.00000000
0.87829763 0.93421972 1.00000000
0.88736606 0.94038308 1.00000000
0.89640677 0.94641501 1.00000000
0.90539074 0.95228630 1.00000000
0.91428864 0.95796776 1.00000000
0.92307138 0.96343011 1.00000000
0.93170977 0.96864420 1.00000000
0.94017464 0.97358072 1.00000000
0.94843674 0.97821057 1.00000000
0.95646697 0.98250443 1.00000000
0.96423614 0.98643315 1.00000000
0.97171497 0.98996741 1.00000000
0.97887444 0.99307811 1.00000000
0.98568523 0.99573594 1.00000000
0.99211824 0.99791169 1.00000000
0.99814427 0.99957621 1.00000000
1.00000000 0.99905062 0.99495792
1.00000000 0.99700588 0.98707438
0.77092826 0.85524625 1.00000000
0.77768707 0.86044919 1.00000000
0.78479868 0.86590171 1.00000000
0.79223388 0.87157446 1.00000000
0.79996347 0.87743837 1.00000000
0.80795830 0.88346410 1.00000000
0.81618923 0.88962251 1.00000000
0.82462698 0.89588434 1.00000000
0.83324248 0.90222037 1.00000000
0.84200644 0.90860140 1.00000000
0.85088974 0.91499817 1.00000000
0.85986322 0.92138147 1.00000000
0.86889768 0.92772210 1.00000000
0.87796390 0.93399084 1.00000000
0.88703275 0.94015849 1.00000000
0.89607501 0.94619578 1.00000000
0.90506154 0.95207345 1.00000000
0.91396314 0.95776242 1.00000000
0.92275065 0.96323335 1.00000000
0.93139488 0.96845710 1.00000000
0.93986660 0.97340441 1.00000000
0.94813675 0.97804600 1.00000000
0.95617598 0.98235273 1.00000000
0.96395528 0.98629540 1.00000000
0.97144532 0.98984474 1.00000000
0.97861701 0.99297148 1.00000000
0.98544121 0.99564654 1.00000000
0.99188864 0.99784052 1.00000000
0.99793017 0.99952435 1.00000000
1.00000000 0.99911141 0.99523818
1.00000000 0.99709427 0.98737335
1.00000000 0.99434376 0.97900647
1.00000000 0.99089777 0.97015524
0.78453112 0.86569703 1.00000000
0.79195493 0.87136221 1.00000000
0.79967421 0.87721962 1.00000000
0.80765980 0.88323992 1.00000000
0.81588256 0.88939393 1.00000000
0.82431322 0.89565247 1.00000000
0.83292270 0.90198630 1.00000000
0.84168172 0.90836614 1.00000000
0.85056114 0.91476285 1.00000000
0.85953182 0.92114723 1.00000000
0.86856455 0.92748994 1.00000000
0.87763011 0.93376184 1.00000000
0.88669938 0.93993372 1.00000000
0.89574319 0.94597632 1.00000000
0.90473229 0.95186043 1.00000000
0.91363752 0.95755684 1.00000000
0.92242974 0.96303630 1.00000000
0.93107975 0.96826965 1.00000000
0.93955833 0.97322762 1.00000000
0.94783640 0.97788101 1.00000000
0.95588464 0.98220056 1.00000000
0.96367401 0.98615712 1.00000000
0.97117525 0.98972142 1.00000000
0.97835916 0.99286431 1.00000000
0.98519665 0.99555641 1.00000000
0.99165845 0.99776870 1.00000000
0.99771541 0.99947178 1.00000000
1.00000000 0.99917114 0.99551767
1.00000000 0.99718171 0.98767173
1.00000000 0.99445754 0.97932297
1.00000000 0.99103642 0.97048926
1.00000000 0.98695636 0.96118844
1.00000000 0.98225528 0.95143837
0.79938537 0.87700105 1.00000000
0.80736166 0.88301587 1.00000000
0.81557620 0.88916552 1.00000000
0.82399970 0.89542073 1.00000000
0.83260310 0.90175229 1.00000000
0.84135717 0.90813100 1.00000000
0.85023266 0.91452760 1.00000000
0.85920054 0.92091286 1.00000000
0.86823148 0.92725766 1.00000000
0.87729633 0.93353271 1.00000000
0.88636601 0.93970877 1.00000000
0.89541125 0.94575661 1.00000000
0.90440285 0.95164710 1.00000000
0.91331172 0.95735091 1.00000000
0.92210859 0.96283889 1.00000000
0.93076438 0.96808183 1.00000000
0.93924981 0.97305042 1.00000000
0.94753575 0.97771555 1.00000000
0.95559299 0.98204792 1.00000000
0.96339238 0.98601836 1.00000000
0.97090471 0.98959762 1.00000000
0.97810084 0.99275649 1.00000000
0.98495156 0.99546570 1.00000000
0.99142772 0.99769616 1.00000000
0.99750012 0.99941850 1.00000000
1.00000000 0.99922985 0.99579650
1.00000000 0.99726814 0.98796940
1.00000000 0.99457031 0.97963881
1.00000000 0.99117416 0.97082263
1.00000000 0.98711771 0.96153867
1.00000000 0.98243874 0.95180482
1.00000000 0.97717530 0.94163889
1.00000000 0.97136521 0.93105876
0.81527013 0.88893723 1.00000000
0.82368648 0.89518905 1.00000000
0.83228374 0.90151834 1.00000000
0.84103280 0.90789580 1.00000000
0.84990436 0.91429228 1.00000000
0.85886931 0.92067850 1.00000000
0.86789846 0.92702532 1.00000000
0.87696260 0.93330342 1.00000000
0.88603258 0.93948364 1.00000000
0.89507926 0.94553673 1.00000000
0.90407336 0.95143348 1.00000000
0.91298580 0.95714474 1.00000000
0.92178732 0.96264118 1.00000000
0.93044877 0.96789360 1.00000000
0.93894100 0.97287285 1.00000000
0.94723475 0.97754961 1.00000000
0.95530093 0.98189479 1.00000000
0.96311033 0.98587900 1.00000000
0.97063375 0.98947322 1.00000000
0.97784203 0.99264807 1.00000000
0.98470598 0.99537438 1.00000000
0.99119645 0.99762291 1.00000000
0.99728417 0.99936450 1.00000000
1.00000000 0.99928749 0.99607462
1.00000000 0.99735361 0.98826635
1.00000000 0.99468219 0.97995400
1.00000000 0.99131107 0.97115535
1.00000000 0.98727822 0.96188831
1.00000000 0.98262149 0.95217067
1.00000000 0.97737885 0.94202036
1.00000000 0.97158819 0.93145514
1.00000000 0.96528751 0.92049289
1.00000000 0.95851457 0.90915143
0.83196461 0.90128446 1.00000000
0.84070855 0.90766066 1.00000000
0.84957612 0.91405696 1.00000000
0.85853815 0.92044407 1.00000000
0.86756545 0.92679286 1.00000000
0.87662888 0.93307400 1.00000000
0.88569915 0.93925834 1.00000000
0.89474720 0.94531661 1.00000000
0.90374374 0.95121968 1.00000000
0.91265970 0.95693821 1.00000000
0.92146581 0.96244311 1.00000000
0.93013293 0.96770501 1.00000000
0.93863189 0.97269481 1.00000000
0.94693351 0.97738326 1.00000000
0.95500857 0.98174113 1.00000000
0.96282792 0.98573917 1.00000000
0.97036237 0.98934823 1.00000000
0.97758275 0.99253899 1.00000000
0.98445994 0.99528235 1.00000000
0.99096459 0.99754900 1.00000000
0.99706769 0.99930972 1.00000000
1.00000000 0.99934405 0.99635208
1.00000000 0.99743807 0.98856270
1.00000000 0.99479306 0.98026854
1.00000000 0.99144703 0.97148746
1.00000000 0.98743784 0.96223736
1.00000000 0.98280340 0.95253599
1.00000000 0.97758168 0.94240123
1.00000000 0.97181052 0.93185097
1.00000000 0.96552789 0.92090297
1.00000000 0.95877165 0.90957516
1.00000000 0.95157975 0.89788532
1.00000000 0.94399011 0.88585138
0.84924805 0.91382164 1.00000000
0.85820711 0.92020965 1.00000000
0.86723256 0.92656028 1.00000000
0.87629515 0.93284446 1.00000000
0.88536566 0.93903285 1.00000000
0.89441502 0.94509631 1.00000000
0.90341401 0.95100558 1.00000000
0.91233343 0.95673144 1.00000000
0.92114413 0.96224469 1.00000000
0.92981690 0.96751606 1.00000000
0.93832254 0.97251642 1.00000000
0.94663191 0.97721648 1.00000000
0.95471585 0.98158699 1.00000000
0.96254516 0.98559880 1.00000000
0.97009057 0.98922271 1.00000000
0.97732306 0.99242938 1.00000000
0.98421335 0.99518967 1.00000000
0.99073225 0.99747437 1.00000000
0.99685061 0.99925429 1.00000000
1.00000000 0.99939960 0.99662876
1.00000000 0.99752152 0.98885828
1.00000000 0.99490303 0.98058242
1.00000000 0.99158210 0.97181892
1.00000000 0.98759663 0.96258575
1.00000000 0.98298454 0.95290065
1.00000000 0.97778374 0.94278157
1.00000000 0.97203213 0.93224627
1.00000000 0.96576762 0.92131257
1.00000000 0.95902818 0.90999842
1.00000000 0.95185161 0.89832163
1.00000000 0.94427598 0.88629997
1.00000000 0.93633908 0.87395138
1.00000000 0.92807883 0.86129367
0.86689967 0.92632765 1.00000000
0.87596142 0.93261480 1.00000000
0.88503218 0.93880725 1.00000000
0.89408284 0.94487584 1.00000000
0.90308416 0.95079124 1.00000000
0.91200703 0.95652437 1.00000000
0.92082226 0.96204597 1.00000000
0.92950058 0.96732676 1.00000000
0.93801290 0.97233760 1.00000000
0.94633007 0.97704923 1.00000000
0.95442277 0.98143238 1.00000000
0.96226192 0.98545790 1.00000000
0.96981835 0.98909658 1.00000000
0.97706288 0.99231911 1.00000000
0.98396623 0.99509639 1.00000000
0.99049932 0.99739909 1.00000000
0.99663299 0.99919808 1.00000000
1.00000000 0.99945408 0.99690479
1.00000000 0.99760395 0.98915321
1.00000000 0.99501204 0.98089564
1.00000000 0.99171633 0.97214979
1.00000000 0.98775458 0.96293354
1.00000000 0.98316491 0.95326477
1.00000000 0.97798508 0.94316131
1.00000000 0.97225302 0.93264103
1.00000000 0.96600676 0.92172170
1.00000000 0.95928407 0.91042119
1.00000000 0.95212299 0.89875740
1.00000000 0.94456130 0.88674814
1.00000000 0.93663704 0.87441128
1.00000000 0.92838800 0.86176461
1.00000000 0.91985226 0.84882599
1.00000000 0.91106755 0.83561331
0.88469863 0.93858147 1.00000000
0.89375055 0.94465506 1.00000000
0.90275425 0.95057672 1.00000000
0.91168052 0.95631707 1.00000000
0.92050016 0.96184695 1.00000000
0.92918408 0.96713710 1.00000000
0.93770301 0.97215837 1.00000000
0.94602787 0.97688150 1.00000000
0.95412934 0.98127729 1.00000000
0.96197838 0.98531651 1.00000000
0.96954572 0.98896992 1.00000000
0.97680223 0.99220830 1.00000000
0.98371863 0.99500245 1.00000000
0.99026591 0.99732316 1.00000000
0.99641472 0.99914116 1.00000000
1.00000000 0.99950749 0.99718004
1.00000000 0.99768537 0.98944747
1.00000000 0.99512011 0.98120815
1.00000000 0.99184960 0.97248000
1.00000000 0.98791170 0.96328074
1.00000000 0.98334444 0.95362830
1.00000000 0.97818565 0.94354051
1.00000000 0.97247326 0.93303519
1.00000000 0.96624523 0.92213029
1.00000000 0.95953941 0.91084349
1.00000000 0.95239371 0.89919275
1.00000000 0.94484615 0.88719589
1.00000000 0.93693453 0.87487072
1.00000000 0.92869681 0.86223513
1.00000000 0.92017090 0.84930700
1.00000000 0.91139472 0.83610409
1.00000000 0.90240616 0.82264423
1.00000000 0.89324319 0.80894542
0.90242422 0.95036185 1.00000000
0.91135383 0.95610940 1.00000000
0.92017794 0.96164757 1.00000000
0.92886734 0.96694708 1.00000000
0.93739289 0.97197878 1.00000000
0.94572538 0.97671336 1.00000000
0.95383561 0.98112172 1.00000000
0.96169442 0.98517454 1.00000000
0.96927267 0.98884267 1.00000000
0.97654110 0.99209684 1.00000000
0.98347056 0.99490786 1.00000000
0.99003190 0.99724650 1.00000000
0.99619591 0.99908352 1.00000000
1.00000000 0.99955988 0.99745464
1.00000000 0.99776584 0.98974103
1.00000000 0.99522722 0.98152006
1.00000000 0.99198198 0.97280955
1.00000000 0.98806798 0.96362728
1.00000000 0.98352319 0.95399123
1.00000000 0.97838545 0.94391912
1.00000000 0.97269279 0.93342888
1.00000000 0.96648306 0.92253834
1.00000000 0.95979410 0.91126525
1.00000000 0.95266396 0.89962763
1.00000000 0.94513047 0.88764316
1.00000000 0.93723160 0.87532979
1.00000000 0.92900521 0.86270529
1.00000000 0.92048925 0.84978759
1.00000000 0.91172159 0.83659446
1.00000000 0.90274018 0.82314378
1.00000000 0.89358294 0.80945337
1.00000000 0.88428777 0.79554117
1.00000000 0.87489259 0.78142488
0.91985554 0.96144783 1.00000000
0.92855042 0.96675670 1.00000000
0.93708247 0.97179872 1.00000000
0.94542259 0.97654480 1.00000000
0.95354152 0.98096567 1.00000000
0.96141011 0.98503208 1.00000000
0.96899915 0.98871487 1.00000000
0.97627950 0.99198478 1.00000000
0.98322195 0.99481261 1.00000000
0.98979735 0.99716914 1.00000000
0.99597651 0.99902517 1.00000000
1.00000000 0.99961120 0.99772853
1.00000000 0.99784523 0.99003392
1.00000000 0.99533337 0.98183131
1.00000000 0.99211341 0.97313845
1.00000000 0.98822337 0.96397328
1.00000000 0.98370111 0.95435357
1.00000000 0.97858453 0.94429719
1.00000000 0.97291160 0.93382204
1.00000000 0.96672022 0.92294586
1.00000000 0.96004826 0.91168660
1.00000000 0.95293367 0.90006202
1.00000000 0.94541436 0.88809001
1.00000000 0.93752825 0.87578839
1.00000000 0.92931324 0.86317503
1.00000000 0.92080724 0.85026783
1.00000000 0.91204816 0.83708447
1.00000000 0.90307397 0.82364297
1.00000000 0.89392251 0.80996108
1.00000000 0.88463175 0.79605669
1.00000000 0.87523955 0.78194761
1.00000000 0.86578393 0.76765168
1.00000000 0.85630268 0.75318676
0.93677181 0.97161829 1.00000000
0.94511950 0.97637576 1.00000000
0.95324707 0.98080909 1.00000000
0.96112537 0.98488909 1.00000000
0.96872526 0.98858654 1.00000000
0.97601748 0.99187213 1.00000000
0.98297292 0.99471676 1.00000000
0.98956233 0.99709117 1.00000000
0.99575657 0.99896610 1.00000000
1.00000000 0.99966145 0.99800169
1.00000000 0.99792367 0.99032611
1.00000000 0.99543852 0.98214185
1.00000000 0.99224401 0.97346675
1.00000000 0.98837793 0.96431863
1.00000000 0.98387825 0.95471531
1.00000000 0.97878289 0.94467467
1.00000000 0.97312975 0.93421459
1.00000000 0.96695673 0.92335290
1.00000000 0.96030182 0.91210741
1.00000000 0.95320278 0.90049595
1.00000000 0.94569772 0.88853639
1.00000000 0.93782443 0.87624663
1.00000000 0.92962080 0.86364442
1.00000000 0.92112488 0.85074764
1.00000000 0.91237444 0.83757418
1.00000000 0.90340745 0.82414186
1.00000000 0.89426190 0.81046849
1.00000000 0.88497555 0.79657197
1.00000000 0.87558645 0.78247011
1.00000000 0.86613244 0.76818073
1.00000000 0.85665148 0.75372171
1.00000000 0.84718144 0.73911095
1.00000000 0.83776027 0.72436619
0.95295233 0.98065209 1.00000000
0.96084028 0.98474562 1.00000000
0.96845096 0.98845762 1.00000000
0.97575498 0.99175888 1.00000000
0.98272330 0.99462026 1.00000000
0.98932672 0.99701244 1.00000000
0.99553603 0.99890625 1.00000000
1.00000000 0.99971062 0.99827409
1.00000000 0.99800104 0.99061763
1.00000000 0.99554276 0.98245174
1.00000000 0.99237365 0.97379440
1.00000000 0.98853159 0.96466333
1.00000000 0.98405457 0.95507646
1.00000000 0.97898042 0.94505161
1.00000000 0.97334719 0.93460667
1.00000000 0.96719259 0.92375940
1.00000000 0.96055472 0.91252768
1.00000000 0.95347142 0.90092939
1.00000000 0.94598061 0.88898236
1.00000000 0.93812013 0.87670439
1.00000000 0.92992806 0.86411339
1.00000000 0.92144215 0.85122710
1.00000000 0.91270041 0.83806354
1.00000000 0.90374076 0.82464039
1.00000000 0.89460105 0.81097561
1.00000000 0.88531929 0.79708695
1.00000000 0.87593329 0.78299230
1.00000000 0.86648101 0.76870954
1.00000000 0.85700035 0.75425649
1.00000000 0.84752923 0.73965096
1.00000000 0.83810556 0.72491080
1.00000000 0.82876730 0.71005392
1.00000000 0.81955236 0.69509810
0.96817619 0.98832816 1.00000000
0.97549206 0.99164510 1.00000000
0.98247325 0.99452311 1.00000000
0.98909056 0.99693310 1.00000000
0.99531490 0.99884576 1.00000000
1.00000000 0.99975872 0.99854583
1.00000000 0.99807745 0.99090844
1.00000000 0.99564606 0.98276097
1.00000000 0.99250239 0.97412139
1.00000000 0.98868442 0.96500742
1.00000000 0.98423010 0.95543700
1.00000000 0.97917724 0.94542801
1.00000000 0.97356385 0.93499815
1.00000000 0.96742785 0.92416537
1.00000000 0.96080703 0.91294748
1.00000000 0.95373946 0.90136236
1.00000000 0.94626296 0.88942784
1.00000000 0.93841547 0.87716174
1.00000000 0.93023485 0.86458194
1.00000000 0.92175913 0.85170621
1.00000000 0.91302615 0.83855253
1.00000000 0.90407383 0.82513863
1.00000000 0.89494008 0.81148237
1.00000000 0.88566279 0.79760164
1.00000000 0.87627995 0.78351426
1.00000000 0.86682945 0.76923811
1.00000000 0.85734916 0.75479102
1.00000000 0.84787703 0.74019074
1.00000000 0.83845097 0.72545528
1.00000000 0.82910889 0.71060234
1.00000000 0.81988871 0.69564986
1.00000000 0.81082833 0.68061560
1.00000000 0.80196571 0.66551751
0.98222268 0.99442536 1.00000000
0.98885393 0.99685305 1.00000000
0.99509323 0.99878454 1.00000000
1.00000000 0.99980581 0.99881685
1.00000000 0.99815285 0.99119854
1.00000000 0.99574834 0.98306954
1.00000000 0.99263024 0.97444773
1.00000000 0.98883641 0.96535093
1.00000000 0.98440480 0.95579702
1.00000000 0.97937334 0.94580376
1.00000000 0.97377986 0.93538910
1.00000000 0.96766239 0.92457086
1.00000000 0.96105880 0.91336679
1.00000000 0.95400691 0.90179485
1.00000000 0.94654483 0.88987291
1.00000000 0.93871027 0.87761867
1.00000000 0.93054128 0.86505008
1.00000000 0.92207575 0.85218495
1.00000000 0.91335154 0.83904117
1.00000000 0.90440661 0.82563651
1.00000000 0.89527887 0.81198889
1.00000000 0.88600624 0.79811609
1.00000000 0.87662661 0.78403598
1.00000000 0.86717790 0.76976645
1.00000000 0.85769802 0.75532532
1.00000000 0.84822494 0.74073040
1.00000000 0.83879650 0.72599953
1.00000000 0.82945067 0.71115065
1.00000000 0.82022536 0.69620150
1.00000000 0.81115842 0.68116999
1.00000000 0.80228782 0.66607386
1.00000000 0.79365146 0.65093112
1.00000000 0.78528726 0.63575947
0.99487096 0.99872261 1.00000000
1.00000000 0.99985176 0.99908715
1.00000000 0.99822718 0.99148798
1.00000000 0.99584967 0.98337746
1.00000000 0.99275714 0.97477347
1.00000000 0.98898751 0.96569383
1.00000000 0.98457867 0.95615637
1.00000000 0.97956860 0.94617897
1.00000000 0.97399515 0.93577951
1.00000000 0.96789628 0.92497575
1.00000000 0.96130991 0.91378564
1.00000000 0.95427388 0.90222692
1.00000000 0.94682616 0.89031750
1.00000000 0.93900466 0.87807518
1.00000000 0.93084729 0.86551780
1.00000000 0.92239201 0.85266328
1.00000000 0.91367662 0.83952945
1.00000000 0.90473914 0.82613409
1.00000000 0.89561749 0.81249505
1.00000000 0.88634950 0.79863024
1.00000000 0.87697309 0.78455746
1.00000000 0.86752629 0.77029461
1.00000000 0.85804689 0.75585943
1.00000000 0.84857291 0.74126983
1.00000000 0.83914214 0.72654372
1.00000000 0.82979262 0.71169883
1.00000000 0.82056212 0.69675303
1.00000000 0.81148875 0.68172419
1.00000000 0.80261022 0.66663021
1.00000000 0.79396462 0.65148884
1.00000000 0.78558975 0.63631797
1.00000000 0.77752352 0.62113541
1.00000000 0.76980394 0.60595906
1.00000000 0.99830055 0.99177670
1.00000000 0.99595004 0.98368466
1.00000000 0.99288315 0.97509855
1.00000000 0.98913777 0.96603608
1.00000000 0.98475176 0.95651513
1.00000000 0.97976315 0.94655365
1.00000000 0.97420979 0.93616939
1.00000000 0.96812952 0.92538017
1.00000000 0.96156037 0.91420394
1.00000000 0.95454025 0.90265846
1.00000000 0.94710702 0.89076161
1.00000000 0.93929857 0.87853122
1.00000000 0.93115294 0.86598516
1.00000000 0.92270792 0.85314125
1.00000000 0.91400141 0.84001738
1.00000000 0.90507144 0.82663131
1.00000000 0.89595586 0.81300092
1.00000000 0.88669258 0.79914409
1.00000000 0.87731957 0.78507870
1.00000000 0.86787462 0.77082247
1.00000000 0.85839576 0.75639331
1.00000000 0.84892088 0.74180913
1.00000000 0.83948791 0.72708768
1.00000000 0.83013469 0.71224684
1.00000000 0.82089919 0.69730443
1.00000000 0.81181931 0.68227839
1.00000000 0.80293298 0.66718644
1.00000000 0.79427809 0.65204650
1.00000000 0.78589261 0.63687640
1.00000000 0.77781439 0.62169397
1.00000000 0.77008134 0.60651708
1.00000000 0.76273143 0.59136355
1.00000000 0.75580257 0.57625127
1.00000000 0.99300820 0.97542292
1.00000000 0.98928714 0.96637768
1.00000000 0.98492402 0.95687336
1.00000000 0.97995692 0.94692773
1.00000000 0.97442365 0.93655866
1.00000000 0.96836209 0.92578411
1.00000000 0.96181029 0.91462177
1.00000000 0.95480609 0.90308958
1.00000000 0.94738734 0.89120531
1.00000000 0.93959206 0.87898690
1.00000000 0.93145812 0.86645210
1.00000000 0.92302346 0.85361886
1.00000000 0.91432595 0.84050494
1.00000000 0.90540349 0.82712823
1.00000000 0.89629406 0.81350648
1.00000000 0.88703555 0.79965770
1.00000000 0.87766588 0.78559965
1.00000000 0.86822295 0.77135015
1.00000000 0.85874468 0.75692701
1.00000000 0.84926897 0.74234819
1.00000000 0.83983374 0.72763151
1.00000000 0.83047694 0.71279472
1.00000000 0.82123643 0.69785577
1.00000000 0.81215018 0.68283248
1.00000000 0.80325603 0.66774261
1.00000000 0.79459196 0.65260416
1.00000000 0.78619587 0.63743484
1.00000000 0.77810568 0.62225252
1.00000000 0.77035928 0.60707515
1.00000000 0.76299459 0.59192044
1.00000000 0.75604957 0.57680631
1.00000000 0.74956203 0.56175059
