Finn_Major/Finn Major.cube
# VEGAS Pro LUT
TITLE "Finn Major"
LUT_3D_SIZE 9
0.72941178 0.82352942 1.00000000
0.74011797 0.83144039 1.00000000
0.75965089 0.84653044 1.00000000
0.78614295 0.86692953 1.00000000
0.81772667 0.89076746 1.00000000
0.85253447 0.91617423 1.00000000
0.88869888 0.94127965 1.00000000
0.92435235 0.96421367 1.00000000
0.95762736 0.98310620 1.00000000
0.75879753 0.84586978 1.00000000
0.78506666 0.86610663 1.00000000
0.81649613 0.88985121 1.00000000
0.85121846 0.91523343 1.00000000
0.88736606 0.94038308 1.00000000
0.92307138 0.96343011 1.00000000
0.95646697 0.98250443 1.00000000
0.98568523 0.99573594 1.00000000
1.00000000 0.99700588 0.98707438
0.81527013 0.88893723 1.00000000
0.84990436 0.91429228 1.00000000
0.88603258 0.93948364 1.00000000
0.92178732 0.96264118 1.00000000
0.95530093 0.98189479 1.00000000
0.98470598 0.99537438 1.00000000
1.00000000 0.99735361 0.98826635
1.00000000 0.98262149 0.95217067
1.00000000 0.95851457 0.90915143
0.88469863 0.93858147 1.00000000
0.92050016 0.96184695 1.00000000
0.95412934 0.98127729 1.00000000
0.98371863 0.99500245 1.00000000
1.00000000 0.99768537 0.98944747
1.00000000 0.98334444 0.95362830
1.00000000 0.95953941 0.91084349
1.00000000 0.92869681 0.86223513
1.00000000 0.89324319 0.80894542
0.95295233 0.98065209 1.00000000
0.98272330 0.99462026 1.00000000
1.00000000 0.99800104 0.99061763
1.00000000 0.98405457 0.95507646
1.00000000 0.96055472 0.91252768
1.00000000 0.92992806 0.86411339
1.00000000 0.89460105 0.81097561
1.00000000 0.85700035 0.75425649
1.00000000 0.81955236 0.69509810
1.00000000 0.99830055 0.99177670
1.00000000 0.98475176 0.95651513
1.00000000 0.96156037 0.91420394
1.00000000 0.93115294 0.86598516
1.00000000 0.89595586 0.81300092
1.00000000 0.85839576 0.75639331
1.00000000 0.82089919 0.69730443
1.00000000 0.78589261 0.63687640
1.00000000 0.75580257 0.57625127
1.00000000 0.96255630 0.91587222
1.00000000 0.93237132 0.86785054
1.00000000 0.89730746 0.81502140
1.00000000 0.85979134 0.75852686
1.00000000 0.82224941 0.69950902
1.00000000 0.78710818 0.63910997
1.00000000 0.75679427 0.57847184
0.98890066 0.73495072 0.51708245
0.90154433 0.72974241 0.44319826
1.00000000 0.89865577 0.81703687
1.00000000 0.86118686 0.76065695
1.00000000 0.82360286 0.70171171
1.00000000 0.78833038 0.64134324
1.00000000 0.75779587 0.58069372
0.99128902 0.73538333 0.51962227
0.90544653 0.72972775 0.44605568
0.78484797 0.73479545 0.36601034
0.64276892 0.74760628 0.28395930
1.00000000 0.82495946 0.70391250
1.00000000 0.78955895 0.64357615
1.00000000 0.75880712 0.58291668
0.99361235 0.73583448 0.52214724
0.90930170 0.72972757 0.44890434
0.78974658 0.73445356 0.36901808
0.64822257 0.74703234 0.28696159
0.49800554 0.76448363 0.20720787
0.35237116 0.78382730 0.13423003
0.73233378 0.82557982 1.00000000
0.74662560 0.83644855 1.00000000
0.76903212 0.85378337 1.00000000
0.79768574 0.87571418 1.00000000
0.83071899 0.90037084 1.00000000
0.86626434 0.92588329 1.00000000
0.90245420 0.95038140 1.00000000
0.93742108 0.97199512 1.00000000
0.96929747 0.98885423 1.00000000
0.76808566 0.85305274 1.00000000
0.79654258 0.87484759 1.00000000
0.82944781 0.89943713 1.00000000
0.86493379 0.92495126 1.00000000
0.90113306 0.94951981 1.00000000
0.93617803 0.97127277 1.00000000
0.96820122 0.98833996 1.00000000
0.99533504 0.99885130 1.00000000
1.00000000 0.99249071 0.97409165
0.82818007 0.89850467 1.00000000
0.86360419 0.92401791 1.00000000
0.89981031 0.94865435 1.00000000
0.93493086 0.97054404 1.00000000
0.96709830 0.98781675 1.00000000
0.99444509 0.99860245 1.00000000
1.00000000 0.99299687 0.97539347
1.00000000 0.97440422 0.93652332
1.00000000 0.94736189 0.89116502
0.89848614 0.94778526 1.00000000
0.93367964 0.96980906 1.00000000
0.96598881 0.98728478 1.00000000
0.99354607 0.99834228 1.00000000
1.00000000 0.99348831 0.97668499
1.00000000 0.97525281 0.93807530
1.00000000 0.94847834 0.89293540
1.00000000 0.91559148 0.84240746
1.00000000 0.87901878 0.78763354
0.96487296 0.98674417 1.00000000
0.99263811 0.99807090 1.00000000
1.00000000 0.99396497 0.97796607
1.00000000 0.97608984 0.93961841
1.00000000 0.94958651 0.89469856
1.00000000 0.91688150 0.84434861
1.00000000 0.88040143 0.78971064
1.00000000 0.84257269 0.73192680
1.00000000 0.80582190 0.67213911
1.00000000 0.99442661 0.97923672
1.00000000 0.97691518 0.94115263
1.00000000 0.95068628 0.89645433
1.00000000 0.91816646 0.84628391
1.00000000 0.88178223 0.79178345
1.00000000 0.84396017 0.73409510
1.00000000 0.80712670 0.67436093
1.00000000 0.77370846 0.61372304
1.00000000 0.74613190 0.55332345
1.00000000 0.95177752 0.89820266
1.00000000 0.91944617 0.84821332
1.00000000 0.88316113 0.79385197
1.00000000 0.84534895 0.73626065
1.00000000 0.80843616 0.67658150
1.00000000 0.77484924 0.61595660
1.00000000 0.74701476 0.55552804
0.96048111 0.73152339 0.48994201
0.85849357 0.73071331 0.41312280
1.00000000 0.88453794 0.79591614
1.00000000 0.84673893 0.73842341
1.00000000 0.80975008 0.67880082
1.00000000 0.77599782 0.61819047
1.00000000 0.74790871 0.55773449
0.96350425 0.73177248 0.49262235
0.86284441 0.73055691 0.41605797
0.73249006 0.73892838 0.33472031
0.58571690 0.75390667 0.25308242
1.00000000 0.81106836 0.68101877
1.00000000 0.77715403 0.62042457
1.00000000 0.74881363 0.55994260
0.96646923 0.73203868 0.49529013
0.86715502 0.73041356 0.41898671
0.73765790 0.73848510 0.33774540
0.59125358 0.75327313 0.25603926
0.44121787 0.77179742 0.17834140
0.30082646 0.79107785 0.10912485
0.73670679 0.82884204 1.00000000
0.75431281 0.84239668 1.00000000
0.77932143 0.86170441 1.00000000
0.80986518 0.88489509 1.00000000
0.84407651 0.91009861 1.00000000
0.88008785 0.93544489 1.00000000
0.91603172 0.95906389 1.00000000
0.95004058 0.97908539 1.00000000
0.98024690 0.99363935 1.00000000
0.77829188 0.86091381 1.00000000
0.80866510 0.88399482 1.00000000
0.84277457 0.90915740 1.00000000
0.87875277 0.93453157 1.00000000
0.91473222 0.95824724 1.00000000
0.94884539 0.97843421 1.00000000
0.97922468 0.99322248 1.00000000
1.00000000 0.99896610 0.99457467
1.00000000 0.98640752 0.96000594
0.84147519 0.90821648 1.00000000
0.87741774 0.93361604 1.00000000
0.91343021 0.95742583 1.00000000
0.94764507 0.97777575 1.00000000
0.97819483 0.99279577 1.00000000
1.00000000 0.99920863 0.99569523
1.00000000 0.98705912 0.96141142
1.00000000 0.96495861 0.91993278
1.00000000 0.93533367 0.87240148
0.91212577 0.95659971 1.00000000
0.94643986 0.97711009 1.00000000
0.97715753 0.99235928 1.00000000
1.00000000 0.99943441 0.99680448
1.00000000 0.98769724 0.96280712
1.00000000 0.96591985 0.92157298
1.00000000 0.93652874 0.87424409
1.00000000 0.90195036 0.82196259
1.00000000 0.86461127 0.76587051
0.97611284 0.99191320 1.00000000
1.00000000 0.99964327 0.99790239
1.00000000 0.98832184 0.96419311
1.00000000 0.96687078 0.92320496
1.00000000 0.93771678 0.87608004
1.00000000 0.90328622 0.82396048
1.00000000 0.86600572 0.76798838
1.00000000 0.82830179 0.70930582
1.00000000 0.79260093 0.64905488
1.00000000 0.98893267 0.96556920
1.00000000 0.96781129 0.92482859
1.00000000 0.93889767 0.87790918
1.00000000 0.90461826 0.82595319
1.00000000 0.86739963 0.77010256
1.00000000 0.82966822 0.71149951
1.00000000 0.79385072 0.65128601
1.00000000 0.76237351 0.59060431
1.00000000 0.73766315 0.53059638
1.00000000 0.94007128 0.87973160
1.00000000 0.90594631 0.82794058
1.00000000 0.86879277 0.77221304
1.00000000 0.83103728 0.71369100
1.00000000 0.79510635 0.65351653
1.00000000 0.76342648 0.59283179
1.00000000 0.73842418 0.53277886
0.92588603 0.72990698 0.46148139
0.81119722 0.73306185 0.38237739
1.00000000 0.87018520 0.77431971
1.00000000 0.83240885 0.71588022
1.00000000 0.79636776 0.65574634
1.00000000 0.76448852 0.59506011
1.00000000 0.73919755 0.53496373
0.92947298 0.72998857 0.46427828
0.81592560 0.73277974 0.38536641
0.67774534 0.74402171 0.30338666
0.52820802 0.76073426 0.22281212
1.00000000 0.79763478 0.65797544
1.00000000 0.76555943 0.59728926
1.00000000 0.73998314 0.53715092
0.93300867 0.73008561 0.46706498
0.82062066 0.73250908 0.38835126
0.68311143 0.74349296 0.30640513
0.53375667 0.76005703 0.22569963
0.38583219 0.77922118 0.15070784
0.25261363 0.79800510 0.08590281
0.74242747 0.83321244 1.00000000
0.76307613 0.84918112 1.00000000
0.79041547 0.87018991 1.00000000
0.82257777 0.89436859 1.00000000
0.85769570 0.91984713 1.00000000
0.89390159 0.94475543 1.00000000
0.92932796 0.96722335 1.00000000
0.96210730 0.98538083 1.00000000
0.99037206 0.99735773 1.00000000
0.78931278 0.86934936 1.00000000
0.82133079 0.89344460 1.00000000
0.85637301 0.91890848 1.00000000
0.89257199 0.94387084 1.00000000
0.92806011 0.96646172 1.00000000
0.96096992 0.98481089 1.00000000
0.98943388 0.99704832 1.00000000
1.00000000 0.99549550 0.98231095
1.00000000 0.97889072 0.94488037
0.85505193 0.91796911 1.00000000
0.89124143 0.94298309 1.00000000
0.92678881 0.96569431 1.00000000
0.95982653 0.98423266 1.00000000
0.98848712 0.99672806 1.00000000
1.00000000 0.99590456 0.98354512
1.00000000 0.97967482 0.94638342
1.00000000 0.95441926 0.90246236
1.00000000 0.92256433 0.85292405
0.92551404 0.96492130 1.00000000
0.95867723 0.98364627 1.00000000
0.98753196 0.99639714 1.00000000
1.00000000 0.99629807 0.98476857
1.00000000 0.98044670 0.94787735
1.00000000 0.95548016 0.90418470
1.00000000 0.92382503 0.85483283
1.00000000 0.88790786 0.80096376
1.00000000 0.85015517 0.74371958
0.98656839 0.99605554 1.00000000
1.00000000 0.99667597 0.98598129
1.00000000 0.98120618 0.94936204
1.00000000 0.95653200 0.90589941
1.00000000 0.92508000 0.85673547
1.00000000 0.88927662 0.80301231
1.00000000 0.85154849 0.74587208
1.00000000 0.81432199 0.68645686
1.00000000 0.78002381 0.62590873
1.00000000 0.98195326 0.95083749
1.00000000 0.95757473 0.90760636
1.00000000 0.92632908 0.85863197
1.00000000 0.89064276 0.80505633
1.00000000 0.85294241 0.74802154
1.00000000 0.81565452 0.68866980
1.00000000 0.78120559 0.62814307
1.00000000 0.75202221 0.56758350
0.97625518 0.73309100 0.50440675
1.00000000 0.92757207 0.86052221
1.00000000 0.89200622 0.80709559
1.00000000 0.85433698 0.75016785
1.00000000 0.81699091 0.69088107
1.00000000 0.78239453 0.63037735
1.00000000 0.75297439 0.56979877
0.97895312 0.73343474 0.50701612
0.88585132 0.72993630 0.43194848
0.76039100 0.73662299 0.35120991
1.00000000 0.85573190 0.75231099
1.00000000 0.81833094 0.69309080
1.00000000 0.78359044 0.63261157
1.00000000 0.75393689 0.57201552
0.98158926 0.73379624 0.50961173
0.88993108 0.72986633 0.43483803
0.76542598 0.73623109 0.35422885
0.62134975 0.74991030 0.27225727
0.47097802 0.76792389 0.19339631
1.00000000 0.78479326 0.63484561
1.00000000 0.75490957 0.57423365
0.98416293 0.73417574 0.51219338
0.89396638 0.72981024 0.43771967
0.77043450 0.73584908 0.35724592
0.62684304 0.74931204 0.27524522
0.47646770 0.76721895 0.19619058
0.33258426 0.78658962 0.12455510
0.20846842 0.80444390 0.06481183
0.74939221 0.83858734 1.00000000
0.77281207 0.85669822 1.00000000
0.80221057 0.87913620 1.00000000
0.83572006 0.90403104 1.00000000
0.87147301 0.92951280 1.00000000
0.90760201 0.95371121 1.00000000
0.94223946 0.97475630 1.00000000
0.97351778 0.99077785 1.00000000
0.99956948 0.99990582 1.00000000
0.80104470 0.87825572 1.00000000
0.83443606 0.90309334 1.00000000
0.87013960 0.92858660 1.00000000
0.90628785 0.95286542 1.00000000
0.94101322 0.97405958 1.00000000
0.97244823 0.99029911 1.00000000
0.99872530 0.99971384 1.00000000
1.00000000 0.99037313 0.96890479
1.00000000 0.97007489 0.92877835
0.86880678 0.92765880 1.00000000
0.90497178 0.95201540 1.00000000
0.93978256 0.97335619 1.00000000
0.97137171 0.98981118 1.00000000
0.99787164 0.99951011 1.00000000
1.00000000 0.99093568 0.97024643
1.00000000 0.97097844 0.93037283
1.00000000 0.94292051 0.88417542
1.00000000 0.90918845 0.83279610
0.93854755 0.97264624 1.00000000
0.97028828 0.98931402 1.00000000
0.99700856 0.99929470 1.00000000
1.00000000 0.99148399 0.97157794
1.00000000 0.97187102 0.93195879
1.00000000 0.94406813 0.88597375
1.00000000 0.91050184 0.83476490
1.00000000 0.87359864 0.77947426
1.00000000 0.83578503 0.72124404
0.99613613 0.99906766 1.00000000
1.00000000 0.99201792 0.97289932
1.00000000 0.97275257 0.93353617
1.00000000 0.94520795 0.88776505
1.00000000 0.91181070 0.83672816
1.00000000 0.87498724 0.78156745
1.00000000 0.83716416 0.72342509
1.00000000 0.80076796 0.66344321
1.00000000 0.76822513 0.60276383
1.00000000 0.97362286 0.93510485
1.00000000 0.94633985 0.88954926
1.00000000 0.91311491 0.83868581
1.00000000 0.87637454 0.78365660
1.00000000 0.83854520 0.72560370
1.00000000 0.80205351 0.66566926
1.00000000 0.76932597 0.60499531
1.00000000 0.74278909 0.54472399
0.94481868 0.73054206 0.47661006
1.00000000 0.91441441 0.84063786
1.00000000 0.87776035 0.78574163
1.00000000 0.83992809 0.72777975
1.00000000 0.80334419 0.66789430
1.00000000 0.77043515 0.60722733
1.00000000 0.74362755 0.54692096
0.94811779 0.73070985 0.47934857
0.84111273 0.73144627 0.40159118
0.70681083 0.74123144 0.31986833
1.00000000 0.84131265 0.72995323
1.00000000 0.80463982 0.67011827
1.00000000 0.77155262 0.60945982
1.00000000 0.74447757 0.54911995
0.95136189 0.73089397 0.48207566
0.84561431 0.73124057 0.40454948
0.71208137 0.74074566 0.32289323
0.56403899 0.75642896 0.24158005
0.41476274 0.77531034 0.16508295
1.00000000 0.77267820 0.61169279
1.00000000 0.74533898 0.55132091
0.95455050 0.73109442 0.48479113
0.85007828 0.73104733 0.40750217
0.71733236 0.74026823 0.32591864
0.56958848 0.75577706 0.24451356
0.42012241 0.77459359 0.16776003
0.28220990 0.79373765 0.10013110
0.16912663 0.81022900 0.04609984
0.75749749 0.84486312 1.00000000
0.78341711 0.86484438 1.00000000
0.81460327 0.88843966 1.00000000
0.84918839 0.91377884 1.00000000
0.88530505 0.93899184 1.00000000
0.92108560 0.96220857 1.00000000
0.95466256 0.98155892 1.00000000
0.98416847 0.99517274 1.00000000
1.00000000 0.99753654 0.98891199
0.81338429 0.88752925 1.00000000
0.84787750 0.91283745 1.00000000
0.88397086 0.93808824 1.00000000
0.91979688 0.96141154 1.00000000
0.95348799 0.98093724 1.00000000
0.98317671 0.99479526 1.00000000
1.00000000 0.99785960 0.99008709
1.00000000 0.98373336 0.95441937
1.00000000 0.96009439 0.91176313
0.88263631 0.93718195 1.00000000
0.91850525 0.96060932 1.00000000
0.95230800 0.98030788 1.00000000
0.98217708 0.99440753 1.00000000
1.00000000 0.99816644 0.99125123
1.00000000 0.98443645 0.95586240
1.00000000 0.96110445 0.91344297
1.00000000 0.93059695 0.86513513
1.00000000 0.89534044 0.81208092
0.95112270 0.97967094 1.00000000
0.98116958 0.99400967 1.00000000
1.00000000 0.99845701 0.99240428
1.00000000 0.98512655 0.95729589
1.00000000 0.96210486 0.91511488
1.00000000 0.93181831 0.86700344
1.00000000 0.89669353 0.81410360
1.00000000 0.85915697 0.75755751
1.00000000 0.82163525 0.69850719
1.00000000 0.99873120 0.99354625
1.00000000 0.98580354 0.95871979
1.00000000 0.96309537 0.91677880
1.00000000 0.93303311 0.86886525
1.00000000 0.89804333 0.81612134
1.00000000 0.86055255 0.75968915
1.00000000 0.82298726 0.70071071
1.00000000 0.78777403 0.64032817
1.00000000 0.75733942 0.57968360
1.00000000 0.96407592 0.91843456
1.00000000 0.93424124 0.87072057
1.00000000 0.89938974 0.81813413
1.00000000 0.86194795 0.76181734
1.00000000 0.82434243 0.70291239
1.00000000 0.78899968 0.64256126
1.00000000 0.75834626 0.58190608
0.99256438 0.73562711 0.52100140
0.90755522 0.72972584 0.44761059
1.00000000 0.90073264 0.82014179
1.00000000 0.86334318 0.76394206
1.00000000 0.82570070 0.70511204
1.00000000 0.79023170 0.64479393
1.00000000 0.75936276 0.58412969
0.99485195 0.73608845 0.52351820
0.91138446 0.72973365 0.45045435
0.79240602 0.73427159 0.37065744
0.65119237 0.74672204 0.28860050
1.00000000 0.82706189 0.70730972
1.00000000 0.79146993 0.64702606
1.00000000 0.76038879 0.58635437
0.99707353 0.73656857 0.52601981
0.91516566 0.72975618 0.45328900
0.79725844 0.73394620 0.37366056
0.65662760 0.74615836 0.29160750
0.50654882 0.76341254 0.21160294
0.36029795 0.78272849 0.13811992
1.00000000 0.76142418 0.58858007
0.99922842 0.73706758 0.52850610
0.91889811 0.72979361 0.45611432
0.80208004 0.73363167 0.37666038
0.66204995 0.74560148 0.29461727
0.51208359 0.76272297 0.21445809
0.36545667 0.78201592 0.14065591
0.23544490 0.80050009 0.07768376
0.13532409 0.81519532 0.03001474
0.76663983 0.85193604 1.00000000
0.79478770 0.87351584 1.00000000
0.82749009 0.89799660 1.00000000
0.86287940 0.92350829 1.00000000
0.89908820 0.94818074 1.00000000
0.93424886 0.97014391 1.00000000
0.96649390 0.98752767 1.00000000
0.99395585 0.99846190 1.00000000
1.00000000 0.99326676 0.97609919
0.82622796 0.89706624 1.00000000
0.86155152 0.92257315 1.00000000
0.89776325 0.94730961 1.00000000
0.93299556 0.96940559 1.00000000
0.96538097 0.98699099 1.00000000
0.99305195 0.99819559 1.00000000
1.00000000 0.99375015 0.97738504
1.00000000 0.97571081 0.93891805
1.00000000 0.94908381 0.89389801
0.89643693 0.94643492 1.00000000
0.93173838 0.96866119 1.00000000
0.96426165 0.98644561 1.00000000
0.99213910 0.99791813 1.00000000
1.00000000 0.99421859 0.97866046
1.00000000 0.97654146 0.94045633
1.00000000 0.95018744 0.89565712
1.00000000 0.91758305 0.84540492
1.00000000 0.88115484 0.79084182
0.96313602 0.98589170 1.00000000
0.99121749 0.99762958 1.00000000
1.00000000 0.99467206 0.97992539
1.00000000 0.97736037 0.94198567
1.00000000 0.95128256 0.89740890
1.00000000 0.91886514 0.84733707
1.00000000 0.88253462 0.79291230
1.00000000 0.84471750 0.73527664
1.00000000 0.80784035 0.67557234
1.00000000 0.99511033 0.98117977
1.00000000 0.97816747 0.94350606
1.00000000 0.95236915 0.89915317
1.00000000 0.92014194 0.84926325
1.00000000 0.88391238 0.79497844
1.00000000 0.84610701 0.73744071
1.00000000 0.80915225 0.67779219
1.00000000 0.77547479 0.61717504
1.00000000 0.74750102 0.55673134
1.00000000 0.95344698 0.90088999
1.00000000 0.92141336 0.85118353
1.00000000 0.88528800 0.79704016
1.00000000 0.84749758 0.73960185
1.00000000 0.81046861 0.68001080
1.00000000 0.77662754 0.61940902
1.00000000 0.74840093 0.55893868
0.96512878 0.73191553 0.49407905
0.86520064 0.73047709 0.41765627
1.00000000 0.88666141 0.79909742
1.00000000 0.84888923 0.74176008
1.00000000 0.81178927 0.68222803
1.00000000 0.77778792 0.62164319
1.00000000 0.74931175 0.56114781
0.96806175 0.73219103 0.49673995
0.86948907 0.73034084 0.42058137
0.74046707 0.73824710 0.33939517
0.59427154 0.75292969 0.25765440
1.00000000 0.81311411 0.68444377
1.00000000 0.77895576 0.62387747
1.00000000 0.75023335 0.56335855
0.97093558 0.73248374 0.49938795
0.87373626 0.73021781 0.42349967
0.74559927 0.73781794 0.34241918
0.59980035 0.75230402 0.26061955
0.44961515 0.77069581 0.18257385
0.30831945 0.79001313 0.11275516
1.00000000 0.75116557 0.56557095
0.97374952 0.73279387 0.50202292
0.87794161 0.73010814 0.42641091
0.75070757 0.73739809 0.34544221
0.60532320 0.75168365 0.26358977
0.45506415 0.76998454 0.18532673
0.31320620 0.78932065 0.11512611
0.19302510 0.80671167 0.05746100
0.10779656 0.81917757 0.01680446
0.77671570 0.85970259 1.00000000
0.80682039 0.88260901 1.00000000
0.84076750 0.90770340 1.00000000
0.87668955 0.93311572 1.00000000
0.91271901 0.95697582 1.00000000
0.94698828 0.97741354 1.00000000
0.97762996 0.99255890 1.00000000
1.00000000 0.99933386 0.99630165
1.00000000 0.98740888 0.96217394
0.83947217 0.90676314 1.00000000
0.87535465 0.93219686 1.00000000
0.91141325 0.95614719 1.00000000
0.94578040 0.97674400 1.00000000
0.97658861 0.99211717 1.00000000
1.00000000 0.99955040 0.99740475
1.00000000 0.98803961 0.96356434
1.00000000 0.96643984 0.92246419
1.00000000 0.93717760 0.87524635
0.91010523 0.95531404 1.00000000
0.94456768 0.97606736 1.00000000
0.97553992 0.99166584 1.00000000
1.00000000 0.99975008 0.99849647
1.00000000 0.98865670 0.96494490
1.00000000 0.96738511 0.92409158
1.00000000 0.93836176 0.87707859
1.00000000 0.90401328 0.82504803
1.00000000 0.86676610 0.76914203
0.97448397 0.99120498 1.00000000
1.00000000 0.99993265 0.99957681
1.00000000 0.98926002 0.96631563
1.00000000 0.96831989 0.92571068
1.00000000 0.93953872 0.87890410
1.00000000 0.90534317 0.82703787
1.00000000 0.86815959 0.77125418
1.00000000 0.83041471 0.71269512
1.00000000 0.79453486 0.65250278
1.00000000 0.98984945 0.96767640
1.00000000 0.96924406 0.92732137
1.00000000 0.94070840 0.88072270
1.00000000 0.90666896 0.82902241
1.00000000 0.86955237 0.77336264
1.00000000 0.83178508 0.71488541
1.00000000 0.79579371 0.65473288
1.00000000 0.76400465 0.59404713
1.00000000 0.73884451 0.53397030
1.00000000 0.94187057 0.88253444
1.00000000 0.90799063 0.83100158
1.00000000 0.87094426 0.77546722
1.00000000 0.83315796 0.71707344
1.00000000 0.79705817 0.65696228
1.00000000 0.76507157 0.59627593
1.00000000 0.73962456 0.53615642
0.93140793 0.73003960 0.46579957
0.81849074 0.73263073 0.38699505
1.00000000 0.87233514 0.77756792
1.00000000 0.83453304 0.71925908
1.00000000 0.79832828 0.65919095
1.00000000 0.76614732 0.59850550
1.00000000 0.74041671 0.53834492
0.93491530 0.73014516 0.46858060
0.82316732 0.73236632 0.38997754
0.68603164 0.74320775 0.30805227
0.53678411 0.75968915 0.22727792
1.00000000 0.79960376 0.66141874
1.00000000 0.76723176 0.60073578
1.00000000 0.74122089 0.54053563
0.93837041 0.73026645 0.47135106
0.82780957 0.73211366 0.39295554
0.69137269 0.74269068 0.31107324
0.54233551 0.75901741 0.23017730
0.39397371 0.77811360 0.15474071
0.25956309 0.79699910 0.08923657
1.00000000 0.74203700 0.54272854
0.94177246 0.73040354 0.47411078
0.83241677 0.73187274 0.39592883
0.69669664 0.74218148 0.31409556
0.54788780 0.75834948 0.23308405
0.39926594 0.77739656 0.15736738
0.26410684 0.79634261 0.09141858
0.15568624 0.81220734 0.03971073
0.08727987 0.82201070 0.00671690
0.78762168 0.86805904 1.00000000
0.81941164 0.89202029 1.00000000
0.85433197 0.91745645 1.00000000
0.89051527 0.94249755 1.00000000
0.92609394 0.96527332 1.00000000
0.95920038 0.98391384 1.00000000
0.98796713 0.99654889 1.00000000
1.00000000 0.99612111 0.98421377
1.00000000 0.98009735 0.94719940
0.85301352 0.91651624 1.00000000
0.88918340 0.94160497 1.00000000
0.92481738 0.96449727 1.00000000
0.95804787 0.98332304 1.00000000
0.98700738 0.99621212 1.00000000
1.00000000 0.99650615 0.98543137
1.00000000 0.98086250 0.94868833
1.00000000 0.95605505 0.90512097
1.00000000 0.92451030 0.85587138
0.92353755 0.96371567 1.00000000
0.95688957 0.98272419 1.00000000
0.98603934 0.99586481 1.00000000
1.00000000 0.99687546 0.98663819
1.00000000 0.98161525 0.95016795
1.00000000 0.95710188 0.90683144
1.00000000 0.92576206 0.85777068
1.00000000 0.89002216 0.80412781
1.00000000 0.85230875 0.74704492
0.98506302 0.99550706 1.00000000
1.00000000 0.99722898 0.98783416
1.00000000 0.98235548 0.95163834
1.00000000 0.95813954 0.90853417
1.00000000 0.92700785 0.85966378
1.00000000 0.89138681 0.80616921
1.00000000 0.85370302 0.74919266
1.00000000 0.81638300 0.68987614
1.00000000 0.78185326 0.62936181
1.00000000 0.98308301 0.95309937
1.00000000 0.95916784 0.91022909
1.00000000 0.92824751 0.86155063
1.00000000 0.89274865 0.80820596
1.00000000 0.85509777 0.75133723
1.00000000 0.81772137 0.69208658
1.00000000 0.78304601 0.63159603
1.00000000 0.75349814 0.57100773
0.98039871 0.73362970 0.50843358
1.00000000 0.92948103 0.86343110
1.00000000 0.89410764 0.81023788
1.00000000 0.85649294 0.75347859
1.00000000 0.81906343 0.69429535
1.00000000 0.78424567 0.63383019
1.00000000 0.75446618 0.57322526
0.98300087 0.73400104 0.51102161
0.89213771 0.72983402 0.43641081
0.76816124 0.73602146 0.35587478
1.00000000 0.85788834 0.75561666
1.00000000 0.82040900 0.69650233
1.00000000 0.78545219 0.63606411
1.00000000 0.75544435 0.57544410
0.98554021 0.73439038 0.51359558
0.89614850 0.72978556 0.43928808
0.77315503 0.73564494 0.35889074
0.62983555 0.74898821 0.27687669
0.47946581 0.76683527 0.19771896
1.00000000 0.78666538 0.63829780
1.00000000 0.75643253 0.57766426
0.98801619 0.73479795 0.51615524
0.90011382 0.72975135 0.44215709
0.77812129 0.73527849 0.36190456
0.63531440 0.74839926 0.27987072
0.48496881 0.76613343 0.20052865
0.34036031 0.78550082 0.12835142
0.21476461 0.80352122 0.06781208
0.99042797 0.73522383 0.51870042
0.90403295 0.72973144 0.44501764
0.78305942 0.73492241 0.36491594
0.64078301 0.74781656 0.28286839
0.49047956 0.76543379 0.20334804
0.34542477 0.78479391 0.13082796
0.21889439 0.80291665 0.06978121
0.12416416 0.81682187 0.02468087
0.07450981 0.82352942 0.00000000
