Goodset/Goodset.cube
# VEGAS Pro LUT
TITLE "Goodset"
LUT_3D_SIZE 5
0.00000000 0.00000000 0.00000000
0.19841503 0.02816552 0.02601615
0.39780304 0.11554375 0.10590333
0.59798515 0.28658342 0.26424214
0.78944904 0.53228259 0.49771884
0.12011337 0.24863335 0.10166916
0.39837027 0.37671319 0.25694594
0.67069799 0.57957864 0.48819166
0.88992018 0.80969417 0.75191712
0.99172086 0.97942781 0.96660453
0.54626626 0.62977427 0.47871301
0.83679730 0.82547116 0.74249774
0.98500383 0.97795236 0.96072131
0.81462634 0.93339419 1.00000000
0.39994857 0.72001481 1.00000000
0.97635245 0.97717780 0.95464170
0.82759959 0.93933994 1.00000000
0.41567796 0.72857833 1.00000000
0.06312712 0.53275073 1.00000000
0.07308982 0.53472745 1.00000000
0.43148774 0.73716205 1.00000000
0.07181228 0.53761786 1.00000000
0.06610385 0.53122073 1.00000000
0.33439746 0.66589361 1.00000000
0.67236477 0.83553994 1.00000000
0.00604657 0.00575194 0.18590164
0.21445444 0.05275342 0.20589601
0.42767453 0.17038999 0.27804101
0.64258599 0.37346962 0.42647207
0.83797985 0.63526458 0.64001977
0.17800464 0.28767225 0.27409661
0.47362909 0.44675025 0.41965979
0.74744666 0.66818970 0.63151121
0.93849796 0.88706338 0.85767347
0.97753239 0.99665475 1.00000000
0.65162486 0.70375454 0.62302583
0.90721416 0.89381659 0.85001630
0.98417991 0.99805009 1.00000000
0.66605508 0.86087835 1.00000000
0.24503571 0.63461572 1.00000000
0.99031073 0.99908286 1.00000000
0.68128914 0.86859787 1.00000000
0.25911480 0.64244568 1.00000000
0.00262295 0.49938169 1.00000000
0.16066386 0.57868618 1.00000000
0.27341813 0.65038806 1.00000000
0.00589055 0.50110018 1.00000000
0.15112185 0.57389647 1.00000000
0.46276432 0.73032874 1.00000000
0.78982639 0.89450109 1.00000000
0.01852954 0.01732054 0.36340109
0.23994172 0.08777765 0.37027743
0.46949404 0.23811685 0.43155056
0.69657254 0.46940956 0.56727368
0.88764274 0.73638159 0.75740802
0.24942765 0.33878168 0.42799088
0.55796480 0.52637309 0.56106222
0.82307959 0.75678200 0.75004756
0.97373056 0.95002341 0.93599504
0.88158655 0.96300739 1.00000000
0.75377154 0.77947623 0.74268591
0.95891213 0.95068657 0.93014288
0.89277095 0.96763563 1.00000000
0.50252634 0.77541161 1.00000000
0.11569890 0.56225091 1.00000000
0.90358251 0.97199357 1.00000000
0.51853001 0.78394896 1.00000000
0.12663646 0.56839132 1.00000000
0.03323409 0.51472145 1.00000000
0.27040392 0.63377136 1.00000000
0.13794215 0.57473642 1.00000000
0.02822462 0.51220685 1.00000000
0.25906688 0.62808061 1.00000000
0.59337270 0.79588902 1.00000000
0.88884395 0.94420403 1.00000000
0.03916494 0.03632660 0.52646458
0.27677378 0.13472115 0.51631182
0.52314162 0.31812146 0.56507230
0.75710583 0.57101542 0.68608034
0.93367171 0.83001018 0.85041440
0.33355233 0.40186614 0.56195593
0.64782757 0.61270469 0.68055797
0.89206433 0.84020072 0.84427422
0.99656439 0.99289393 0.98969162
0.74709511 0.90128732 1.00000000
0.84641039 0.85225552 0.83811104
0.99299181 0.99078524 0.98556745
0.76132512 0.90819246 1.00000000
0.33949432 0.68690139 1.00000000
0.02739243 0.51282787 1.00000000
0.77532631 0.91491956 1.00000000
0.35477638 0.69530046 1.00000000
0.03369727 0.51632273 1.00000000
0.10301742 0.54974991 1.00000000
0.39442322 0.69602418 1.00000000
0.04051412 0.52011448 1.00000000
0.09497795 0.54571444 1.00000000
0.38205215 0.68981439 1.00000000
0.71833575 0.85861558 1.00000000
0.96153075 0.98068994 1.00000000
0.06993567 0.06464759 0.67094713
0.32610011 0.19443357 0.64227444
0.58730578 0.40875393 0.67798722
0.82028055 0.67391443 0.78306413
0.96545601 0.91008031 0.92068779
0.42836308 0.47578970 0.67534369
0.73858643 0.70187259 0.77828413
0.94331014 0.91281629 0.91576213
0.94685179 0.98789012 1.00000000
0.58951229 0.82140183 1.00000000
0.91802931 0.91690624 0.91079611
0.95538568 0.99061716 1.00000000
0.60529679 0.82962787 1.00000000
0.19241332 0.60525501 1.00000000
0.01004985 0.50308383 1.00000000
0.62099630 0.83776820 1.00000000
0.20548259 0.61255991 1.00000000
0.00694078 0.50152320 1.00000000
0.19987871 0.59837049 1.00000000
0.52483499 0.76148582 1.00000000
0.00420300 0.50014895 1.00000000
0.18957023 0.59319603 1.00000000
0.51219088 0.75513893 1.00000000
0.82976681 0.91454959 1.00000000
1.00000000 1.00000000 1.00000000
