Goodset/Goodset.cube
# VEGAS Pro LUT
TITLE "Goodset"
LUT_3D_SIZE 33
0.00000000 0.00000000 0.00000000
0.02427626 0.00132035 0.00128844
0.04883932 0.00318052 0.00305313
0.07359963 0.00561401 0.00532680
0.09848642 0.00866458 0.00815120
0.12344535 0.01238431 0.01157542
0.14843649 0.01683173 0.01565437
0.17343214 0.02207005 0.02044724
0.19841503 0.02816552 0.02601615
0.22337635 0.03518577 0.03242473
0.24831417 0.04319835 0.03973688
0.27323160 0.05226932 0.04801553
0.29813552 0.06246184 0.05732152
0.32303497 0.07383501 0.06771248
0.34793988 0.08644263 0.07924189
0.37285984 0.10033218 0.09195806
0.39780304 0.11554375 0.10590333
0.42277521 0.13210925 0.12111323
0.44777870 0.15005149 0.13761579
0.47281173 0.16938347 0.15543075
0.49786764 0.19010769 0.17456913
0.52293420 0.21221574 0.19503269
0.54799342 0.23568764 0.21681328
0.57302082 0.26049152 0.23989265
0.59798515 0.28658342 0.26424214
0.62284863 0.31390679 0.28982219
0.64756626 0.34239265 0.31658250
0.67208624 0.37195948 0.34446165
0.69635010 0.40251309 0.37338713
0.72029245 0.43394694 0.40327546
0.74384212 0.46614215 0.43403211
0.76692182 0.49896815 0.46555188
0.78944904 0.53228259 0.49771884
0.00322395 0.02587492 0.00297942
0.02836675 0.02808877 0.00523368
0.05371591 0.03087842 0.00803698
0.07921300 0.03429746 0.01143820
0.10481402 0.03840603 0.01549203
0.13048732 0.04326902 0.02025755
0.15621173 0.04895439 0.02579679
0.18197462 0.05553157 0.03217335
0.20777023 0.06306994 0.03945113
0.23359807 0.07163744 0.04769313
0.25946128 0.08129919 0.05696027
0.28536525 0.09211623 0.06731035
0.31131643 0.10414442 0.07879698
0.33732092 0.11743327 0.09146870
0.36338332 0.13202500 0.10536809
0.38950598 0.14795363 0.12053092
0.41568786 0.16524410 0.13698550
0.44192374 0.18391164 0.15475194
0.46820363 0.20396093 0.17384157
0.49451202 0.22538577 0.19425642
0.52082741 0.24816841 0.21598881
0.54712224 0.27227929 0.23902088
0.57336187 0.29767665 0.26332426
0.59950513 0.32430625 0.28885987
0.62550378 0.35210139 0.31557781
0.65130281 0.38098273 0.34341696
0.67684031 0.41085842 0.37230539
0.70204782 0.44162419 0.40215987
0.72685051 0.47316349 0.43288642
0.75116789 0.50534773 0.46438009
0.77491415 0.53803706 0.49652544
0.79799867 0.57108027 0.52919674
0.82032704 0.60431564 0.56225842
0.00890855 0.05311197 0.00792358
0.03493842 0.05623312 0.01130186
0.06114423 0.06000551 0.01533065
0.08749037 0.06449571 0.02006891
0.11395174 0.06977338 0.02557856
0.14051190 0.07590976 0.03192318
0.16716135 0.08297606 0.03916669
0.19389579 0.09104209 0.04737212
0.22071478 0.10017490 0.05660050
0.24762012 0.11043755 0.06690975
0.27461463 0.12188788 0.07835367
0.30170086 0.13457748 0.09098101
0.32888007 0.14855066 0.10483455
0.35615104 0.16384357 0.11995035
0.38350934 0.18048328 0.13635699
0.41094643 0.19848721 0.15407492
0.43844888 0.21786226 0.17311576
0.46599787 0.23860446 0.19348195
0.49356866 0.26069829 0.21516612
0.52113014 0.28411639 0.23815079
0.54864460 0.30881929 0.26240805
0.57606757 0.33475512 0.28789917
0.60334742 0.36185926 0.31457460
0.63042581 0.39005482 0.34237370
0.65723759 0.41925216 0.37122494
0.68371093 0.44934916 0.40104550
0.70976782 0.48023164 0.43174174
0.73532432 0.51177329 0.46320915
0.76029116 0.54383636 0.49533269
0.78457457 0.57627195 0.52798706
0.80807650 0.60892045 0.56103683
0.83069599 0.64161265 0.59433740
0.85232985 0.67416978 0.62773496
0.01742737 0.08163002 0.01517024
0.04444151 0.08574997 0.01988131
0.07163528 0.09062237 0.02536146
0.09898843 0.09632021 0.03167423
0.12648764 0.10291657 0.03888354
0.15412498 0.11048314 0.04705249
0.18189624 0.11908890 0.05624219
0.20979969 0.12879887 0.06651069
0.23783454 0.13967294 0.07791198
0.26599988 0.15176472 0.09049498
0.29429337 0.16512066 0.10430272
0.32271048 0.17977898 0.11937153
0.35124332 0.19576895 0.13573028
0.37987989 0.21311012 0.15339969
0.40860346 0.23181167 0.17239177
0.43739188 0.25187176 0.19270927
0.46621707 0.27327716 0.21434522
0.49504465 0.29600281 0.23728245
0.52383351 0.32001138 0.26149350
0.55253589 0.34525332 0.28694001
0.58109701 0.37166634 0.31357288
0.60945511 0.39917579 0.34133193
0.63754177 0.42769420 0.37014583
0.66528183 0.45712191 0.39993232
0.69259399 0.48734680 0.43059814
0.71939087 0.51824492 0.46203914
0.74558008 0.54968071 0.49414071
0.77106404 0.58150744 0.52677780
0.79574168 0.61356777 0.55981559
0.81950843 0.64569449 0.59310955
0.84225756 0.67771119 0.62650645
0.86388123 0.70943290 0.65984422
0.88427138 0.74066705 0.69295329
0.02926262 0.11150120 0.02514549
0.05740444 0.11676281 0.03142650
0.08574940 0.12289139 0.03860169
0.11428582 0.12996051 0.04673423
0.14300588 0.13804108 0.05588534
0.17190418 0.14720012 0.06611317
0.20097640 0.15749951 0.07747188
0.23021805 0.16899495 0.09001061
0.25962341 0.18173492 0.10377260
0.28918445 0.19575983 0.11879446
0.31888980 0.21110106 0.13510533
0.34872419 0.22778037 0.15272625
0.37866744 0.24580911 0.17166957
0.40869409 0.26518771 0.19193839
0.43877274 0.28590512 0.21352606
0.46886566 0.30793852 0.23641585
0.49892855 0.33125296 0.26058063
0.52891016 0.35580096 0.28598252
0.55875260 0.38152272 0.31257275
0.58839077 0.40834564 0.34029150
0.61775285 0.43618467 0.36906800
0.64676052 0.46494243 0.39882028
0.67532897 0.49450898 0.42945552
0.70336759 0.52476263 0.46087003
0.73078060 0.55557001 0.49294940
0.75746715 0.58678669 0.52556920
0.78332257 0.61825740 0.55859470
0.80823892 0.64981723 0.59188193
0.83210593 0.68129182 0.62527782
0.85481226 0.71249825 0.65862072
0.87624645 0.74324620 0.69174129
0.89629793 0.77333868 0.72446299
0.91485882 0.80257297 0.75660300
0.04494679 0.14290038 0.03832114
0.07437852 0.14947407 0.04641736
0.10404384 0.15703136 0.05552994
0.13393372 0.16564119 0.06571717
0.16404030 0.17536750 0.07703337
0.19435559 0.18626806 0.08952788
0.22487032 0.19839340 0.10324419
0.25557300 0.21178603 0.11821914
0.28644896 0.22647959 0.13448216
0.31747940 0.24249789 0.15205461
0.34864089 0.25985456 0.17094916
0.37990457 0.27855220 0.19116926
0.41123569 0.29858208 0.21270864
0.44259331 0.31992355 0.23555097
0.47392970 0.34254387 0.25966945
0.50519049 0.36639801 0.28502661
0.53631425 0.39142826 0.31157410
0.56723273 0.41756442 0.33925256
0.59787083 0.44472367 0.36799154
0.62814677 0.47281072 0.39770949
0.65797257 0.50171822 0.42831400
0.68725437 0.53132647 0.45970175
0.71589273 0.56150436 0.49175888
0.74378371 0.59210980 0.52436107
0.77081889 0.62298959 0.55737418
0.79688716 0.65398109 0.59065443
0.82187480 0.68491185 0.62404913
0.84566677 0.71560133 0.65739697
0.86814791 0.74586099 0.69052875
0.88920438 0.77549613 0.72326833
0.90872443 0.80430597 0.75543308
0.92660046 0.83208555 0.78683472
0.94136178 0.85862666 0.81728041
0.06501032 0.17605962 0.05517600
0.09588853 0.18412201 0.06532270
0.12702645 0.19327687 0.07659647
0.15841258 0.20358396 0.08904682
0.19003418 0.21509600 0.10271747
0.22187631 0.22785759 0.11764555
0.25392082 0.24190444 0.13386077
0.28614563 0.25726265 0.15138476
0.31852385 0.27394795 0.17023055
0.35102338 0.29196528 0.19040194
0.38360605 0.31130800 0.21189301
0.41622758 0.33195782 0.23468781
0.44883704 0.35388425 0.25875995
0.48137668 0.37704444 0.28407231
0.51378185 0.40138304 0.31057701
0.54598093 0.42683211 0.33821502
0.57789558 0.45331109 0.36691636
0.60944068 0.48072696 0.39659992
0.64052498 0.50897449 0.42717355
0.67105114 0.53793645 0.45853448
0.70091641 0.56748390 0.49056906
0.73001349 0.59747678 0.52315354
0.75823063 0.62776434 0.55615401
0.78545320 0.65818584 0.58942711
0.81156385 0.68857127 0.62282038
0.83644426 0.71874195 0.65617287
0.85997570 0.74851155 0.68931574
0.88204044 0.77768731 0.72207296
0.90252334 0.80607045 0.75426209
0.92131293 0.83345801 0.78569514
0.93702310 0.85964358 0.81617957
0.94997096 0.88441896 0.84551883
0.96150017 0.90757513 0.87351394
0.08993500 0.21122748 0.07616116
0.12238920 0.22094262 0.08856741
0.15511516 0.23184267 0.10219248
0.18809447 0.24397436 0.11707371
0.22130556 0.25737557 0.13324113
0.25472295 0.27207458 0.15071668
0.28831649 0.28808933 0.16951373
0.32205051 0.30542684 0.18963639
0.35588375 0.32408291 0.21107912
0.38976851 0.34404135 0.23382637
0.42365056 0.36527401 0.25785211
0.45746881 0.38774028 0.28311965
0.49115545 0.41138715 0.30958143
0.52463543 0.43614873 0.33717895
0.55782712 0.46194699 0.36584249
0.59064215 0.48869103 0.39549151
0.62298590 0.51627797 0.42603412
0.65475774 0.54459274 0.45736805
0.68585157 0.57350862 0.48938000
0.71615648 0.60288781 0.52194655
0.74555773 0.63258183 0.55493420
0.77393681 0.66243190 0.58819991
0.80117321 0.69227028 0.62159157
0.82714486 0.72192031 0.65494847
0.85172951 0.75119793 0.68810219
0.87480605 0.77991211 0.72087675
0.89625537 0.80786645 0.75309008
0.91596234 0.83485973 0.78455436
0.93262631 0.86068738 0.81507713
0.94636244 0.88514304 0.84446204
0.95861733 0.90801972 0.87251019
0.96936375 0.92911106 0.89902097
0.97858423 0.94821334 0.92379361
0.12011337 0.24863335 0.10166916
0.15422758 0.26013634 0.11650361
0.18860328 0.27289295 0.13262327
0.22321153 0.28693366 0.15005043
0.25801879 0.30227852 0.16879873
0.29298615 0.31893694 0.18887265
0.32806891 0.33690673 0.21026704
0.36321613 0.35617417 0.23296668
0.39837027 0.37671319 0.25694594
0.43346697 0.39848554 0.28216857
0.46843499 0.42144042 0.30858740
0.50319612 0.44551441 0.33614430
0.53766537 0.47063142 0.36477003
0.57175118 0.49670312 0.39438429
0.60535538 0.52362865 0.42489579
0.63837415 0.55129528 0.45620251
0.67069799 0.57957864 0.48819166
0.70221269 0.60834295 0.52074015
0.73279989 0.63744193 0.55371475
0.76233780 0.66671914 0.58697289
0.79070252 0.69600880 0.62036270
0.81776822 0.72513658 0.65372384
0.84340930 0.75392020 0.68688804
0.86750084 0.78217101 0.71967983
0.88992018 0.80969417 0.75191712
0.91054857 0.83629072 0.78341234
0.92817104 0.86175799 0.81397313
0.94269991 0.88589150 0.84340340
0.95568532 0.90848589 0.87150431
0.96709591 0.92933667 0.89807522
0.97691053 0.94824165 0.92291540
0.98511821 0.96500289 0.94582444
0.99172086 0.97942781 0.96660453
0.15581404 0.28845653 0.13200718
0.19161135 0.30183983 0.14938593
0.22763084 0.31651562 0.16808550
0.26383024 0.33249545 0.18811068
0.30016154 0.34977952 0.20945671
0.33657047 0.36835617 0.23210871
0.37299621 0.38820177 0.25604150
0.40937102 0.40928024 0.28121912
0.44562048 0.43154305 0.30759493
0.48166305 0.45492899 0.33511108
0.51741040 0.47936440 0.36369887
0.55276763 0.50476307 0.39327830
0.58763331 0.53102654 0.42375857
0.62190032 0.55804420 0.45503798
0.65545565 0.58569384 0.48700413
0.68818188 0.61384219 0.51953429
0.71995711 0.64234483 0.55249572
0.75065625 0.67104775 0.58574605
0.78015167 0.69978714 0.61913383
0.80831432 0.72839081 0.65249902
0.83501482 0.75667852 0.68567348
0.86012471 0.78446376 0.71848208
0.88351774 0.81155366 0.75074309
0.90507132 0.83775121 0.78226900
0.92365718 0.86285573 0.81286770
0.93898332 0.88666433 0.84234303
0.95270389 0.90897375 0.87049639
0.96478379 0.92958111 0.89712715
0.97519773 0.94828600 0.92203450
0.98393101 0.96489197 0.94501817
0.99098128 0.97920811 0.96588004
0.99635971 0.99105120 0.98442531
0.99947447 0.99998009 1.00000000
0.19715273 0.33080050 0.16737406
0.23458293 0.34610242 0.18735051
0.27216175 0.36270118 0.20864815
0.30983162 0.38058746 0.23125248
0.34752834 0.39973974 0.25513870
0.38518107 0.42012435 0.28027132
0.42271191 0.44169492 0.30660400
0.46003610 0.46439260 0.33407936
0.49706206 0.48814595 0.36262900
0.53369147 0.51287109 0.39217353
0.56981969 0.53847164 0.42262244
0.60533607 0.56483948 0.45387438
0.64012444 0.59185451 0.48581737
0.67406392 0.61938560 0.51832908
0.70702928 0.64729071 0.55127710
0.73889184 0.67541778 0.58451945
0.76952058 0.70360523 0.61790490
0.79878277 0.73168302 0.65127379
0.82654583 0.75947309 0.68445837
0.85267740 0.78679067 0.71728367
0.87704772 0.81344521 0.74956810
0.89953035 0.83924133 0.78112441
0.91908437 0.86398053 0.81176066
0.93521231 0.88746184 0.84128088
0.94967276 0.90948337 0.86948639
0.96242696 0.92984456 0.89617676
0.97344553 0.94834632 0.92115104
0.98271000 0.96479404 0.94420904
0.99021381 0.97899812 0.96515238
0.99596405 0.99077702 0.98378628
0.99998307 0.99995816 0.99992073
0.98038942 0.99728501 1.00000000
0.95481837 0.99044150 1.00000000
0.24406952 0.37567174 0.20784135
0.28299952 0.39286789 0.23039798
0.32196680 0.41132712 0.25423762
0.36089709 0.43101782 0.27932513
0.39970934 0.45189613 0.30561462
0.43831539 0.47390527 0.33304909
0.47662035 0.49697614 0.36156055
0.51452267 0.52102709 0.39107004
0.55191433 0.54596412 0.42148736
0.58868140 0.57168120 0.45271164
0.62470436 0.59806061 0.48463133
0.65985882 0.62497330 0.51712441
0.69401622 0.65227950 0.55005890
0.72704440 0.67982918 0.58329302
0.75880897 0.70746320 0.61667597
0.78917378 0.73501343 0.65004843
0.81800222 0.76230383 0.68324286
0.84515882 0.78915179 0.71608454
0.87050992 0.81536871 0.74839211
0.89392543 0.84076130 0.77997863
0.91445243 0.86513263 0.81065214
0.93138659 0.88828397 0.84021693
0.94659168 0.91001517 0.86847430
0.96002525 0.93012720 0.89522403
0.97165370 0.94842285 0.92026502
0.98145485 0.96470904 0.94339699
0.98941803 0.97879809 0.96442163
0.99554634 0.99050951 0.98314393
0.99985772 0.99967223 0.99937356
0.98122150 0.99746025 1.00000000
0.95585686 0.99076235 1.00000000
0.92514509 0.98027515 1.00000000
0.88963085 0.96634787 1.00000000
0.29631150 0.42296386 0.25333822
0.33651912 0.44196081 0.27838057
0.37661269 0.46214658 0.30462676
0.41650078 0.48346695 0.33202025
0.45608523 0.50585496 0.36049345
0.49526119 0.52923113 0.38996768
0.53391731 0.55350399 0.42035338
0.57193619 0.57856947 0.45154989
0.60919517 0.60431212 0.48344612
0.64556634 0.63060522 0.51592034
0.68091780 0.65731120 0.54884100
0.71511400 0.68428230 0.58206671
0.74801683 0.71136123 0.61544704
0.77948672 0.73838198 0.64882278
0.80938381 0.76517093 0.68202680
0.83756870 0.79154724 0.71488464
0.86390412 0.81732434 0.74721515
0.88825643 0.84231102 0.77883154
0.90976119 0.86631227 0.80954212
0.92750591 0.88913095 0.83915114
0.94346046 0.91056907 0.86746025
0.95757818 0.93042910 0.89426893
0.96982205 0.94851577 0.91937637
0.98016530 0.96463752 0.94258213
0.98859364 0.97860813 0.96368772
0.99510598 0.99024868 0.98249811
0.99971628 0.99938965 0.99882281
0.98204565 0.99762988 1.00000000
0.95688808 0.99107802 1.00000000
0.92636335 0.98072410 1.00000000
0.89101619 0.96691716 1.00000000
0.85139108 0.95000643 1.00000000
0.80803269 0.93034095 1.00000000
0.35342193 0.47244638 0.30364046
0.39459226 0.49307770 0.33099288
0.43545672 0.51478243 0.35942769
0.47590694 0.53748333 0.38886666
0.51582843 0.56109113 0.41922045
0.55510044 0.58550417 0.45038909
0.59359682 0.61060917 0.48226163
0.63118649 0.63628167 0.51471692
0.66773391 0.66238612 0.54762357
0.70310020 0.68877703 0.58084071
0.73714387 0.71529919 0.61421806
0.76972181 0.74178892 0.64759690
0.80069047 0.76807445 0.68081033
0.82990688 0.79397708 0.71368402
0.85723019 0.81931233 0.74603724
0.88252306 0.84389079 0.77768332
0.90501022 0.86751944 0.80843061
0.92357016 0.89000303 0.83808374
0.94027871 0.91114527 0.86644411
0.95508569 0.93075061 0.89331162
0.96794999 0.94862527 0.91848516
0.97884101 0.96457934 0.94176441
0.98774034 0.97842830 0.96295077
0.99464291 0.98999482 0.98184901
0.99955845 0.99911058 0.99826849
0.98286176 0.99779385 1.00000000
0.95791203 0.99138856 1.00000000
0.92757511 0.98116833 1.00000000
0.89239573 0.96748227 1.00000000
0.85291833 0.95067948 1.00000000
0.80968761 0.93110919 1.00000000
0.76324815 0.90912044 1.00000000
0.71414459 0.88506240 1.00000000
0.41473469 0.52375853 0.35836330
0.45645994 0.54578364 0.38776684
0.49764770 0.56872576 0.41808873
0.53817403 0.59248555 0.44922927
0.57790929 0.61695194 0.48107797
0.61671913 0.64200252 0.51351404
0.65446454 0.66750419 0.54640657
0.69100314 0.69331336 0.57961488
0.72619009 0.71927738 0.61298913
0.75987875 0.74523431 0.64637077
0.79192185 0.77101457 0.67959332
0.82217318 0.79644156 0.71248269
0.85048783 0.82133269 0.74485832
0.87672508 0.84550065 0.77653378
0.90019953 0.86875427 0.80731761
0.91957885 0.89090019 0.83701450
0.93704629 0.91174394 0.86542600
0.95254743 0.93109167 0.89235193
0.96603739 0.94875145 0.91759139
0.97748166 0.96453482 0.94094384
0.98685783 0.97825897 0.96221071
0.99415666 0.98974800 0.98119658
0.99938381 0.99883521 0.99771047
0.98366988 0.99795222 1.00000000
0.95892870 0.99169397 1.00000000
0.92878032 0.98160785 1.00000000
0.89376944 0.96804309 1.00000000
0.85444051 0.95134884 1.00000000
0.81133825 0.93187416 1.00000000
0.76500720 0.90996820 1.00000000
0.71599197 0.88598013 1.00000000
0.66483712 0.86025900 1.00000000
0.61208737 0.83315408 1.00000000
0.47937506 0.57640791 0.41695800
0.52115685 0.59951353 0.44807035
0.56213248 0.62334025 0.47989511
0.60216409 0.64776784 0.51231188
0.64110941 0.67266536 0.54519004
0.67882258 0.69789159 0.57838929
0.71515530 0.72329575 0.61176020
0.74995732 0.74871814 0.64514446
0.78307801 0.77399135 0.67837596
0.81436729 0.79894066 0.71128070
0.84367698 0.82338566 0.74367857
0.87086225 0.84714079 0.77538306
0.89532864 0.87001693 0.80620313
0.91553181 0.89182258 0.83594346
0.93376273 0.91236526 0.86440581
0.94996309 0.93145257 0.89138997
0.96408397 0.94889438 0.91669500
0.97608703 0.96450412 0.94012046
0.98594570 0.97810030 0.96146750
0.99364686 0.98950851 0.98054069
0.99919188 0.99856365 0.99714887
0.98446989 0.99810493 1.00000000
0.95993805 0.99199414 1.00000000
0.92997897 0.98204267 1.00000000
0.89513731 0.96859974 1.00000000
0.85595757 0.95201439 1.00000000
0.81298447 0.93263584 1.00000000
0.76676255 0.91081315 1.00000000
0.71783644 0.88689548 1.00000000
0.66675067 0.86123192 1.00000000
0.61404991 0.83417171 1.00000000
0.56027871 0.80606389 1.00000000
0.50598174 0.77725762 1.00000000
0.54626626 0.62977427 0.47871301
0.58752131 0.65357780 0.51111025
0.62766850 0.67786992 0.54397386
0.66655844 0.70251179 0.57716393
0.70403934 0.72735453 0.61053127
0.73995745 0.75224072 0.64391798
0.77415866 0.77700484 0.67715806
0.80648917 0.80147457 0.71007800
0.83679730 0.82547116 0.74249774
0.86493444 0.84881127 0.77423114
0.89039749 0.87130761 0.80508727
0.91142893 0.89277053 0.83487076
0.93042785 0.91300923 0.86338365
0.94733232 0.93183339 0.89042580
0.96208942 0.94905448 0.91579616
0.97465670 0.96448731 0.93929428
0.98500383 0.97795236 0.96072131
0.99311322 0.98927665 0.97988153
0.99898243 0.99829620 0.99658370
0.98526186 0.99825197 1.00000000
0.96094006 0.99228913 1.00000000
0.93117100 0.98247278 1.00000000
0.89649928 0.96915209 1.00000000
0.85746956 0.95267618 1.00000000
0.81462634 0.93339419 1.00000000
0.76851428 0.91165525 1.00000000
0.71967798 0.88780844 1.00000000
0.66866201 0.86220294 1.00000000
0.61601102 0.83518791 1.00000000
0.56226957 0.80711246 1.00000000
0.50798231 0.77832568 1.00000000
0.45369375 0.74917674 1.00000000
0.39994857 0.72001481 1.00000000
0.61414164 0.68311793 0.54275817
0.65421051 0.70717382 0.57593876
0.69284201 0.73145354 0.60930234
0.72987890 0.75580192 0.64269125
0.76516360 0.78005528 0.67593980
0.79853863 0.80404329 0.70887470
0.82984865 0.82758945 0.74131608
0.85894144 0.85051227 0.77307808
0.88540572 0.87262630 0.80396986
0.90726990 0.89374399 0.83379638
0.92704159 0.91367620 0.86235952
0.94465494 0.93223435 0.88945931
0.96005332 0.94923162 0.91489470
0.97319037 0.96448475 0.93846524
0.98403150 0.97781533 0.95997196
0.99255538 0.98905224 0.97921908
0.99875522 0.99803299 0.99601495
0.98604566 0.99839336 1.00000000
0.96193469 0.99257892 1.00000000
0.93235636 0.98289818 1.00000000
0.89785540 0.96970022 1.00000000
0.85897630 0.95333421 1.00000000
0.81626374 0.93414921 1.00000000
0.77026230 0.91249448 1.00000000
0.72151661 0.88871908 1.00000000
0.67057121 0.86317211 1.00000000
0.61797071 0.83620274 1.00000000
0.56425971 0.80816007 1.00000000
0.50998282 0.77939332 1.00000000
0.45568469 0.75025153 1.00000000
0.40190986 0.72108382 1.00000000
0.34920296 0.69223940 1.00000000
0.29810855 0.66406739 1.00000000
0.68156320 0.73559320 0.60807353
0.71972162 0.75940186 0.64146435
0.75609267 0.78314269 0.67472106
0.79051536 0.80664706 0.70767063
0.82283080 0.82974064 0.74013346
0.85288292 0.85224390 0.77192384
0.88035321 0.87397331 0.80285096
0.90305430 0.89474314 0.83272022
0.92360342 0.91436613 0.86133343
0.94193077 0.93265557 0.88849056
0.95797569 0.94942623 0.91399080
0.97168779 0.96449643 0.93763345
0.98302871 0.97768950 0.95921963
0.99197298 0.98883575 0.97855330
0.99850965 0.99777418 0.99544269
0.98682141 0.99852902 1.00000000
0.96292192 0.99286348 1.00000000
0.93353510 0.98331875 1.00000000
0.89920557 0.97024405 1.00000000
0.86047792 0.95398837 1.00000000
0.81789672 0.93490094 1.00000000
0.77200663 0.91333085 1.00000000
0.72335225 0.88962728 1.00000000
0.67247808 0.86413926 1.00000000
0.61992884 0.83721608 1.00000000
0.56624907 0.80920672 1.00000000
0.51198339 0.78046042 1.00000000
0.45767635 0.75132620 1.00000000
0.40387261 0.72215331 1.00000000
0.35111678 0.69329083 1.00000000
0.29995340 0.66508788 1.00000000
0.25092712 0.63789356 1.00000000
0.20458250 0.61205709 1.00000000
0.74694568 0.78626704 0.67350191
0.78241932 0.80928588 0.70646596
0.81574351 0.83192480 0.73894989
0.84675872 0.85400623 0.77076840
0.87523967 0.87534869 0.80173081
0.89878213 0.89576811 0.83164239
0.92011327 0.91507930 0.86030537
0.93915927 0.93309712 0.88751960
0.95585585 0.94963825 0.91308439
0.97014868 0.96452254 0.93679893
0.98199511 0.97757488 0.95846426
0.99136573 0.98862731 0.97788411
0.99824554 0.99751997 0.99486685
0.98758894 0.99865896 1.00000000
0.96390170 0.99314278 1.00000000
0.93470711 0.98373461 1.00000000
0.90054977 0.97078353 1.00000000
0.86197430 0.95463872 1.00000000
0.81952524 0.93564928 1.00000000
0.77374721 0.91416436 1.00000000
0.72518486 0.89053303 1.00000000
0.67438275 0.86510456 1.00000000
0.62188548 0.83822793 1.00000000
0.56823760 0.81025237 1.00000000
0.51398385 0.78152698 1.00000000
0.45966870 0.75240088 1.00000000
0.40583679 0.72322321 1.00000000
0.35303274 0.69434309 1.00000000
0.30180115 0.66610968 1.00000000
0.25268656 0.63887209 1.00000000
0.20623365 0.61297953 1.00000000
0.16298699 0.58878100 1.00000000
0.12349116 0.56662571 1.00000000
0.80858672 0.83414203 0.73776549
0.84056860 0.85579944 0.76961178
0.87003726 0.87675250 0.80060911
0.89445293 0.89681906 0.83056283
0.91657060 0.91581583 0.85927528
0.93634045 0.93355930 0.88654643
0.95369381 0.94986790 0.91217542
0.96857256 0.96456325 0.93596160
0.98093021 0.97747189 0.95770580
0.99073327 0.98842698 0.97721171
0.99796242 0.99727058 0.99428737
0.98834831 0.99878311 1.00000000
0.96487403 0.99341679 1.00000000
0.93587244 0.98414564 1.00000000
0.90188801 0.97131872 1.00000000
0.86346543 0.95528519 1.00000000
0.82114923 0.93639421 1.00000000
0.77548403 0.91499490 1.00000000
0.72701442 0.89143640 1.00000000
0.67628509 0.86606783 1.00000000
0.62384051 0.83923829 1.00000000
0.57022536 0.81129700 1.00000000
0.51598424 0.78259301 1.00000000
0.46166167 0.75347543 1.00000000
0.40780234 0.72429347 1.00000000
0.35495085 0.69539624 1.00000000
0.30365172 0.66713285 1.00000000
0.25444964 0.63985246 1.00000000
0.20788915 0.61390418 1.00000000
0.16451488 0.58963716 1.00000000
0.12487141 0.56740052 1.00000000
0.08950336 0.54754341 1.00000000
0.05895532 0.53041488 1.00000000
0.86470258 0.87818491 0.79948604
0.89006668 0.89789611 0.82948166
0.91297549 0.91657579 0.85824329
0.93347377 0.93404216 0.88557100
0.95148909 0.95011544 0.91126394
0.96695936 0.96461880 0.93512148
0.97983384 0.97738045 0.95694423
0.99007517 0.98823506 0.97653598
0.99766004 0.99702626 0.99370438
0.98909944 0.99890155 1.00000000
0.96583891 0.99368554 1.00000000
0.93703097 0.98455185 1.00000000
0.90322024 0.97184956 1.00000000
0.86495125 0.95592785 1.00000000
0.82276869 0.93713582 1.00000000
0.77721703 0.91582257 1.00000000
0.72884101 0.89233732 1.00000000
0.67818511 0.86702913 1.00000000
0.62579399 0.84024721 1.00000000
0.57221222 0.81234056 1.00000000
0.51798451 0.78365844 1.00000000
0.46365529 0.75454992 1.00000000
0.40976927 0.72536415 1.00000000
0.35687104 0.69645029 1.00000000
0.30550519 0.66815740 1.00000000
0.25621629 0.64083463 1.00000000
0.20954897 0.61483115 1.00000000
0.16604783 0.59049612 1.00000000
0.12625745 0.56817853 1.00000000
0.09072246 0.54822773 1.00000000
0.05998744 0.53099263 1.00000000
0.03459700 0.51682252 1.00000000
