Goodset/Goodset.cube
# VEGAS Pro LUT
TITLE "Goodset"
LUT_3D_SIZE 9
0.00000000 0.00000000 0.00000000
0.09848642 0.00866458 0.00815120
0.19841503 0.02816552 0.02601615
0.29813552 0.06246184 0.05732152
0.39780304 0.11554375 0.10590333
0.49786764 0.19010769 0.17456913
0.59798515 0.28658342 0.26424214
0.69635010 0.40251309 0.37338713
0.78944904 0.53228259 0.49771884
0.02926262 0.11150120 0.02514549
0.14300588 0.13804108 0.05588534
0.25962341 0.18173492 0.10377260
0.37866744 0.24580911 0.17166957
0.49892855 0.33125296 0.26058063
0.61775285 0.43618467 0.36906800
0.73078060 0.55557001 0.49294940
0.83210593 0.68129182 0.62527782
0.91485882 0.80257297 0.75660300
0.12011337 0.24863335 0.10166916
0.25801879 0.30227852 0.16879873
0.39837027 0.37671319 0.25694594
0.53766537 0.47063142 0.36477003
0.67069799 0.57957864 0.48819166
0.79070252 0.69600880 0.62036270
0.88992018 0.80969417 0.75191712
0.95568532 0.90848589 0.87150431
0.99172086 0.97942781 0.96660453
0.29631150 0.42296386 0.25333822
0.45608523 0.50585496 0.36049345
0.60919517 0.60431212 0.48344612
0.74801683 0.71136123 0.61544704
0.86390412 0.81732434 0.74721515
0.94346046 0.91056907 0.86746025
0.98859364 0.97860813 0.96368772
0.95688808 0.99107802 1.00000000
0.80803269 0.93034095 1.00000000
0.54626626 0.62977427 0.47871301
0.70403934 0.72735453 0.61053127
0.83679730 0.82547116 0.74249774
0.93042785 0.91300923 0.86338365
0.98500383 0.97795236 0.96072131
0.96094006 0.99228913 1.00000000
0.81462634 0.93339419 1.00000000
0.61601102 0.83518791 1.00000000
0.39994857 0.72001481 1.00000000
0.80858672 0.83414203 0.73776549
0.91657060 0.91581583 0.85927528
0.98093021 0.97747189 0.95770580
0.96487403 0.99341679 1.00000000
0.82114923 0.93639421 1.00000000
0.62384051 0.83923829 1.00000000
0.40780234 0.72429347 1.00000000
0.20788915 0.61390418 1.00000000
0.05895532 0.53041488 1.00000000
0.97635245 0.97717780 0.95464170
0.96868837 0.99445993 1.00000000
0.82759959 0.93933994 1.00000000
0.63164461 0.84326464 1.00000000
0.41567796 0.72857833 1.00000000
0.21455400 0.61762553 1.00000000
0.06312712 0.53275073 1.00000000
0.00503341 0.50056577 1.00000000
0.07308982 0.53472745 1.00000000
0.83397567 0.94223022 1.00000000
0.63942164 0.84726572 1.00000000
0.42357367 0.73286825 1.00000000
0.22128610 0.62138218 1.00000000
0.06741334 0.53515208 1.00000000
0.00374566 0.49991938 1.00000000
0.06956141 0.53295630 1.00000000
0.18771572 0.59226513 1.00000000
0.34042135 0.66891736 1.00000000
0.43148774 0.73716205 1.00000000
0.22808373 0.62517303 1.00000000
0.07181228 0.53761786 1.00000000
0.00255283 0.49932063 1.00000000
0.06610385 0.53122073 1.00000000
0.18264782 0.58972126 1.00000000
0.33439746 0.66589361 1.00000000
0.50356555 0.75080937 1.00000000
0.67236477 0.83553994 1.00000000
0.00230145 0.00222793 0.09353987
0.10317854 0.01462493 0.10120025
0.20539334 0.03926508 0.11766507
0.30801243 0.08029798 0.14731787
0.41128212 0.14135772 0.19418438
0.51527876 0.22437213 0.26090232
0.61898029 0.32872418 0.34797293
0.71975952 0.45076519 0.45329458
0.81329918 0.58368033 0.57197845
0.04108525 0.11986802 0.11685289
0.15893011 0.15246229 0.14594354
0.28001216 0.20364951 0.19211896
0.40352410 0.27590030 0.25808287
0.52758700 0.36916500 0.34442511
0.64872801 0.48037392 0.44914484
0.76177943 0.60328996 0.56745565
0.86020005 0.72871304 0.69187301
0.93654430 0.84503627 0.81258303
0.14735952 0.26667619 0.19008055
0.29029334 0.32820964 0.25529128
0.43468887 0.41039506 0.34090248
0.57622725 0.51074171 0.44501382
0.70889127 0.62359029 0.56294143
0.82527065 0.74030513 0.68729538
0.91728866 0.84981692 0.80833757
0.97120023 0.93951869 0.91462326
0.99867558 0.99651325 0.99392337
0.34028557 0.45241493 0.33740520
0.50225353 0.54187095 0.44090170
0.65462726 0.64458579 0.55843621
0.78912842 0.75248861 0.68271339
0.89677817 0.85504901 0.80407226
0.96293175 0.94015950 0.91111588
0.99767357 0.99537051 0.99162471
0.90836990 0.97388273 1.00000000
0.73595119 0.89583522 1.00000000
0.59897995 0.66628087 0.55394030
0.75176239 0.76526994 0.67812777
0.87527066 0.86074090 0.79978764
0.95397758 0.94108760 0.90757269
0.99635804 0.99431002 0.98927402
0.91354221 0.97589314 1.00000000
0.74317628 0.89937437 1.00000000
0.53379774 0.79206359 1.00000000
0.32026103 0.67630517 1.00000000
0.85275155 0.86690080 0.79548424
0.94431919 0.94231302 0.90399408
0.99470627 0.99334347 0.98687160
0.91861451 0.97783166 1.00000000
0.75034857 0.90287185 1.00000000
0.54178774 0.79629797 1.00000000
0.32778645 0.68045443 1.00000000
0.14319904 0.57768577 1.00000000
0.02287999 0.51033634 1.00000000
0.99269623 0.99248302 0.98441827
0.92358512 0.97969711 1.00000000
0.75746632 0.90632647 1.00000000
0.54977036 0.80051976 1.00000000
0.33535168 0.68462139 1.00000000
0.14906462 0.58097583 1.00000000
0.02576362 0.51192749 1.00000000
0.02375305 0.50996232 1.00000000
0.11361316 0.55506855 1.00000000
0.76452780 0.90973729 1.00000000
0.55774391 0.80472797 1.00000000
0.34295496 0.68880498 1.00000000
0.15501542 0.58431268 1.00000000
0.02877967 0.51359564 1.00000000
0.02153382 0.50884837 1.00000000
0.10940278 0.55295509 1.00000000
0.24282853 0.61992961 1.00000000
0.40402383 0.70084333 1.00000000
0.35059461 0.69300395 1.00000000
0.16104974 0.58769530 1.00000000
0.03192640 0.51533979 1.00000000
0.01940032 0.50777739 1.00000000
0.10525405 0.55087262 1.00000000
0.23731896 0.61716402 1.00000000
0.39780778 0.69772315 1.00000000
0.56893325 0.78362143 1.00000000
0.73290813 0.86593038 1.00000000
0.00604657 0.00575194 0.18590164
0.10948886 0.02235487 0.19170681
0.21445444 0.05275342 0.20589601
0.32046926 0.10106350 0.23331885
0.42767453 0.17038999 0.27804101
0.53563797 0.26177022 0.34242159
0.64258599 0.37346962 0.42647207
0.74505752 0.50062907 0.52749753
0.83797985 0.63526458 0.64001977
0.05548164 0.13034120 0.20516817
0.17779574 0.16960406 0.23202419
0.30355242 0.22865263 0.27605540
0.43144768 0.30907798 0.33969676
0.55885708 0.40971881 0.42305416
0.68147403 0.52629608 0.52353543
0.79336995 0.65139979 0.63576281
0.88747567 0.77482742 0.75176764
0.95283413 0.88427460 0.86146724
0.17800464 0.28767225 0.27409661
0.32576272 0.35717452 0.33699894
0.47362909 0.44675025 0.41965979
0.61645168 0.55270058 0.51958960
0.74744666 0.66818970 0.63151121
0.85866457 0.78357065 0.74754465
0.93849796 0.88706338 0.85767347
0.98412538 0.96578383 0.95049238
0.97753239 0.99665475 1.00000000
0.38690045 0.48456523 0.41628912
0.54998523 0.57984579 0.51566023
0.70020121 0.68563950 0.62726539
0.82871956 0.79285628 0.74331385
0.92329675 0.89024103 0.85385621
0.97917384 0.96539116 0.94752187
0.98091984 0.99739718 1.00000000
0.84930032 0.94908255 1.00000000
0.65838498 0.85697281 1.00000000
0.65162486 0.70375454 0.62302583
0.79762828 0.80269116 0.73907590
0.90721416 0.89381659 0.85001630
0.97366863 0.96521127 0.94451237
0.98417991 0.99805009 1.00000000
0.85540652 0.95177281 1.00000000
0.66605508 0.86087835 1.00000000
0.45098004 0.74771118 1.00000000
0.24503571 0.63461572 1.00000000
0.89023393 0.89779913 0.84615397
0.96758986 0.96525484 0.94146460
0.98731077 0.99861234 1.00000000
0.86143076 0.95440269 1.00000000
0.67369038 0.86475378 1.00000000
0.45894414 0.75201011 1.00000000
0.25204635 0.63851607 1.00000000
0.08785146 0.54661614 1.00000000
0.00121389 0.49865481 1.00000000
0.99031073 0.99908286 1.00000000
0.86737126 0.95697099 1.00000000
0.68128914 0.86859787 1.00000000
0.46691886 0.75630796 1.00000000
0.25911480 0.64244568 1.00000000
0.09273135 0.54935545 1.00000000
0.00262295 0.49938169 1.00000000
0.05158573 0.52393323 1.00000000
0.16066386 0.57868618 1.00000000
0.68884963 0.87240964 1.00000000
0.47490248 0.76060373 1.00000000
0.26623929 0.64640337 1.00000000
0.09771447 0.55215305 1.00000000
0.00418241 0.50019717 1.00000000
0.04853014 0.52239943 1.00000000
0.15586662 0.57627815 1.00000000
0.30197814 0.64962041 1.00000000
0.46907741 0.73349768 1.00000000
0.27341813 0.65038806 1.00000000
0.10279908 0.55500787 1.00000000
0.00589055 0.50110018 1.00000000
0.04555111 0.52090406 1.00000000
0.15112185 0.57389647 1.00000000
0.29612201 0.64668083 1.00000000
0.46276432 0.73032874 1.00000000
0.63326150 0.81591165 1.00000000
0.78982639 0.89450109 1.00000000
0.01138839 0.01071898 0.27612737
0.11768962 0.03208659 0.27899170
0.22588436 0.06885645 0.29023102
0.33572373 0.12490600 0.31498581
0.44707114 0.20265731 0.35722756
0.55887401 0.30215487 0.41894355
0.66855675 0.42049527 0.49960336
0.77183563 0.55160886 0.59590757
0.86295468 0.68639386 0.70181847
0.07268852 0.14317396 0.28960723
0.19977386 0.18964356 0.31378445
0.33029005 0.25679219 0.35533357
0.46232259 0.34522706 0.41632596
0.59244895 0.45262212 0.49633008
0.71553767 0.57348710 0.59214962
0.82496905 0.69928819 0.69784361
0.91327733 0.81892091 0.80502892
0.96752924 0.91953522 0.90346426
0.21204966 0.31170070 0.35346615
0.36426735 0.38909006 0.41373444
0.51485723 0.48551869 0.49307856
0.65784055 0.59607565 0.58840525
0.78573465 0.71279591 0.69387102
0.89017975 0.82511997 0.80117381
0.95743412 0.92070633 0.90012699
0.99403542 0.98659497 0.97951537
0.93534356 0.98395938 1.00000000
0.43577859 0.51918697 0.48984897
0.59873766 0.61937863 0.58467489
0.74524128 0.72692305 0.68990111
0.86603701 0.83180702 0.79730743
0.94659096 0.92219901 0.89676338
0.99170732 0.98560005 0.97707283
0.93994945 0.98556399 1.00000000
0.78161103 0.91791606 1.00000000
0.57726580 0.81499219 1.00000000
0.70347881 0.74167550 0.68593431
0.84083527 0.83898973 0.79343051
0.93498182 0.92402279 0.89337379
0.98896784 0.98473883 0.97458923
0.94444591 0.98709065 1.00000000
0.78846478 0.92116660 1.00000000
0.58519453 0.81914467 1.00000000
0.36948958 0.70336926 1.00000000
0.17620440 0.59618485 1.00000000
0.92258924 0.92618757 0.88995886
0.98579556 0.98402286 0.97206491
0.94883120 0.98853821 1.00000000
0.79525447 0.92436832 1.00000000
0.59310645 0.82327849 1.00000000
0.37724143 0.70761317 1.00000000
0.18251388 0.59971678 1.00000000
0.04377820 0.52193379 1.00000000
0.01270211 0.50441515 1.00000000
0.95310354 0.98990554 1.00000000
0.80197847 0.92752004 1.00000000
0.60099977 0.82739258 1.00000000
0.38502187 0.71186757 1.00000000
0.18889913 0.60328948 1.00000000
0.04748600 0.52400273 1.00000000
0.01096128 0.50354135 1.00000000
0.08754560 0.54198366 1.00000000
0.21325606 0.60508537 1.00000000
0.60887283 0.83148581 1.00000000
0.39282915 0.71613139 1.00000000
0.19535843 0.60690182 1.00000000
0.05131503 0.52614158 1.00000000
0.00931101 0.50271297 1.00000000
0.08374879 0.54007781 1.00000000
0.20796709 0.60243052 1.00000000
0.36417866 0.68084264 1.00000000
0.53459626 0.76638556 1.00000000
0.20189004 0.61055273 1.00000000
0.05526354 0.52834922 1.00000000
0.00775219 0.50193053 1.00000000
0.08001935 0.53820580 1.00000000
0.20272142 0.59979743 1.00000000
0.35807112 0.67777687 1.00000000
0.52828121 0.76321566 1.00000000
0.69556445 0.84718531 1.00000000
0.84213358 0.92075723 1.00000000
0.01852954 0.01732054 0.36340109
0.12805969 0.04405965 0.36248648
0.23994172 0.08777765 0.37027743
0.35394114 0.15192831 0.39204586
0.46949404 0.23811685 0.43155056
0.58483934 0.34531191 0.49032944
0.69657254 0.46940956 0.56727368
0.79962152 0.60314918 0.65848386
0.88764274 0.73638159 0.75740802
0.09291633 0.15859807 0.36977196
0.22498381 0.21271393 0.39094782
0.36020273 0.28805691 0.42975754
0.49595755 0.38416559 0.48782998
0.62799859 0.49751556 0.56415796
0.75040132 0.62142271 0.65494406
0.85594851 0.74629843 0.75372815
0.93524140 0.86025614 0.85179746
0.98019844 0.95007086 0.93887770
0.24942765 0.33878168 0.42799088
0.40557185 0.42380655 0.48535556
0.55796480 0.52637309 0.56106222
0.69983089 0.64037406 0.65141541
0.82307959 0.75678200 0.75004756
0.91774923 0.86424303 0.84831822
0.97373056 0.95002341 0.93599504
0.99710846 0.99984187 1.00000000
0.88158655 0.96300739 1.00000000
0.48646724 0.55598491 0.55798650
0.64790231 0.66000795 0.64789820
0.78902441 0.76783895 0.74636668
0.89932156 0.86865842 0.84482467
0.96664155 0.95022523 0.93308324
0.99964285 0.99998695 1.00000000
0.88722450 0.96535474 1.00000000
0.70723385 0.88162154 1.00000000
0.49452537 0.77113181 1.00000000
0.75377154 0.77947623 0.74268591
0.87994307 0.87351084 0.84131742
0.95891213 0.95068657 0.93014288
0.99937469 0.99906790 0.99830914
0.89277095 0.96763563 1.00000000
0.71464866 0.88531291 1.00000000
0.50252634 0.77541161 1.00000000
0.29125828 0.66027617 1.00000000
0.11569890 0.56225091 1.00000000
0.95052338 0.95141816 0.92717445
0.99838084 0.99803555 0.99629128
0.89822417 0.96984893 1.00000000
0.72201753 0.88896698 1.00000000
0.51052845 0.77968436 1.00000000
0.29861140 0.66434556 1.00000000
0.12112080 0.56529498 1.00000000
0.01291103 0.50487709 1.00000000
0.03586134 0.51604021 1.00000000
0.90358251 0.97199357 1.00000000
0.72933859 0.89258260 1.00000000
0.51853001 0.78394896 1.00000000
0.30601114 0.66843700 1.00000000
0.12663646 0.56839132 1.00000000
0.01526035 0.50615627 1.00000000
0.03323409 0.51472145 1.00000000
0.13064681 0.56361878 1.00000000
0.27040392 0.63377136 1.00000000
0.52652919 0.78820419 1.00000000
0.31345573 0.67254943 1.00000000
0.13224415 0.57153881 1.00000000
0.01774888 0.50751680 1.00000000
0.03068822 0.51344347 1.00000000
0.12620389 0.56138861 1.00000000
0.26471835 0.63091743 1.00000000
0.42844430 0.71310145 1.00000000
0.59959447 0.79901212 1.00000000
0.13794215 0.57473642 1.00000000
0.02037488 0.50895774 1.00000000
0.02822462 0.51220685 1.00000000
0.12181918 0.55918765 1.00000000
0.25906688 0.62808061 1.00000000
0.42218047 0.70995724 1.00000000
0.59337270 0.79588902 1.00000000
0.75485629 0.87694746 1.00000000
0.88884395 0.94420403 1.00000000
0.02770478 0.02577759 0.44703647
0.14087057 0.05850868 0.44172293
0.25684711 0.10968870 0.44571963
0.37522697 0.18218197 0.46428600
0.49489275 0.27666232 0.50086516
0.61330998 0.39095917 0.55648386
0.72624189 0.51975590 0.62943381
0.82788521 0.65463972 0.71523577
0.91142821 0.78450435 0.80688465
0.11633845 0.17681423 0.44534212
0.25348580 0.23889755 0.46329820
0.39319575 0.32237247 0.49918038
0.53208458 0.42564359 0.55411166
0.66506958 0.54397416 0.62648684
0.78548884 0.66952348 0.71192580
0.88564402 0.79173589 0.80350900
0.95317709 0.89808244 0.89229429
0.99042839 0.97515404 0.96811646
0.28999975 0.36887285 0.49752170
0.44936439 0.46110618 0.55176342
0.60247129 0.56892037 0.62355787
0.74180067 0.68504691 0.70862448
0.85876894 0.79948229 0.80012971
0.94031072 0.90021569 0.88919342
0.98692030 0.97431016 0.96567798
0.96310061 0.99291462 1.00000000
0.81819314 0.93503726 1.00000000
0.53844118 0.59459788 0.62064707
0.69681132 0.70121562 0.70533210
0.83079004 0.80775094 0.79674721
0.92661941 0.90271306 0.88607562
0.98292828 0.97363847 0.96320844
0.96696955 0.99399632 1.00000000
0.82467669 0.93800777 1.00000000
0.62810057 0.84143752 1.00000000
0.41209555 0.72662997 1.00000000
0.80169445 0.81654942 0.79336220
0.91208613 0.90558374 0.88294131
0.97843146 0.97315025 0.96070832
0.97071785 0.99499285 1.00000000
0.83108675 0.94092339 1.00000000
0.63589013 0.84545022 1.00000000
0.41998234 0.73091769 1.00000000
0.21821782 0.61967033 1.00000000
0.06545098 0.53405249 1.00000000
0.97340953 0.97285658 0.95817804
0.97434378 0.99590307 1.00000000
0.83742160 0.94378299 1.00000000
0.64365166 0.84943712 1.00000000
0.42788827 0.73520988 1.00000000
0.22498588 0.62344575 1.00000000
0.06979890 0.53648913 1.00000000
0.00308320 0.49958685 1.00000000
0.06766663 0.53200519 1.00000000
0.84367955 0.94658542 1.00000000
0.65138340 0.85339713 1.00000000
0.43581161 0.73950541 1.00000000
0.23181853 0.62725478 1.00000000
0.07425858 0.53898960 1.00000000
0.00194251 0.49901429 1.00000000
0.06424809 0.53028923 1.00000000
0.17990354 0.58834374 1.00000000
0.33112159 0.66424930 1.00000000
0.44375062 0.74380314 1.00000000
0.23871401 0.63109624 1.00000000
0.07882828 0.54155278 1.00000000
0.00089810 0.49849004 1.00000000
0.06090174 0.52860951 1.00000000
0.17490964 0.58583701 1.00000000
0.32513452 0.66124398 1.00000000
0.49378917 0.74590200 1.00000000
0.66308630 0.83088255 1.00000000
0.08350626 0.54417753 1.00000000
0.00006491 0.49807182 1.00000000
0.05762849 0.52696645 1.00000000
0.16996476 0.58335483 1.00000000
0.31917241 0.65825123 1.00000000
0.48746419 0.74272710 1.00000000
0.65705281 0.82785398 1.00000000
0.81015104 0.90470326 1.00000000
0.92897165 0.96434653 1.00000000
0.03916494 0.03632660 0.52646458
0.15637359 0.07565233 0.51632357
0.27677378 0.13472115 0.51631182
0.39962101 0.21566176 0.53154790
0.52314162 0.31812146 0.56507230
0.64398640 0.43874675 0.61735404
0.75710583 0.57101542 0.68608034
0.85604692 0.70542121 0.76622754
0.93367171 0.83001018 0.85041440
0.14308171 0.19798391 0.51606798
0.28527489 0.26822054 0.53067476
0.42909950 0.35959870 0.56350124
0.57036012 0.46934342 0.61511672
0.70315820 0.59151071 0.68331110
0.82017350 0.71715993 0.76315606
0.91336662 0.83487654 0.84734744
0.96904022 0.93164790 0.92683029
0.99783474 0.99409062 0.99170518
0.33355233 0.40186614 0.56195593
0.49525726 0.50070345 0.61290210
0.64782757 0.61270469 0.68055797
0.78307623 0.72949511 0.76009071
0.89206433 0.84020072 0.84427422
0.96022099 0.93231118 0.92410374
0.99656439 0.99289393 0.98969162
0.91632146 0.97695947 1.00000000
0.74709511 0.90128732 1.00000000
0.59110671 0.63460165 0.67782116
0.74474448 0.74243295 0.75703186
0.86975044 0.84599102 0.84119529
0.95069730 0.93326932 0.92135787
0.99495745 0.99178821 0.98764545
0.92133850 0.97885829 1.00000000
0.75423789 0.90476155 1.00000000
0.54614294 0.79860240 1.00000000
0.33190811 0.68272519 1.00000000
0.84641039 0.85225552 0.83811104
0.94045073 0.93453228 0.91859335
0.99299181 0.99078524 0.98556745
0.92625290 0.98068345 1.00000000
0.76132512 0.90819246 1.00000000
0.55412084 0.80281693 1.00000000
0.33949432 0.68690139 1.00000000
0.15230004 0.58279020 1.00000000
0.02739243 0.51282787 1.00000000
0.99064547 0.98989671 0.98345786
0.93106288 0.98243392 1.00000000
0.76835519 0.91157877 1.00000000
0.56208867 0.80701721 1.00000000
0.34711766 0.69109350 1.00000000
0.15829663 0.58615214 1.00000000
0.03047998 0.51453763 1.00000000
0.02035941 0.50825882 1.00000000
0.10713214 0.55181533 1.00000000
0.77532631 0.91491956 1.00000000
0.57004470 0.81120205 1.00000000
0.35477638 0.69530046 1.00000000
0.16437577 0.58955920 1.00000000
0.03369727 0.51632273 1.00000000
0.01827305 0.50721157 1.00000000
0.10301742 0.54974991 1.00000000
0.23432989 0.61566365 1.00000000
0.39442322 0.69602418 1.00000000
0.36246878 0.69952118 1.00000000
0.17053574 0.59301025 1.00000000
0.03704256 0.51818204 1.00000000
0.01627379 0.50620800 1.00000000
0.09896573 0.54771614 1.00000000
0.22888015 0.61292809 1.00000000
0.38822979 0.69291538 1.00000000
0.55922741 0.77874947 1.00000000
0.72408581 0.86150187 1.00000000
0.04051412 0.52011448 1.00000000
0.01436253 0.50524867 1.00000000
0.09497795 0.54571444 1.00000000
0.22347024 0.61021250 1.00000000
0.38205215 0.68981439 1.00000000
0.55293643 0.77559161 1.00000000
0.71833575 0.85861558 1.00000000
0.86046296 0.92995787 1.00000000
0.96153075 0.98068994 1.00000000
0.05316202 0.04920664 0.60122335
0.17478859 0.09568311 0.58599305
0.29983956 0.16295920 0.58187157
0.42709273 0.25230128 0.59372431
0.55403876 0.36225465 0.62411702
0.67649543 0.48825827 0.67293060
0.78864384 0.62261146 0.73725814
0.88348556 0.75479221 0.81158286
0.95049554 0.87212831 0.88823962
0.17321832 0.22222182 0.58176368
0.32027614 0.30064824 0.59296775
0.46766806 0.39952815 0.62266338
0.61036652 0.51488048 0.67083395
0.74169832 0.63957953 0.73467344
0.85378659 0.76366031 0.80875504
0.93547750 0.87497675 0.88548082
0.98237920 0.96021086 0.95581472
0.98271394 0.99776447 1.00000000
0.37979549 0.43758625 0.62123501
0.54278862 0.54224598 0.66875869
0.69342196 0.65721166 0.73210287
0.82294130 0.77307618 0.80593085
0.91957790 0.87822098 0.88271332
0.97697568 0.95981210 0.95345098
0.98590374 0.99836808 1.00000000
0.85870272 0.95321482 1.00000000
0.67022425 0.86299604 1.00000000
0.64380640 0.67551291 0.72954679
0.79093760 0.78304690 0.80311078
0.90278059 0.88186997 0.87993777
0.97099823 0.95963424 0.95106608
0.98896348 0.99888045 1.00000000
0.86468148 0.95581126 1.00000000
0.67783982 0.86685449 1.00000000
0.46329278 0.75435460 1.00000000
0.25589481 0.64065593 1.00000000
0.88506943 0.88593256 0.87715447
0.96442705 0.95968783 0.94866067
0.99189132 0.99930048 1.00000000
0.87057561 0.95834559 1.00000000
0.68541789 0.87068111 1.00000000
0.47127256 0.75865144 1.00000000
0.26299405 0.64460099 1.00000000
0.09543673 0.55087423 1.00000000
0.00345503 0.49981558 1.00000000
0.99468559 0.99962705 1.00000000
0.87638330 0.96081674 1.00000000
0.69295675 0.87447476 1.00000000
0.47926030 0.76294553 1.00000000
0.27014840 0.64857352 1.00000000
0.10047542 0.55370319 1.00000000
0.00509580 0.50067896 1.00000000
0.04689567 0.52157903 1.00000000
0.15327200 0.57497573 1.00000000
0.70045459 0.87823433 1.00000000
0.48725423 0.76723582 1.00000000
0.27735612 0.65257251 1.00000000
0.10561467 0.55658883 1.00000000
0.00688430 0.50162917 1.00000000
0.04395877 0.52010483 1.00000000
0.14855625 0.57260865 1.00000000
0.29294005 0.64508367 1.00000000
0.45932296 0.72860134 1.00000000
0.28461549 0.65659672 1.00000000
0.11085273 0.55952996 1.00000000
0.00881879 0.50266516 1.00000000
0.04109980 0.51866972 1.00000000
0.14389433 0.57026851 1.00000000
0.28712958 0.64216703 1.00000000
0.45301831 0.72543663 1.00000000
0.62377328 0.81114894 1.00000000
0.78160715 0.89037538 1.00000000
0.01089754 0.50378579 1.00000000
0.03831963 0.51727414 1.00000000
0.13928714 0.56795591 1.00000000
0.28134978 0.63926578 1.00000000
0.44672024 0.72227526 1.00000000
0.61761129 0.80805588 1.00000000
0.77623570 0.88767910 1.00000000
0.90480620 0.95221645 1.00000000
0.98553550 0.99273938 1.00000000
0.06993567 0.06464759 0.67094713
0.19629365 0.11875849 0.65051007
0.32610011 0.19443357 0.64227444
0.45753783 0.29196963 0.65075505
0.58730578 0.40875393 0.67798722
0.71039402 0.53901321 0.72324872
0.82028055 0.67391443 0.78306413
0.90954947 0.80201751 0.85149097
0.96545601 0.91008031 0.92068779
0.20675890 0.24958974 0.64230192
0.35834122 0.33608180 0.65011513
0.50857919 0.44188514 0.67665309
0.65161598 0.56180620 0.72129655
0.78006798 0.68758154 0.78066802
0.88562745 0.80831778 0.84890759
0.95476615 0.91128391 0.91823024
0.99276465 0.98305488 0.97976607
0.94241577 0.98640645 1.00000000
0.42836308 0.47578970 0.67534369
0.59142590 0.58531666 0.71936452
0.73858643 0.70187259 0.77828413
0.86064649 0.81511199 0.84632576
0.94331014 0.91281629 0.91576213
0.99009144 0.98202455 0.97774506
0.94685179 0.98789012 1.00000000
0.79217631 0.92291909 1.00000000
0.58951229 0.82140183 1.00000000
0.69582605 0.71679354 0.77591282
0.83459288 0.82240802 0.84374601
0.93107033 0.91468722 0.91328394
0.98698503 0.98113638 0.97570181
0.95117569 0.98929405 1.00000000
0.79893035 0.92609370 1.00000000
0.59741431 0.82552505 1.00000000
0.38148186 0.70993251 1.00000000
0.18598746 0.60166055 1.00000000
0.91802931 0.91690624 0.91079611
0.98342419 0.98040187 0.97363669
0.95538568 0.99061716 1.00000000
0.80561775 0.92921770 1.00000000
0.60529679 0.82962787 1.00000000
0.38927716 0.71419221 1.00000000
0.19241332 0.60525501 1.00000000
0.04955965 0.52516079 1.00000000
0.01004985 0.50308383 1.00000000
0.95948017 0.99185830 1.00000000
0.81223673 0.93229002 1.00000000
0.61315805 0.83370930 1.00000000
0.39709839 0.71846068 1.00000000
0.19891226 0.60888851 1.00000000
0.05345406 0.52733731 1.00000000
0.00844935 0.50228047 1.00000000
0.08170614 0.53905249 1.00000000
0.20510039 0.60099155 1.00000000
0.62099630 0.83776820 1.00000000
0.40494382 0.72273684 1.00000000
0.20548259 0.61255991 1.00000000
0.05746701 0.52958196 1.00000000
0.00694078 0.50152320 1.00000000
0.07801383 0.53719908 1.00000000
0.19987871 0.59837049 1.00000000
0.35474816 0.67610890 1.00000000
0.52483499 0.76148582 1.00000000
0.21212254 0.61626816 1.00000000
0.06159676 0.53189367 1.00000000
0.00552504 0.50081259 1.00000000
0.07439025 0.53538018 1.00000000
0.19470170 0.59577185 1.00000000
0.34867209 0.67305893 1.00000000
0.51851422 0.75831300 1.00000000
0.68644077 0.84260553 1.00000000
0.83466452 0.91700804 1.00000000
0.00420300 0.50014895 1.00000000
0.07083632 0.53359628 1.00000000
0.18957023 0.59319603 1.00000000
0.34261751 0.67001975 1.00000000
0.51219088 0.75513893 1.00000000
0.68050307 0.83962506 1.00000000
0.82976681 0.91454959 1.00000000
0.94219488 0.97098410 1.00000000
1.00000000 1.00000000 1.00000000
