140Lums_Major/140Lums Major.cube
# VEGAS Pro LUT
TITLE "140Lums Major"
LUT_3D_SIZE 5
1.00000000 1.00000000 1.00000000
0.93019867 0.91808015 0.90223283
0.79135931 0.75825250 0.71495903
0.60671169 0.55753922 0.49323681
0.40248957 0.35372093 0.29365072
0.79742098 0.76508355 0.72279620
0.61404705 0.56521845 0.50136578
0.40991476 0.36101466 0.30043694
0.21933566 0.17682634 0.13474077
0.06907001 0.04430282 0.02649972
0.41735944 0.36833188 0.30726272
0.22579129 0.18289720 0.13999163
0.07358354 0.04786506 0.02913626
0.00000000 0.01161004 0.01641670
0.03328972 0.12405767 0.14334401
0.07818540 0.05154195 0.03188739
0.00000000 0.00935536 0.01346060
0.03087227 0.11852767 0.13739686
0.12463830 0.28774101 0.31700662
0.27095541 0.45680463 0.49907467
0.02853773 0.11307894 0.13152507
0.12020426 0.28114986 0.31002951
0.26474246 0.45128545 0.49294996
0.48442498 0.56251991 0.62493080
0.73821372 0.61811388 0.70151114
0.98300838 0.98031193 0.97678578
0.88414484 0.86432129 0.83839816
0.72510016 0.68453830 0.63149595
0.52911389 0.47839013 0.41211569
0.32699907 0.27992901 0.22598927
0.73174822 0.69185340 0.63968331
0.53669542 0.48585165 0.41937950
0.33414620 0.28687871 0.23228307
0.15588182 0.11834171 0.08516027
0.02780798 0.01455106 0.00626499
0.34132618 0.29386961 0.23863098
0.16170940 0.12360498 0.08953697
0.03133009 0.01682446 0.00763105
0.00394727 0.04383152 0.05508770
0.06312069 0.18542638 0.20877209
0.03495390 0.01923021 0.00912628
0.00298208 0.04006687 0.05076028
0.05986944 0.17923068 0.20220006
0.17469952 0.35548654 0.38902390
0.34306121 0.50743908 0.55697924
0.05669661 0.17308518 0.19567591
0.16954941 0.34904289 0.38214087
0.33482054 0.50327414 0.55201727
0.58289438 0.58879536 0.65957940
0.82345110 0.62969840 0.71979707
0.95389152 0.94596875 0.93560815
0.82934266 0.80128908 0.76460367
0.65346944 0.60693258 0.54607677
0.45072526 0.40116748 0.33811173
0.25517732 0.21074496 0.16428980
0.66057974 0.61453378 0.55431986
0.45825359 0.40858275 0.34512830
0.26190785 0.21716717 0.16994007
0.09972405 0.06926909 0.04549784
0.00000000 0.00133066 0.00212004
0.26868463 0.22364827 0.17565902
0.10478504 0.07354130 0.04884927
0.00000000 0.00000000 0.00000000
0.01915715 0.08987286 0.10635357
0.10132805 0.25186515 0.27905926
0.00250721 0.00095113 0.00008824
0.01728254 0.08492013 0.10093942
0.09728961 0.24532567 0.27214694
0.23191698 0.41987425 0.45844913
0.43380758 0.54571670 0.60366201
0.09332509 0.23880531 0.26525503
0.22609740 0.41390005 0.45194477
0.42469731 0.54239589 0.59952295
0.68027109 0.60858476 0.68734556
0.89482027 0.63765711 0.73328155
0.91393691 0.89902228 0.87951863
0.76707953 0.73103553 0.68390101
0.57775474 0.52748734 0.46175304
0.37367541 0.32546672 0.26752850
0.18846016 0.14807045 0.11011826
0.58520293 0.53517652 0.46975738
0.38101196 0.33265224 0.27414674
0.19463556 0.15378165 0.11497388
0.05229817 0.03151012 0.01731943
0.00000000 0.02493858 0.03297749
0.20087056 0.15956944 0.11991277
0.05645401 0.03460777 0.01949449
0.00000000 0.02192852 0.02933634
0.04352719 0.14639802 0.16726488
0.14742883 0.32003799 0.35125613
0.00000000 0.01906648 0.02582957
0.04078975 0.14057912 0.16104859
0.14264978 0.31347659 0.34428811
0.29580772 0.47756815 0.52233285
0.53089571 0.57584387 0.64225149
0.13794017 0.30690327 0.33731303
0.28936529 0.47238523 0.51649177
0.52138585 0.57326198 0.63885880
0.77168411 0.62297863 0.70902282
0.94745040 0.64308041 0.74275792
0.86443204 0.84152460 0.81156874
0.69864303 0.65561241 0.59934169
0.49948022 0.44920436 0.38389963
0.29940006 0.25318950 0.20193194
0.12828338 0.09380709 0.06504059
0.50705796 0.45666999 0.39108792
0.30640632 0.25996178 0.20800075
0.13376510 0.09862379 0.06895047
0.01503996 0.00696644 0.00219099
0.00997947 0.06412216 0.07798214
0.13931979 0.10353480 0.07295820
0.01815213 0.00870603 0.00303858
0.00857770 0.05975461 0.07310448
0.07657440 0.21007098 0.23487221
0.20094004 0.38660881 0.42241326
0.00726401 0.05550401 0.06833372
0.07302075 0.20370778 0.22813839
0.19546701 0.38034743 0.41567412
0.37623572 0.52290374 0.57558870
0.62945467 0.59891105 0.67354113
0.19005892 0.37404305 0.40890050
0.36761183 0.51906955 0.57094616
0.62001520 0.59696287 0.67081821
0.85226262 0.63306749 0.72540450
0.97647059 0.64705884 0.74901962
