140Lums_Major/140Lums Major.cube
# VEGAS Pro LUT
TITLE "140Lums Major"
LUT_3D_SIZE 9
1.00000000 1.00000000 1.00000000
0.97518098 0.97109240 0.96574587
0.93019867 0.91808015 0.90223283
0.86795688 0.84559089 0.81634313
0.79135931 0.75825250 0.71495903
0.70330966 0.66069269 0.60496283
0.60671169 0.55753922 0.49323681
0.50464648 0.45429432 0.38879836
0.40248957 0.35372093 0.29365072
0.93217713 0.92040384 0.90500802
0.87051886 0.84854919 0.81981963
0.79439795 0.76167506 0.71888363
0.70671821 0.66440928 0.60908234
0.61038327 0.56137961 0.49729797
0.50843608 0.45802757 0.39239722
0.40619966 0.35736474 0.29703879
0.30768430 0.26119831 0.20911062
0.21612823 0.17381702 0.13214441
0.79742098 0.76508355 0.72279620
0.71011502 0.66811812 0.61319911
0.61404705 0.56521845 0.50136578
0.51222634 0.46176112 0.39600137
0.40991476 0.36101466 0.30043694
0.31120515 0.26460680 0.21217284
0.21933566 0.17682634 0.13474077
0.13754456 0.10196208 0.07167248
0.06907001 0.04430282 0.02649972
0.61770290 0.56905556 0.50543988
0.51601708 0.46549472 0.39961061
0.41363475 0.36467043 0.30384496
0.31473523 0.26802698 0.21524972
0.22255674 0.17985314 0.13735656
0.14033748 0.10443771 0.07369728
0.07131565 0.04606950 0.02780358
0.01872948 0.00903731 0.00320720
0.00000000 0.01279746 0.01794918
0.41735944 0.36833188 0.30726272
0.31827441 0.27145863 0.21834107
0.22579129 0.18289720 0.13999163
0.14314826 0.10693641 0.07574611
0.07358354 0.04786506 0.02913626
0.02033534 0.00997194 0.00369379
0.00000000 0.01161004 0.01641670
0.00767242 0.05684360 0.06983993
0.03328972 0.12405767 0.14334401
0.22903916 0.18595831 0.14264579
0.14597675 0.10945797 0.07781882
0.07587351 0.04968928 0.03049758
0.02196766 0.01094104 0.00421381
0.00000000 0.01046254 0.01492039
0.00703466 0.05474397 0.06747801
0.03207066 0.12128270 0.14036117
0.07238286 0.20255490 0.22691801
0.12688202 0.29103670 0.32049659
0.07818540 0.05154195 0.03188739
0.02362629 0.01194440 0.00476708
0.00000000 0.00935536 0.01346060
0.00641904 0.05267447 0.06514359
0.03087227 0.11852767 0.13739686
0.07064177 0.19939114 0.22356850
0.12463830 0.28774101 0.31700662
0.19177261 0.37605345 0.41105932
0.27095541 0.45680463 0.49907467
0.00000000 0.00828886 0.01203765
0.00582563 0.05063546 0.06283702
0.02969461 0.11579296 0.13445137
0.06891993 0.19623752 0.22022884
0.12241236 0.28444529 0.31351748
0.18908264 0.37289241 0.40766543
0.26784149 0.45405504 0.49602073
0.36605355 0.51836354 0.57009339
0.48912802 0.56395280 0.62677234
0.02853773 0.11307894 0.13152507
0.06721741 0.19309440 0.21689932
0.12020426 0.28114986 0.31002951
0.18640903 0.36972150 0.40426368
0.26474246 0.45128545 0.49294996
0.36178419 0.51640773 0.56773454
0.48442498 0.56251991 0.62493080
0.61356330 0.59560215 0.66892660
0.73821372 0.61811388 0.70151114
0.99310035 0.99211609 0.99082905
0.96025115 0.95347226 0.94460756
0.90834582 0.89248812 0.87175119
0.84028804 0.81379151 0.77914214
0.75898165 0.72201008 0.67366272
0.66733027 0.62177175 0.56219524
0.56823766 0.51770413 0.45162189
0.46545017 0.41567260 0.35185435
0.36437547 0.31636783 0.25917262
0.91055930 0.89507383 0.87482363
0.84304434 0.81694686 0.78281933
0.76217389 0.72556484 0.67769152
0.67085165 0.62555563 0.56632233
0.57198143 0.52154690 0.45559415
0.46922350 0.41939038 0.35538819
0.36802384 0.31993601 0.26244614
0.27177992 0.22661322 0.17828086
0.18372990 0.14371081 0.10642410
0.76535201 0.72910792 0.68171179
0.67436284 0.62933409 0.57045031
0.57571882 0.52539051 0.45957661
0.47299913 0.42311063 0.35892913
0.37167895 0.32351249 0.26573151
0.27519530 0.22988814 0.18118078
0.18678647 0.14652638 0.10880863
0.10969063 0.07771601 0.05214682
0.04714599 0.02774584 0.01472707
0.57944983 0.52923477 0.46356893
0.47677696 0.42683318 0.36247697
0.37534058 0.32709706 0.26902860
0.27862164 0.23317693 0.18409719
0.18985836 0.14936164 0.11121442
0.11228894 0.07993995 0.05391206
0.04915160 0.02920067 0.01572184
0.00368455 0.00143261 0.00017549
0.00020935 0.02736401 0.03588145
0.37900859 0.33068949 0.27233723
0.28205872 0.23647942 0.18702990
0.19294539 0.15221637 0.11364131
0.11490679 0.08218917 0.05570317
0.05118113 0.03068659 0.01674725
0.00500662 0.00199745 0.00030528
0.00000000 0.02578479 0.03399350
0.01557310 0.08028634 0.09585758
0.04712797 0.15389976 0.17526633
0.19604741 0.15509039 0.11608909
0.11754401 0.08446346 0.05751998
0.05323441 0.03220339 0.01780314
0.00635683 0.00259897 0.00047032
0.00000000 0.02424163 0.03213830
0.01470898 0.07789657 0.09323005
0.04569783 0.15094019 0.17211120
0.09154759 0.23584865 0.26212981
0.15116899 0.32509810 0.35663402
0.05531128 0.03375085 0.01888932
0.00773502 0.00323695 0.00067043
0.00000000 0.02273489 0.03031617
0.01386644 0.07553305 0.09062661
0.04428780 0.14799668 0.16897115
0.08961013 0.23260194 0.25869790
0.14874420 0.32182500 0.35315493
0.22060072 0.40814200 0.44569036
0.30409047 0.48402911 0.52965230
0.00000000 0.02126495 0.02852746
0.01304555 0.07319614 0.08804757
0.04289793 0.14506960 0.16584651
0.08769137 0.22936149 0.25527236
0.14633660 0.31854796 0.34967324
0.21774438 0.40510517 0.44239724
0.30082545 0.48150930 0.52679241
0.41156039 0.53742814 0.59336656
0.53825384 0.57779390 0.64482653
0.04152829 0.14215933 0.16273761
0.08579136 0.22612765 0.25185359
0.14394629 0.31526735 0.34618929
0.21490385 0.40205464 0.43909281
0.29757476 0.47896558 0.52391231
0.40707800 0.53568238 0.59121269
0.53349185 0.57653654 0.64316499
0.66221482 0.60529846 0.68259889
0.78226149 0.62442756 0.71130389
0.98300838 0.98031193 0.97678578
0.94255114 0.93260455 0.91959745
0.88414484 0.86432129 0.83839816
0.81069326 0.78008997 0.74007022
0.72510016 0.68453830 0.63149595
0.63026917 0.58229411 0.51955760
0.52911389 0.47839013 0.41211569
0.42652082 0.37734169 0.31569171
0.32699907 0.27992901 0.22598927
0.88657796 0.86714429 0.84173107
0.81362844 0.78341770 0.74391133
0.72843051 0.68820053 0.63559210
0.63388795 0.58612055 0.52365553
0.53290480 0.48212144 0.41574553
0.43026057 0.38102105 0.31914163
0.33056843 0.28339860 0.22912931
0.23706666 0.19354293 0.14924036
0.15299343 0.11574282 0.08300646
0.73174822 0.69185340 0.63968331
0.63749796 0.58994395 0.52775788
0.53669542 0.48585165 0.41937950
0.43400431 0.38470510 0.32260045
0.33414620 0.28687871 0.23228307
0.24035931 0.19666131 0.15195909
0.15588182 0.11834171 0.08516027
0.08395198 0.05620869 0.03541832
0.02780798 0.01455106 0.00626499
0.54048544 0.48958054 0.42301744
0.43775186 0.38839364 0.32606801
0.33773217 0.29036912 0.23545034
0.24366453 0.19979581 0.15469615
0.15878721 0.12096250 0.08733717
0.08633836 0.05815800 0.03690513
0.02955624 0.01567111 0.00693178
0.00000000 0.00584591 0.00870326
0.00446356 0.04576229 0.05729555
0.34132618 0.29386961 0.23863098
0.24698222 0.20294619 0.15745133
0.16170940 0.12360498 0.08953697
0.08874595 0.06013481 0.03841963
0.03133009 0.01682446 0.00763105
0.00000000 0.00492283 0.00741013
0.00394727 0.04383152 0.05508770
0.02578659 0.10650732 0.12442565
0.06312069 0.18542638 0.20877209
0.16464826 0.12626895 0.09175951
0.09117459 0.06213890 0.03996165
0.03312936 0.01801090 0.00836261
0.00000000 0.00404209 0.00615533
0.00345343 0.04193292 0.05290917
0.02470193 0.10386765 0.12156811
0.06148529 0.18232244 0.20548025
0.11271426 0.26977345 0.29799369
0.17729957 0.35869682 0.39245656
0.03495390 0.01923021 0.00912628
0.00000000 0.00320409 0.00493918
0.00298208 0.04006687 0.05076028
0.02363830 0.10125035 0.11873120
0.05986944 0.17923068 0.20220006
0.11058626 0.26648402 0.29451492
0.17469952 0.35548654 0.38902390
0.25111994 0.43871436 0.47907513
0.34306121 0.50743908 0.55697924
0.00253330 0.03823373 0.04864137
0.02259575 0.09865578 0.11591528
0.05827320 0.17615147 0.19893183
0.10847640 0.26319697 0.29103911
0.17211610 0.35226843 0.38558525
0.24810305 0.43584204 0.47591832
0.33892754 0.50536740 0.55450863
0.45894107 0.55439061 0.61456943
0.58765656 0.58989030 0.66107059
0.05669661 0.17308518 0.19567591
0.10638472 0.25991267 0.28756660
0.16954941 0.34904289 0.38214087
0.24510141 0.43295205 0.47274679
0.33482054 0.50327414 0.55201727
0.45430440 0.55284172 0.61261106
0.58289438 0.58879536 0.65957940
0.70960510 0.61359447 0.69471163
0.82345110 0.62969840 0.71979707
0.96988517 0.96484399 0.95825166
0.92224199 0.90874577 0.89109689
0.85775685 0.83383614 0.80255520
0.77933353 0.74474281 0.69950885
0.68987578 0.64609367 0.58884019
0.59228724 0.54251635 0.47743139
0.48984197 0.43970743 0.37478399
0.38803795 0.33953932 0.28050616
0.29053986 0.24464214 0.19429642
0.86039394 0.83687162 0.80611169
0.78243196 0.74821818 0.70347703
0.69332868 0.64983857 0.59296685
0.59598786 0.54636055 0.48146337
0.49362746 0.44343752 0.37836057
0.39172679 0.34315729 0.28385326
0.29401290 0.24799022 0.19728412
0.20372401 0.16222513 0.12218486
0.12409829 0.09015078 0.06208722
0.69677049 0.65357655 0.59709215
0.59968126 0.55020410 0.48550329
0.49741423 0.44716874 0.38194308
0.39542130 0.34678221 0.28721109
0.29749602 0.25135103 0.20028734
0.20687658 0.16516405 0.12470353
0.12680119 0.09251004 0.06399143
0.06050808 0.03767782 0.02168274
0.01123544 0.00495619 0.00130922
0.50120211 0.45090088 0.38553140
0.39912131 0.35041383 0.29057950
0.30098900 0.25472435 0.20330590
0.21004342 0.16812129 0.12724234
0.12952274 0.09489343 0.06592054
0.06266522 0.03932957 0.02287223
0.01270903 0.00571852 0.00162916
0.00000000 0.01781529 0.02428071
0.01112272 0.06757529 0.08182278
0.30449170 0.25810999 0.20633964
0.21322435 0.17109664 0.12980109
0.13226280 0.09730072 0.06787438
0.06484523 0.04101103 0.02409123
0.01420988 0.00651636 0.00198338
0.00000000 0.01647536 0.02260997
0.01037701 0.06533321 0.07933061
0.03825252 0.13508955 0.15517546
0.08120751 0.21822052 0.24349263
0.13502117 0.09973171 0.06985278
0.06704796 0.04272199 0.02533956
0.01573783 0.00734950 0.00237172
0.00000000 0.01517390 0.02097411
0.00965318 0.06311942 0.07686432
0.03695315 0.13224022 0.15212347
0.07937267 0.21501245 0.24009965
0.13582250 0.30391228 0.33414096
0.20521340 0.39141583 0.42759547
0.01729271 0.00821774 0.00279401
0.00000000 0.01391128 0.01937347
0.00895128 0.06093428 0.07442425
0.03567424 0.12940936 0.14908870
0.07755683 0.21181267 0.23671487
0.13350980 0.30062038 0.33065090
0.20244390 0.38830861 0.42424488
0.28326985 0.46735355 0.51084489
0.38733724 0.52766484 0.58138186
0.00827138 0.05877819 0.07201073
0.03441586 0.12659736 0.14607145
0.07576004 0.20862158 0.23333864
0.13121466 0.29732698 0.32716039
0.19969049 0.38518971 0.42088479
0.28009826 0.46468595 0.50785995
0.38295963 0.52581018 0.57912135
0.50758672 0.56938714 0.63380116
0.63672739 0.60037833 0.67560363
0.07398234 0.20543951 0.22997127
0.12893716 0.29403242 0.32366976
0.19695324 0.38205945 0.41751561
0.27694133 0.46199679 0.50485694
0.37860301 0.52393514 0.57684094
0.50285453 0.56802201 0.63202864
0.63202375 0.59943265 0.67427319
0.75512528 0.62062645 0.70536381
0.86117363 0.63406283 0.72708988
0.95389152 0.94596875 0.93560815
0.89948452 0.88215238 0.85948735
0.82934266 0.80128908 0.76460367
0.74636972 0.70800656 0.65783942
0.65346944 0.60693258 0.54607677
0.55354553 0.50269496 0.43619809
0.45072526 0.40116748 0.33811173
0.35018101 0.30250314 0.24649346
0.25517732 0.21074496 0.16428980
0.83216822 0.80451238 0.76834702
0.74961591 0.71160477 0.66189790
0.65702939 0.61073542 0.55019718
0.55731249 0.50653219 0.44012725
0.45448795 0.40487343 0.34161612
0.35380164 0.30603683 0.24971884
0.25853673 0.21394859 0.16710626
0.17193145 0.13289751 0.09731011
0.09722397 0.06717238 0.04386213
0.66057974 0.61453378 0.55431986
0.56107366 0.51037115 0.44406796
0.45825359 0.40858275 0.34512830
0.35742959 0.30957967 0.25295681
0.26190785 0.21716717 0.16994007
0.17492661 0.13563403 0.09960983
0.09972405 0.06926909 0.04549784
0.03953840 0.02236112 0.01113582
0.00000000 0.00133066 0.00212004
0.46202204 0.41229516 0.34864810
0.36106473 0.31313142 0.25620714
0.26529056 0.22040045 0.17279103
0.17793773 0.13839109 0.10193150
0.10224447 0.07139213 0.04716028
0.04144898 0.02369237 0.01200910
0.00000000 0.00064313 0.00103996
0.00152769 0.03387612 0.04356961
0.02012647 0.09238602 0.10909448
0.26868463 0.22364827 0.17565902
0.18096462 0.14116848 0.10427495
0.10478504 0.07354130 0.04884927
0.04338409 0.02505554 0.01291371
0.00000000 0.00000000 0.00000000
0.00115723 0.03215958 0.04155681
0.01915715 0.08987286 0.10635357
0.05291051 0.16561601 0.18773834
0.10132805 0.25186515 0.27905926
0.10734561 0.07571637 0.05056465
0.04534360 0.02645042 0.01384948
0.00123930 0.00045691 0.00002624
0.00080957 0.03047762 0.03957547
0.01820916 0.08738411 0.10363510
0.05140226 0.16259725 0.18452749
0.09929962 0.24859321 0.27560073
0.16081198 0.33784813 0.37020290
0.23485008 0.42283818 0.46168214
0.00250721 0.00095113 0.00008824
0.00048476 0.02883063 0.03762592
0.01728254 0.08492013 0.10093942
0.04991391 0.15959309 0.18133040
0.09728961 0.24532567 0.27214694
0.15832038 0.33459401 0.36673716
0.23191698 0.41987425 0.45844913
0.31699014 0.49364260 0.54063100
0.43380758 0.54571670 0.60366201
0.01637736 0.08248131 0.09826685
0.04844552 0.15660390 0.17814742
0.09529807 0.24206291 0.26869828
0.15584579 0.33133447 0.36326751
0.22899939 0.41689476 0.45520324
0.31366965 0.49121991 0.53785354
0.42924479 0.54406583 0.60160196
0.55688852 0.58255416 0.65116096
0.68485737 0.60939437 0.68852484
0.09332509 0.23880531 0.26525503
0.15338826 0.32806993 0.35979432
0.22609740 0.41390005 0.45194477
0.31036326 0.48877183 0.53505456
0.42469731 0.54239589 0.59952295
0.55211955 0.58135962 0.64956474
0.68027109 0.60858476 0.68734556
0.79816645 0.62653083 0.71465474
0.89482027 0.63765711 0.73328155
0.93518847 0.92394269 0.90923661
0.87443972 0.85308099 0.82515031
0.79906327 0.76693672 0.72492516
0.71196282 0.67013770 0.61544335
0.61604214 0.56731164 0.50358725
0.51429397 0.46379763 0.39796942
0.41194326 0.36300799 0.30229464
0.31312951 0.26647091 0.21384932
0.22109093 0.17847517 0.13616517
0.80206180 0.77032304 0.72881854
0.71534121 0.67383397 0.61955535
0.61969358 0.57114768 0.50766462
0.51808488 0.46753117 0.40158138
0.41566581 0.36666691 0.30570799
0.31666458 0.26989737 0.21693413
0.22431938 0.18151140 0.13879150
0.14186843 0.10579779 0.07481185
0.07254994 0.04704533 0.02852693
0.62333691 0.57498157 0.51174778
0.52187604 0.47126445 0.40519816
0.41939300 0.37033135 0.30913094
0.32020867 0.27333519 0.22003332
0.22756122 0.18456480 0.14143699
0.14468889 0.10830899 0.07687373
0.07482989 0.04885655 0.02987526
0.02122242 0.01049628 0.00397331
0.00000000 0.01097916 0.01559602
0.42312467 0.37400112 0.31256333
0.32376158 0.27678412 0.22314672
0.23081629 0.18763512 0.14410149
0.14752696 0.11084292 0.07895938
0.07713184 0.05069631 0.03125214
0.02286912 0.01148409 0.00451149
0.00000000 0.00985360 0.01411960
0.00669612 0.05361139 0.06620125
0.03141442 0.11977746 0.13874197
0.23408443 0.19072218 0.14678480
0.15038249 0.11339939 0.08106863
0.07945562 0.05256441 0.03265740
0.02454202 0.01250604 0.00508282
0.00000000 0.00876856 0.01267986
0.00609261 0.05155848 0.06388199
0.03022734 0.11703347 0.13578787
0.06970020 0.19766970 0.22174563
0.12342194 0.28594333 0.31510332
0.08180108 0.05446063 0.03409085
0.02624099 0.01356192 0.00568714
0.00000000 0.00772441 0.01127715
0.00551133 0.04953626 0.06159074
0.02906101 0.11431000 0.13285281
0.06798889 0.19452175 0.21841146
0.12120572 0.28264770 0.31161478
0.18762228 0.37116402 0.40581089
0.26614925 0.45254681 0.49434784
0.00000000 0.00672151 0.00991179
0.00495234 0.04754513 0.05932784
0.02791549 0.11160742 0.12993710
0.06629692 0.19138452 0.21508764
0.11900738 0.27935264 0.30812758
0.18495761 0.36798787 0.40240499
0.26305836 0.44976643 0.49126804
0.35946539 0.51533210 0.56643933
0.48186335 0.56173092 0.62391883
0.02679084 0.10892610 0.12704106
0.06462434 0.18825839 0.21177450
0.11682694 0.27605847 0.30464205
0.18230940 0.36480248 0.39899179
0.25998244 0.44696659 0.48817188
0.35523281 0.51334381 0.56404912
0.47717410 0.56027073 0.62204969
0.60623753 0.59402788 0.66674799
0.73143768 0.61707461 0.69993335
0.11466449 0.27276555 0.30115852
0.17967768 0.36160815 0.39557162
0.25692156 0.44414765 0.48505974
0.35102475 0.51133442 0.56163847
0.47249451 0.55879277 0.62016255
0.60149056 0.59299082 0.66531855
0.72702748 0.61638802 0.69889575
0.83811980 0.63144380 0.72268355
0.92378211 0.64061755 0.73847115
0.91393691 0.89902228 0.87951863
0.84726852 0.82178795 0.78846723
0.76707953 0.73103553 0.68390101
0.67627370 0.63139272 0.57270217
0.57775474 0.52748734 0.46175304
0.47505951 0.42514083 0.36086348
0.37367541 0.32546672 0.26752850
0.27706286 0.23168032 0.18276952
0.18846016 0.14807045 0.11011826
0.77023554 0.73456007 0.68790758
0.67976886 0.63516235 0.57683080
0.58148217 0.53133178 0.46575055
0.47883841 0.42886454 0.36441502
0.37734053 0.32905561 0.27083191
0.28049508 0.23497660 0.18569484
0.19154033 0.15091637 0.11253557
0.11371445 0.08116367 0.05488584
0.05025566 0.03000733 0.01627737
0.58520293 0.53517652 0.46975738
0.48261926 0.43259019 0.36797324
0.38101196 0.33265224 0.27414674
0.28393799 0.23828647 0.18863638
0.19463556 0.15378165 0.11497388
0.11634288 0.08342660 0.05669099
0.05229817 0.03151012 0.01731943
0.00573962 0.00232101 0.00039094
0.00000000 0.02493858 0.03297749
0.38468954 0.33625641 0.27747282
0.28739139 0.24160966 0.19159395
0.19774570 0.15666607 0.11743300
0.11899060 0.08571448 0.05852173
0.05436433 0.03304367 0.01839186
0.00710511 0.00294245 0.00057513
0.00000000 0.02341523 0.03114029
0.01424673 0.07660410 0.09180699
0.04492622 0.14933263 0.17039657
0.20087056 0.15956944 0.11991277
0.12165744 0.08802710 0.06037789
0.05645401 0.03460777 0.01949449
0.00849849 0.00360024 0.00079431
0.00000000 0.02192852 0.02933634
0.01341599 0.07425504 0.08921681
0.04352719 0.14639802 0.16726488
0.08856121 0.23083362 0.25682861
0.14742883 0.32003799 0.35125613
0.05856703 0.03620220 0.02062715
0.00991960 0.00429417 0.00104828
0.00000000 0.02047881 0.02756599
0.01260693 0.07193282 0.08665124
0.04214834 0.14348006 0.16414878
0.08665267 0.22759673 0.25340673
0.14503065 0.31675896 0.34777316
0.21619304 0.40344292 0.44059619
0.29905057 0.48012474 0.52522391
0.00000000 0.01906648 0.02582957
0.01181959 0.06963778 0.08411057
0.04078975 0.14057912 0.16104859
0.08476290 0.22436666 0.24999174
0.14264978 0.31347659 0.34428811
0.21336114 0.40038502 0.43728578
0.29580772 0.47756815 0.52233285
0.40464061 0.53472185 0.59002972
0.53089571 0.57584387 0.64225149
0.03945147 0.13769557 0.15796466
0.08289197 0.22114381 0.24658400
0.14028627 0.31019124 0.34080130
0.21054512 0.39731395 0.43396461
0.29257926 0.47498816 0.51942205
0.40018627 0.53294563 0.58784592
0.52613878 0.57456118 0.64056373
0.65502501 0.60394466 0.68066144
0.77585953 0.62355548 0.70992839
0.13794017 0.30690327 0.33731303
0.20774505 0.39423013 0.43063298
0.28936529 0.47238523 0.51649177
0.39575073 0.53114951 0.58564264
0.52138585 0.57326198 0.63885880
0.65035874 0.60305190 0.67938912
0.77168411 0.62297863 0.70902282
0.87437648 0.63550168 0.72954935
0.94745040 0.64308041 0.74275792
0.89029777 0.87146413 0.84683549
0.81813186 0.78852987 0.74981952
0.73355252 0.69384193 0.64191270
0.63946337 0.59202808 0.52999729
0.53876281 0.48788577 0.42136335
0.43604797 0.38671649 0.32449079
0.33610117 0.28878132 0.23400901
0.24216060 0.19836906 0.15344977
0.15746447 0.11976853 0.08634482
0.73685038 0.69748002 0.64599568
0.64305967 0.59584630 0.53410578
0.54255247 0.49161386 0.42500338
0.43979755 0.39040738 0.32796305
0.33969155 0.29227725 0.23718359
0.24547265 0.20151225 0.15619674
0.16037905 0.12240118 0.08853423
0.08764898 0.05923286 0.03772780
0.03052063 0.01629609 0.00730919
0.54633886 0.49537504 0.42873013
0.44355074 0.39410245 0.33144379
0.34328991 0.29578316 0.24037142
0.24879704 0.20467120 0.15896173
0.16331036 0.12505540 0.09074645
0.09006806 0.06122458 0.03925733
0.03230837 0.01746752 0.00802609
0.00000000 0.00443715 0.00672093
0.00367512 0.04279191 0.05389575
0.34689605 0.29929882 0.24357234
0.25213364 0.20784572 0.16174459
0.16625825 0.12773100 0.09298132
0.09250811 0.06324347 0.04081428
0.03412144 0.01867191 0.00877519
0.00000000 0.00357968 0.00548717
0.00319354 0.04091102 0.05173335
0.02411916 0.10243724 0.12001812
0.06060149 0.18063450 0.20368959
0.16922253 0.13042775 0.09523865
0.09496894 0.06528931 0.04239847
0.03595969 0.01990907 0.00955631
0.00000000 0.00276513 0.00429224
0.00273449 0.03906287 0.04960078
0.02306702 0.09983228 0.11719263
0.05899633 0.17754953 0.20041588
0.10943318 0.26469076 0.29261863
0.17328832 0.35373217 0.38714901
0.03782295 0.02117878 0.01036927
0.00000000 0.00199389 0.00313647
0.00229803 0.03724784 0.04749836
0.02203598 0.09725027 0.11438828
0.05741080 0.17447732 0.19715433
0.10733323 0.26140517 0.28914461
0.17071401 0.35050994 0.38370720
0.24646389 0.43426785 0.47419021
0.33668402 0.50422829 0.55315232
0.00188420 0.03546631 0.04542644
0.02102612 0.09469157 0.11160542
0.05584497 0.17141825 0.19390525
0.10525149 0.25812250 0.28567404
0.16815645 0.34728050 0.38025984
0.24347058 0.43136841 0.47101080
0.33259177 0.50212318 0.55064958
0.45178047 0.55198914 0.61153507
0.58029574 0.58819181 0.65875924
0.05429887 0.16837268 0.19066900
0.10318803 0.25484318 0.28220728
0.16561569 0.34404421 0.37680730
0.24049260 0.42845196 0.46781722
0.32852700 0.49999622 0.54812592
0.44716311 0.55041176 0.60954815
0.57552987 0.58707350 0.65724319
0.70264196 0.61244082 0.69300038
0.81751394 0.62897325 0.71860909
0.16309178 0.34080142 0.37334993
0.23752998 0.42551881 0.46460974
0.32449028 0.49784732 0.54558128
0.44255888 0.54881573 0.60754263
0.57076234 0.58593988 0.65571100
0.69811523 0.61167920 0.69187570
0.81363213 0.62849301 0.71782607
0.90632761 0.63884085 0.73535138
0.96521616 0.64518207 0.74624103
0.86443204 0.84152460 0.81156874
0.78719074 0.75356311 0.70958865
0.69864303 0.65561241 0.59934169
0.60169274 0.55230027 0.48771015
0.49948022 0.44920436 0.38389963
0.39743882 0.34876227 0.28904712
0.29940006 0.25318950 0.20193194
0.20860218 0.16677484 0.12608585
0.12828338 0.09380709 0.06504059
0.70206732 0.65933931 0.60346425
0.60537469 0.55614239 0.49176171
0.50326866 0.45293689 0.38749102
0.40114176 0.35239744 0.29242119
0.30289838 0.25656953 0.20495881
0.21177673 0.16974197 0.12863557
0.13101503 0.09620355 0.06698322
0.06385149 0.04024306 0.02353349
0.01352431 0.00614931 0.00181813
0.50705796 0.45666999 0.39108792
0.40484995 0.35603902 0.29580560
0.30640632 0.25996178 0.20800075
0.21496530 0.17272711 0.13120513
0.13376510 0.09862379 0.06895047
0.06604391 0.04194064 0.02476851
0.01503996 0.00696644 0.00219099
0.00000000 0.01576068 0.02171334
0.00997947 0.06412216 0.07798214
0.30992377 0.26336598 0.21105759
0.21816774 0.17573000 0.13379438
0.13653341 0.10106762 0.07094219
0.06825896 0.04366759 0.02603278
0.01658262 0.00781875 0.00259786
0.00000000 0.01448036 0.02009665
0.00926760 0.06192395 0.07553010
0.03625302 0.13069379 0.15046598
0.07837986 0.21326606 0.23825237
0.13931979 0.10353480 0.07295820
0.07049648 0.04542372 0.02732611
0.01815213 0.00870603 0.00303858
0.00000000 0.01323908 0.01851536
0.00857770 0.05975461 0.07310448
0.03498530 0.12787318 0.14744073
0.07657440 0.21007098 0.23487221
0.13225573 0.29882413 0.32874703
0.20094004 0.38660881 0.42241326
0.01974832 0.00962808 0.00351297
0.00000000 0.01203723 0.01696980
0.00790982 0.05761450 0.07070557
0.03373813 0.12507163 0.14443320
0.07478801 0.20688476 0.23150077
0.12997019 0.29553005 0.32525641
0.19819544 0.38348368 0.41904816
0.27837449 0.46322179 0.50622416
0.38058066 0.52478993 0.57787997
0.00726401 0.05550401 0.06833372
0.03251157 0.12228949 0.14144373
0.07302075 0.20370778 0.22813839
0.12770231 0.29223505 0.32176581
0.19546701 0.38034743 0.41567412
0.27522558 0.46052107 0.50321138
0.37623572 0.52290374 0.57558870
0.50027615 0.56727022 0.63105446
0.62945467 0.59891105 0.67354113
0.07127267 0.20054044 0.22478539
0.12545215 0.28893948 0.31827563
0.19275482 0.37720042 0.41229144
0.27209145 0.45779943 0.50018096
0.37191257 0.52099699 0.57327747
0.49555448 0.56587851 0.62925482
0.62473863 0.59794396 0.67218727
0.74847966 0.61965269 0.70386410
0.85579211 0.63346416 0.72607464
0.19005892 0.37404305 0.40890050
0.26897213 0.45505723 0.49713323
0.36761183 0.51906955 0.57094616
0.49084029 0.56446952 0.62743753
0.62001520 0.59696287 0.67081821
0.74415112 0.61900902 0.70287740
0.85226262 0.63306749 0.72540450
0.93336427 0.64159763 0.74018884
0.97647059 0.64705884 0.74901962
