140Lums_Major/140Lums Major.cube
# VEGAS Pro LUT
TITLE "140Lums Major"
LUT_3D_SIZE 33
1.00000000 1.00000000 1.00000000
0.99584436 0.99528599 0.99455589
0.99029237 0.98884857 0.98696047
0.98338944 0.98075992 0.97732127
0.97518098 0.97109240 0.96574587
0.96571231 0.95991838 0.95234179
0.95502877 0.94731015 0.93721658
0.94317579 0.93333995 0.92047775
0.93019867 0.91808015 0.90223283
0.91614288 0.90160304 0.88258940
0.90105373 0.88398093 0.86165494
0.88497663 0.86528611 0.83953696
0.86795688 0.84559089 0.81634313
0.85003990 0.82496768 0.79218084
0.83127111 0.80348861 0.76715773
0.81169575 0.78122616 0.74138129
0.79135931 0.75825250 0.71495903
0.77030706 0.73464006 0.68799853
0.74858451 0.71046102 0.66060734
0.72623688 0.68578780 0.63289291
0.70330966 0.66069269 0.60496283
0.67984813 0.63524795 0.57692468
0.65589774 0.60952592 0.54888588
0.63150382 0.58359891 0.52095413
0.60671169 0.55753922 0.49323681
0.58156681 0.53141916 0.46584150
0.55611449 0.50531107 0.43887579
0.53040630 0.47966227 0.41335267
0.50464648 0.45429432 0.38879836
0.47892433 0.42894918 0.36449581
0.45329040 0.40369391 0.34050024
0.42779529 0.37859547 0.31686682
0.40248957 0.35372093 0.29365072
0.99052083 0.98911506 0.98727673
0.98366684 0.98108590 0.97771084
0.97550559 0.97147524 0.96620476
0.96608245 0.96035534 0.95286608
0.95544279 0.94779855 0.93780226
0.94363201 0.93387723 0.92112088
0.93069547 0.91866356 0.90292948
0.91667861 0.90222996 0.88333559
0.90162665 0.88464868 0.86244673
0.88558507 0.86599207 0.84037042
0.86859918 0.84633237 0.81721425
0.85071445 0.82574195 0.79308569
0.83197612 0.80429316 0.76809233
0.81242967 0.78205818 0.74234170
0.79212040 0.75910944 0.71594131
0.77109373 0.73551923 0.68899870
0.74939501 0.71135974 0.66162139
0.72706962 0.68670344 0.63391697
0.70416290 0.66162258 0.60599291
0.68072021 0.63618940 0.57795686
0.65678698 0.61047632 0.54991621
0.63240856 0.58455557 0.52197856
0.60763031 0.55849946 0.49425146
0.58249760 0.53238034 0.46684241
0.55705583 0.50627053 0.43985900
0.53135401 0.48059511 0.41426009
0.50559384 0.45522758 0.38969758
0.47986940 0.42988044 0.36538479
0.45423129 0.40462065 0.34137696
0.42873019 0.37951526 0.31772920
0.40341663 0.35463130 0.29449677
0.37834120 0.33003575 0.27173483
0.35355455 0.30579561 0.24949853
0.97582847 0.97185600 0.96666121
0.96645093 0.96079034 0.95338804
0.95585525 0.94828516 0.93838578
0.94408673 0.93441272 0.92176199
0.93119085 0.91924530 0.90362424
0.91721284 0.90285528 0.88408005
0.90219820 0.88531494 0.86323690
0.88619220 0.86669660 0.84120238
0.86924028 0.84707260 0.81808400
0.85138780 0.82651514 0.79398936
0.83268011 0.80509663 0.76902592
0.81316257 0.78288931 0.74330121
0.79288059 0.75996554 0.71692282
0.77187949 0.73639762 0.68999827
0.75020468 0.71225780 0.66263503
0.72790152 0.68761849 0.63494074
0.70501536 0.66255194 0.60702288
0.68159163 0.63713050 0.57898903
0.65767562 0.61142641 0.55094665
0.63331276 0.58551198 0.52300328
0.60854846 0.55945963 0.49526653
0.58342797 0.53334153 0.46784389
0.55799675 0.50723004 0.44084290
0.53230172 0.48152789 0.41516778
0.50654119 0.45616090 0.39059713
0.48081455 0.43081179 0.36627418
0.45517239 0.40554762 0.34225413
0.42966536 0.38043538 0.31859219
0.40434399 0.35554206 0.29534349
0.37925890 0.33093470 0.27256325
0.35446072 0.30668032 0.25030664
0.33000001 0.28284591 0.22862884
0.30592740 0.25949851 0.20758505
0.95626611 0.94876987 0.93896711
0.94453996 0.93494642 0.92240107
0.93168473 0.91982543 0.90431708
0.91774577 0.90347910 0.88482273
0.90276843 0.88597983 0.86402547
0.88679814 0.86739981 0.84203285
0.86988020 0.84781152 0.81895250
0.85206002 0.82728714 0.79489183
0.83338296 0.80589902 0.76995844
0.81389445 0.78371942 0.74425983
0.79363978 0.76082075 0.71790361
0.77266431 0.73727524 0.69099718
0.75101346 0.71315521 0.66364825
0.72873265 0.68853295 0.63596421
0.70586711 0.66348088 0.60805267
0.68246239 0.63807118 0.58002114
0.65856367 0.61237621 0.55197722
0.63421649 0.58646828 0.52402830
0.60946608 0.56041968 0.49628204
0.58435792 0.53430271 0.46884593
0.55893731 0.50818974 0.44182754
0.53324944 0.48246062 0.41607574
0.50748861 0.45709422 0.39149702
0.48175982 0.43174329 0.36716399
0.45611367 0.40647480 0.34313181
0.43060076 0.38135576 0.31945571
0.40527165 0.35645321 0.29619083
0.38017699 0.33183414 0.27339238
0.35536736 0.30756560 0.25111553
0.33089334 0.28371453 0.22941546
0.30680555 0.26034802 0.20834737
0.28315458 0.23753305 0.18796644
0.25999102 0.21533661 0.16832784
0.93217713 0.92040384 0.90500802
0.91827726 0.90410137 0.88556367
0.90333730 0.88664317 0.86481243
0.88740271 0.86810172 0.84286189
0.87051886 0.84854919 0.81981963
0.85273105 0.82805794 0.79579312
0.83408475 0.80670029 0.77088994
0.81462526 0.78454858 0.74521756
0.79439795 0.76167506 0.71888363
0.77344823 0.73815209 0.69199556
0.75182146 0.71405190 0.66466099
0.72956300 0.68944687 0.63698739
0.70671821 0.66440928 0.60908234
0.68333244 0.63901144 0.58105332
0.65945113 0.61332572 0.55300790
0.63511962 0.58742434 0.52505362
0.61038327 0.56137961 0.49729797
0.58528745 0.53526390 0.46984854
0.55987751 0.50914949 0.44281286
0.53419715 0.48339325 0.41698393
0.50843608 0.45802757 0.39239722
0.48270521 0.43267488 0.36805418
0.45705512 0.40740216 0.34400997
0.43153641 0.38227645 0.32031977
0.40619966 0.35736474 0.29703879
0.38109547 0.33273408 0.27422220
0.35627446 0.30845141 0.25192520
0.33178720 0.28458384 0.23020293
0.30768430 0.26119831 0.20911062
0.28401637 0.23836184 0.18870342
0.26083398 0.21614146 0.16903652
0.23818773 0.19460419 0.15016513
0.21612823 0.17381702 0.13214441
0.90390486 0.88730508 0.86559772
0.88800603 0.86880219 0.84368944
0.87115628 0.84928560 0.82068545
0.85340095 0.82882762 0.79669321
0.83478540 0.80750054 0.77182037
0.81535506 0.78537679 0.74617445
0.79515517 0.76252854 0.71986288
0.77423126 0.73902816 0.69299334
0.75262856 0.71494794 0.66567326
0.73039252 0.69036019 0.63801026
0.70756847 0.66533720 0.61011177
0.68420184 0.63995135 0.58208543
0.66033798 0.61427492 0.55403870
0.63602221 0.58838022 0.52607918
0.61129993 0.56233948 0.49831432
0.58621657 0.53622508 0.47085172
0.56081736 0.51010936 0.44379893
0.53514481 0.48432580 0.41789240
0.50938356 0.45896095 0.39329776
0.48365071 0.43360656 0.36894479
0.45799676 0.40832973 0.34488860
0.43247232 0.38319743 0.32118440
0.40712798 0.35827667 0.29788738
0.38201433 0.33363447 0.27505276
0.35718200 0.30933782 0.25273564
0.33268157 0.28545377 0.23099126
0.30856362 0.26204932 0.20987478
0.28487879 0.23919147 0.18944140
0.26167765 0.21694724 0.16974631
0.23901078 0.19538365 0.15084466
0.21692879 0.17456770 0.13279167
0.19548230 0.15456642 0.11564250
0.17472188 0.13544680 0.09945233
0.87179250 0.85002071 0.82154989
0.85406971 0.82959610 0.79759216
0.83548498 0.80829972 0.77274978
0.81608379 0.78620398 0.74713039
0.79591143 0.76338106 0.72084141
0.77501333 0.73990339 0.69399047
0.75343478 0.71584326 0.66668510
0.73122126 0.69127291 0.63903278
0.70841807 0.66626465 0.61114109
0.68507057 0.64089090 0.58311749
0.66122419 0.61522388 0.55506963
0.63692427 0.58933586 0.52710497
0.61221611 0.56329924 0.49933106
0.58714521 0.53718632 0.47185546
0.56175685 0.51106936 0.44478565
0.53609240 0.48525828 0.41880110
0.51033115 0.45989433 0.39419866
0.48459631 0.43453839 0.36983579
0.45893857 0.40925750 0.34576771
0.43340844 0.38411868 0.32204959
0.40805659 0.35918894 0.29873663
0.38293356 0.33453530 0.27588397
0.35808998 0.31022477 0.25354686
0.33357644 0.28632435 0.23178042
0.30944356 0.26290107 0.21063988
0.28574190 0.24002193 0.19018039
0.26252204 0.21775395 0.17045715
0.23983462 0.19616413 0.15152535
0.21773024 0.17531949 0.13344015
0.19625945 0.15528704 0.11625674
0.17547290 0.13613380 0.10003033
0.15542117 0.11792678 0.08481607
0.13615485 0.10073298 0.07066916
0.83618343 0.80909783 0.77367812
0.81681150 0.78703016 0.74808544
0.79666668 0.76423275 0.72181922
0.77579445 0.74077791 0.69498706
0.75424016 0.71673787 0.66769642
0.73204923 0.69218504 0.64005500
0.70926690 0.66719162 0.61217016
0.68593866 0.64183003 0.58414954
0.66210979 0.61617249 0.55610067
0.63782573 0.59029132 0.52813107
0.61313182 0.56425893 0.50034821
0.58807343 0.53814751 0.47285974
0.56269598 0.51202941 0.44577309
0.53704000 0.48619071 0.41971007
0.51127869 0.46082771 0.39509985
0.48554203 0.43547028 0.37072721
0.45988053 0.41018546 0.34664729
0.43434483 0.38504022 0.32291532
0.40898553 0.36010161 0.29958647
0.38385320 0.33543664 0.27671593
0.35899845 0.31111228 0.25435886
0.33447185 0.28719559 0.23257045
0.31032404 0.26375356 0.21140589
0.28660563 0.24085322 0.19092037
0.26336715 0.21856156 0.17116907
0.24065925 0.19694561 0.15220717
0.21853252 0.17607236 0.13408984
0.19703755 0.15600885 0.11687230
0.17622492 0.13682207 0.10060969
0.15614524 0.11857906 0.08535722
0.13684914 0.10134681 0.07117006
0.11838716 0.08519233 0.05810341
0.10080993 0.07018264 0.04621244
0.79742098 0.76508355 0.72279620
0.77657473 0.74165159 0.69598293
0.75504470 0.71763182 0.66870731
0.73287636 0.69309658 0.64107686
0.71011502 0.66811812 0.61319911
0.68680602 0.64276874 0.58518159
0.66299480 0.61712080 0.55713183
0.63872665 0.59124660 0.52915740
0.61404705 0.56521845 0.50136578
0.58900130 0.53910869 0.47386456
0.56363475 0.51298952 0.44676125
0.53798753 0.48712304 0.42061928
0.51222634 0.46176112 0.39600137
0.48648784 0.43640229 0.37161902
0.46082270 0.41111362 0.34752735
0.43528146 0.38596207 0.32378161
0.40991476 0.36101466 0.30043694
0.38477316 0.33633843 0.27754855
0.35990733 0.31200036 0.25517163
0.33536777 0.28806749 0.23336132
0.31120515 0.26460680 0.21217284
0.28747001 0.24168533 0.19166136
0.26421300 0.21937010 0.17188206
0.24148467 0.19772810 0.15289013
0.21933566 0.17682634 0.13474077
0.19781655 0.15673186 0.11748913
0.17697793 0.13751164 0.10119042
0.15687039 0.11923271 0.08589981
0.13754456 0.10196208 0.07167248
0.11905099 0.08576676 0.05856363
0.10144033 0.07071377 0.04662843
0.08476313 0.05687012 0.03592207
0.06907001 0.04430282 0.02649972
0.75584835 0.71852505 0.66971773
0.73370266 0.69400752 0.64209843
0.71096236 0.66904402 0.61422783
0.68767273 0.64370704 0.58621353
0.66387916 0.61806881 0.55816311
0.63962704 0.59220171 0.53018397
0.61496174 0.56617790 0.50238371
0.58992863 0.54006982 0.47486991
0.56457311 0.51394975 0.44775006
0.53893507 0.48805526 0.42152873
0.51317400 0.46269450 0.39690322
0.48743376 0.43733439 0.37251121
0.46176499 0.41204193 0.34840786
0.43621832 0.38688415 0.32464844
0.41084430 0.36192805 0.30128804
0.38569355 0.33724067 0.27838188
0.36081666 0.31288898 0.25598514
0.33626419 0.28893998 0.23415302
0.31208679 0.26546076 0.21294068
0.28833506 0.24251828 0.19240332
0.26505953 0.22017954 0.17259611
0.24231088 0.19851159 0.15357424
0.22013967 0.17758141 0.13539290
0.19859648 0.15745604 0.11810726
0.17773192 0.13820247 0.10177252
0.15759660 0.11988772 0.08644384
0.13824110 0.10257881 0.07217642
0.11971603 0.08634275 0.05902544
0.10207198 0.07124655 0.04704608
0.08535954 0.05735722 0.03629354
0.06962933 0.04474177 0.02682298
0.05493192 0.03346722 0.01868959
0.04131793 0.02360058 0.01194856
0.71180898 0.66996950 0.61525637
0.68853873 0.64464498 0.58724546
0.66476291 0.61901653 0.55919445
0.64052683 0.59315652 0.53121078
0.61587596 0.56713724 0.50340205
0.59085560 0.54103100 0.47587579
0.56551111 0.51491010 0.44873956
0.53988254 0.48898742 0.42243841
0.51412165 0.46362790 0.39780536
0.48837975 0.43826658 0.37340379
0.46270749 0.41297045 0.34928888
0.43715543 0.38780653 0.32551578
0.41177416 0.36284181 0.30213973
0.38661429 0.33814335 0.27921590
0.36172640 0.31377813 0.25679943
0.33716112 0.28981316 0.23494557
0.31296903 0.26631543 0.21370944
0.28920072 0.24335203 0.19314627
0.26590681 0.22098990 0.17331123
0.24313787 0.19929607 0.15425949
0.22094451 0.17833757 0.13604625
0.19937731 0.15818140 0.11872668
0.17848690 0.13889457 0.10235597
0.15832385 0.12054410 0.08698931
0.13893877 0.10319700 0.07268187
0.12038225 0.08692028 0.05948884
0.10270489 0.07178095 0.04746540
0.08595729 0.05784604 0.03666674
0.07019004 0.04518254 0.02714804
0.05545374 0.03385747 0.01896448
0.04179899 0.02393785 0.01217125
0.02927639 0.01549068 0.00682353
0.01793653 0.00858299 0.00297650
0.66564602 0.61996394 0.56022590
0.64142609 0.59411120 0.53223783
0.61678970 0.56809646 0.50442076
0.59178209 0.54199213 0.47688222
0.56644875 0.51587045 0.44972971
0.54082996 0.48991948 0.42334837
0.51506937 0.46456131 0.39870784
0.48932585 0.43919888 0.37429675
0.46365014 0.41389915 0.35017031
0.43809274 0.38872918 0.32638368
0.41270429 0.36375594 0.30299205
0.38753539 0.33904651 0.28005058
0.36263660 0.31466782 0.25761449
0.33805856 0.29068694 0.23573895
0.31385183 0.26717085 0.21447912
0.29006705 0.24418658 0.19389021
0.26675478 0.22180115 0.17402741
0.24396564 0.20008156 0.15494588
0.22175020 0.17909481 0.13670081
0.20015907 0.15890794 0.11934738
0.17924286 0.13958794 0.10294078
0.15905216 0.12120184 0.08753620
0.13963756 0.10381663 0.07318882
0.12104966 0.08749934 0.05995381
0.10333907 0.07231699 0.04788637
0.08655636 0.05833657 0.03704167
0.07075215 0.04562511 0.02747491
0.05597703 0.03424962 0.01924125
0.04228159 0.02427711 0.01239589
0.02971644 0.01577458 0.00699402
0.01833217 0.00880906 0.00309080
0.00817938 0.00344756 0.00074143
0.00000000 0.00035995 0.00058594
0.61770290 0.56905556 0.50543988
0.59270817 0.54295325 0.47788915
0.56738597 0.51683092 0.45072055
0.54177737 0.49085143 0.42425853
0.51601708 0.46549472 0.39961061
0.49027205 0.44013125 0.37519014
0.46459293 0.41482803 0.35105222
0.43903029 0.38965207 0.32725212
0.41363475 0.36467043 0.30384496
0.38845685 0.33995008 0.28088596
0.36354724 0.31555805 0.25843030
0.33895651 0.29156134 0.23653316
0.31473523 0.26802698 0.21524972
0.29093403 0.24502195 0.19463514
0.26760346 0.22261330 0.17474464
0.24479418 0.20086803 0.15563339
0.22255674 0.17985314 0.13735656
0.20094176 0.15963565 0.11996936
0.17999981 0.14028257 0.10352696
0.15978153 0.12186092 0.08808453
0.14033748 0.10443771 0.07369728
0.12171827 0.08807995 0.06042037
0.10397450 0.07285465 0.04830899
0.08715676 0.05882883 0.03741834
0.07131565 0.04606950 0.02780358
0.05650178 0.03464367 0.01951990
0.04276572 0.02461835 0.01262249
0.03015809 0.01606056 0.00716653
0.01872948 0.00903731 0.00320720
0.00853048 0.00361561 0.00079969
0.00000000 0.00019980 0.00032652
0.00000000 0.00552649 0.00825813
0.00000000 0.01279746 0.01794918
0.56832284 0.51779145 0.45171204
0.54272467 0.49178329 0.42516893
0.51696479 0.46642810 0.40051371
0.49121833 0.44106367 0.37608388
0.46553591 0.41575706 0.35193461
0.43996808 0.39057526 0.32812110
0.41456547 0.36558527 0.30469850
0.38937870 0.34085414 0.28172204
0.36445832 0.31644884 0.25924689
0.33985496 0.29243639 0.23732820
0.31561917 0.26888382 0.21602120
0.29180163 0.24585815 0.19538105
0.26845285 0.22342636 0.17546293
0.24562348 0.20165549 0.15632203
0.22336411 0.18061253 0.13801353
0.20172533 0.16036452 0.12059262
0.18075775 0.14097847 0.10411448
0.16051194 0.12252136 0.08863429
0.14103851 0.10506023 0.07420724
0.12238806 0.08866209 0.06088851
0.10461118 0.07339394 0.04873328
0.08775848 0.05932280 0.03779673
0.07188055 0.04651569 0.02813405
0.05702798 0.03503961 0.01980043
0.04325138 0.02496159 0.01285104
0.03060134 0.01634862 0.00734107
0.01912845 0.00926773 0.00332571
0.00888333 0.00378592 0.00086013
0.00000000 0.00004243 0.00006962
0.00000000 0.00529535 0.00793453
0.00000000 0.01249688 0.01756269
0.00000000 0.02152946 0.02885018
0.00118177 0.03227552 0.04169305
0.51791257 0.46736148 0.40141711
0.49216470 0.44199622 0.37697798
0.46647903 0.41668627 0.35281742
0.44090608 0.39149868 0.32899058
0.41549650 0.36650047 0.30555263
0.39030087 0.34175861 0.28255877
0.36536980 0.31734014 0.26006421
0.34075388 0.29331204 0.23812407
0.31650370 0.26974139 0.21679360
0.29266986 0.24669513 0.19612792
0.26930293 0.22424032 0.17618227
0.24645358 0.20244394 0.15701181
0.22417234 0.18137302 0.13867170
0.20250984 0.16109458 0.12121716
0.18151665 0.14167562 0.10470336
0.16124339 0.12318315 0.08918548
0.14174065 0.10568419 0.07471870
0.12305903 0.08924575 0.06135822
0.10524911 0.07393485 0.04915920
0.08836152 0.05981848 0.03817685
0.07244683 0.04696368 0.02846633
0.05755564 0.03543745 0.02008283
0.04373856 0.02530680 0.01308154
0.03104618 0.01663875 0.00751764
0.01952909 0.00950031 0.00344631
0.00923790 0.00395848 0.00092274
0.00022319 0.00008029 0.00000210
0.00000000 0.00506686 0.00761330
0.00000000 0.01219878 0.01717844
0.00000000 0.02116608 0.02840672
0.00109232 0.03185119 0.04119422
0.00402791 0.04413655 0.05543699
0.00799959 0.05790460 0.07103111
0.46742228 0.41761565 0.35370070
0.44184431 0.39242238 0.32986060
0.41642782 0.36741599 0.30640736
0.39122343 0.34266353 0.28339621
0.36628172 0.31823197 0.26088229
0.34165332 0.29418832 0.23892078
0.31738877 0.27059966 0.21756688
0.29353872 0.24753292 0.19687578
0.27015373 0.22505516 0.17690267
0.24728443 0.20323336 0.15770270
0.22498140 0.18213457 0.13933107
0.20329523 0.16182579 0.12184297
0.18227653 0.14237402 0.10529358
0.16197589 0.12384628 0.08973809
0.14244390 0.10630959 0.07523166
0.12373117 0.08983094 0.06182950
0.10588830 0.07447737 0.04958678
0.08896587 0.06031587 0.03855868
0.07301449 0.04741347 0.02880039
0.05808476 0.03583718 0.02036710
0.04422726 0.02565400 0.01331398
0.03149261 0.01693095 0.00769622
0.01993139 0.00973505 0.00356900
0.00959419 0.00413330 0.00098751
0.00053163 0.00019271 0.00000693
0.00000000 0.00484100 0.00729447
0.00000000 0.01190316 0.01679644
0.00000000 0.02080502 0.02796538
0.00100431 0.03142902 0.04069735
0.00390145 0.04365759 0.05488843
0.00783532 0.05737317 0.07043467
0.01278890 0.07245822 0.08723214
0.01874517 0.08879516 0.10517691
0.41735944 0.36833188 0.30726272
0.39214635 0.34356886 0.28423429
0.36719409 0.31912431 0.26170111
0.34255323 0.29506522 0.23971830
0.31827441 0.27145863 0.21834107
0.29440823 0.24837150 0.19762461
0.27100524 0.22587088 0.17762409
0.24811606 0.20402378 0.15839471
0.22579129 0.18289720 0.13999163
0.20408154 0.16255815 0.12247005
0.18303737 0.14307368 0.10588515
0.16270941 0.12451075 0.09029211
0.14314826 0.10693641 0.07574611
0.12440450 0.09041765 0.06230235
0.10652872 0.07502151 0.05001599
0.08957154 0.06081497 0.03894224
0.07358354 0.04786506 0.02913626
0.05861532 0.03623879 0.02065324
0.04471749 0.02600317 0.01354837
0.03194062 0.01722522 0.00787682
0.02033534 0.00997194 0.00369379
0.00995222 0.00431036 0.00105446
0.00084187 0.00030748 0.00001400
0.00000000 0.00461780 0.00697804
0.00000000 0.01161004 0.01641670
0.00000000 0.02044630 0.02752615
0.00091771 0.03100902 0.04020246
0.00377639 0.04318064 0.05434170
0.00767242 0.05684360 0.06983993
0.01258879 0.07188035 0.08659321
0.01850848 0.08817331 0.10449761
0.02541446 0.10560495 0.12344918
0.03328972 0.12405767 0.14334401
0.36810684 0.32001719 0.26252067
0.34345365 0.29594275 0.24051663
0.31916061 0.27231830 0.21911615
0.29527834 0.24921088 0.19837441
0.27185741 0.22668749 0.17834657
0.24894844 0.20481516 0.15908784
0.22660202 0.18366089 0.14065339
0.20486873 0.16329169 0.12309840
0.18379919 0.14377458 0.10647806
0.16344400 0.12517656 0.09084755
0.14385372 0.10756467 0.07626206
0.12507901 0.09100589 0.06277677
0.10717040 0.07556725 0.05044685
0.09017852 0.06131576 0.03932751
0.07415397 0.04831843 0.02947391
0.05914734 0.03664228 0.02094124
0.04520923 0.02635431 0.01378469
0.03239023 0.01752155 0.00805944
0.02074094 0.01021099 0.00382067
0.01031197 0.00448966 0.00112357
0.00115389 0.00042457 0.00002331
0.00000000 0.00439725 0.00666401
0.00000000 0.01131941 0.01603922
0.00000000 0.02008991 0.02708904
0.00083255 0.03059120 0.03970956
0.00365274 0.04270571 0.05379682
0.00751091 0.05631589 0.06924689
0.01239004 0.07130418 0.08595584
0.01827312 0.08755302 0.10381973
0.02514312 0.10494483 0.12273462
0.03298302 0.12336209 0.14259659
0.04177581 0.14268720 0.16330168
0.05150446 0.16280262 0.18474597
0.32004738 0.27317867 0.21989213
0.29614908 0.25005105 0.19912517
0.27271029 0.22750498 0.17907010
0.24978159 0.20560752 0.15978210
0.22741358 0.18442564 0.14131634
0.20565684 0.16402636 0.12372801
0.18456198 0.14447673 0.10707231
0.16417961 0.12584372 0.09140441
0.14456031 0.10819434 0.07677949
0.12575467 0.09159563 0.06325275
0.10781331 0.07611460 0.05087935
0.09078681 0.06181825 0.03971449
0.07472578 0.04877360 0.02981335
0.05968080 0.03704765 0.02123111
0.04570248 0.02670743 0.01402296
0.03284141 0.01781994 0.00824407
0.02114820 0.01045220 0.00394963
0.01067343 0.00467121 0.00119484
0.00146771 0.00054400 0.00003486
0.00000000 0.00417936 0.00635238
0.00000000 0.01103128 0.01566400
0.00000000 0.01973586 0.02665406
0.00074881 0.03017556 0.03921863
0.00353049 0.04223281 0.05325377
0.00735077 0.05579004 0.06865555
0.01219265 0.07072972 0.08532003
0.01803909 0.08693426 0.10314327
0.02487309 0.10428611 0.12202134
0.03267761 0.12266772 0.14185031
0.04143564 0.14196151 0.16252622
0.05113017 0.16204995 0.18394516
0.06174416 0.18281545 0.20600317
0.07326061 0.20414045 0.22859634
0.27356386 0.22832336 0.17979465
0.25061551 0.20640084 0.16047744
0.22822596 0.18519145 0.14198047
0.20644584 0.16476220 0.12435889
0.18532574 0.14518011 0.10766790
0.16491625 0.12651218 0.09196268
0.14526798 0.10882545 0.07729842
0.12643151 0.09218690 0.06373029
0.10845746 0.07666356 0.05131349
0.09139641 0.06232244 0.04010319
0.07529896 0.04923055 0.03015458
0.06021570 0.03745490 0.02152284
0.04619725 0.02706251 0.01426315
0.03329418 0.01812039 0.00843071
0.02155711 0.01069555 0.00408068
0.01103662 0.00485500 0.00126826
0.00178331 0.00066576 0.00004863
0.00000000 0.00396414 0.00604317
0.00000000 0.01074565 0.01529106
0.00000000 0.01938416 0.02622121
0.00066651 0.02976211 0.03872970
0.00340965 0.04176193 0.05271258
0.00719202 0.05526607 0.06806592
0.01199662 0.07015697 0.08468579
0.01780641 0.08631706 0.10246824
0.02460437 0.10362878 0.12130935
0.03237349 0.12197459 0.14110516
0.04109674 0.14123692 0.16175176
0.05075712 0.16129819 0.18314521
0.06133759 0.18204087 0.20518157
0.07282114 0.20334737 0.22775689
0.08519074 0.22510016 0.25076726
0.09842939 0.24718165 0.27410871
0.22903916 0.18595831 0.14264579
0.20723572 0.16549918 0.12499102
0.18609045 0.14588474 0.10826482
0.16565393 0.12718199 0.09252236
0.14597675 0.10945797 0.07781882
0.12710953 0.09277967 0.06420939
0.10910285 0.07721411 0.05174925
0.09200731 0.06282832 0.04049359
0.07587351 0.04968928 0.03049758
0.06075205 0.03786402 0.02181642
0.04669353 0.02741955 0.01450528
0.03374853 0.01842289 0.00861935
0.02196766 0.01094104 0.00421381
0.01140152 0.00504102 0.00134385
0.00210069 0.00078985 0.00006464
0.00000000 0.00375159 0.00573638
0.00000000 0.01046254 0.01492039
0.00000000 0.01903482 0.02579050
0.00058563 0.02935086 0.03824276
0.00329021 0.04129309 0.05217324
0.00703466 0.05474397 0.06747801
0.01180195 0.06958593 0.08405312
0.01757505 0.08570141 0.10179465
0.02433696 0.10297286 0.12059864
0.03207066 0.12128270 0.14036117
0.04075911 0.14051339 0.16097832
0.05038531 0.16054736 0.18234614
0.06093223 0.18126704 0.20436068
0.07238286 0.20255490 0.22691801
0.08472017 0.22429335 0.24991421
0.09792715 0.24636483 0.27324533
0.11198677 0.26865181 0.29680744
0.12688202 0.29103670 0.32049659
0.18685612 0.14659059 0.10886307
0.16639262 0.12785313 0.09308344
0.14668661 0.11009190 0.07834071
0.12778869 0.09337395 0.06469005
0.10974947 0.07776627 0.05218665
0.09261951 0.06333588 0.04088570
0.07644944 0.05014979 0.03084237
0.06128984 0.03827501 0.02211186
0.04719131 0.02777855 0.01474934
0.03420445 0.01872744 0.00881000
0.02237986 0.01118868 0.00434902
0.01176813 0.00522928 0.00142158
0.00241986 0.00091625 0.00008288
0.00000000 0.00354172 0.00543201
0.00000000 0.01018196 0.01455201
0.00000000 0.01868783 0.02536193
0.00050618 0.02894180 0.03775783
0.00317218 0.04082630 0.05163576
0.00687868 0.05422376 0.06689181
0.01160864 0.06901663 0.08342203
0.01734504 0.08508734 0.10112248
0.02407088 0.10231834 0.11988924
0.03176912 0.12059207 0.13961835
0.04042275 0.13979095 0.16020590
0.05001475 0.15979744 0.18154792
0.06052811 0.18049400 0.20354052
0.07194579 0.20176302 0.22607973
0.08425078 0.22348697 0.24906163
0.09742606 0.24554831 0.27238226
0.11145462 0.26782942 0.29593772
0.12631942 0.29021281 0.31962404
0.14200346 0.31258085 0.34333733
