Sherglun/Sherglun.cube
# VEGAS Pro LUT
TITLE "Sherglun"
LUT_3D_SIZE 9
0.00000000 0.00000000 0.00000000
0.00000000 0.00000000 0.12292953
0.00000000 0.00000000 0.35826853
0.00000000 0.00000000 0.63957721
0.00000000 0.00000000 0.90041584
0.10077929 0.00000000 1.00000000
0.32948235 0.00000000 1.00000000
0.57753140 0.00000000 1.00000000
0.81684655 0.00000000 1.00000000
0.00000000 0.00000000 0.34838927
0.00000000 0.00000000 0.62918395
0.00000000 0.00000000 0.89195281
0.09309801 0.00000000 1.00000000
0.32055381 0.00000000 1.00000000
0.56838864 0.00000000 1.00000000
0.80852264 0.00000000 1.00000000
1.00000000 0.00000000 0.98704803
1.00000000 0.00000000 0.78009927
0.00000000 0.00000000 0.88337541
0.08548231 0.00000000 1.00000000
0.31165287 0.00000000 1.00000000
0.55923551 0.00000000 1.00000000
0.80015033 0.00000000 1.00000000
1.00000000 0.00000000 0.99372369
1.00000000 0.00000000 0.78842711
1.00000000 0.00000000 0.55101997
1.00000000 0.00000000 0.30807832
0.30278090 0.00000000 1.00000000
0.55007327 0.00000000 1.00000000
0.79173094 0.00000000 1.00000000
0.99967396 0.00000000 1.00000000
1.00000000 0.00000000 0.79671144
1.00000000 0.00000000 0.56001484
1.00000000 0.00000000 0.31680590
1.00000000 0.00000000 0.09366062
1.00000000 0.09477589 0.00000000
0.78326595 0.00000000 1.00000000
0.99294680 0.00000000 1.00000000
1.00000000 0.00000000 0.80495107
1.00000000 0.00000000 0.56900084
1.00000000 0.00000000 0.32556063
1.00000000 0.00000000 0.10120635
1.00000000 0.08754563 0.00000000
1.00000000 0.30137452 0.00000000
1.00000000 0.53549534 0.00000000
1.00000000 0.00000000 0.81314456
1.00000000 0.00000000 0.57797670
1.00000000 0.00000000 0.33434120
1.00000000 0.00000000 0.10881389
1.00000000 0.08037516 0.00000000
1.00000000 0.29300219 0.00000000
1.00000000 0.52679950 0.00000000
1.00000000 0.75789160 0.00000000
1.00000000 0.96240300 0.00000000
1.00000000 0.00000000 0.34314626
1.00000000 0.00000000 0.11648190
1.00000000 0.07326564 0.00000000
1.00000000 0.28465849 0.00000000
1.00000000 0.51809996 0.00000000
1.00000000 0.74971461 0.00000000
1.00000000 0.95562696 0.00000000
0.83065200 1.00000000 0.00000000
0.55300468 1.00000000 0.00000000
1.00000000 0.06621829 0.00000000
1.00000000 0.27634466 0.00000000
1.00000000 0.50939798 0.00000000
1.00000000 0.74150288 0.00000000
1.00000000 0.94878381 0.00000000
0.84002084 1.00000000 0.00000000
0.56362200 1.00000000 0.00000000
0.28449509 1.00000000 0.00000000
0.06743974 1.00000000 0.00000000
1.00000000 0.50069475 0.00000000
1.00000000 0.73325753 0.00000000
1.00000000 0.94187474 0.00000000
0.84929830 1.00000000 0.00000000
0.57423562 1.00000000 0.00000000
0.29406098 1.00000000 0.00000000
0.07357395 1.00000000 0.00000000
0.02675098 1.00000000 0.07430550
0.23150826 1.00000000 0.32029140
0.00000000 0.00000000 0.02938207
0.00000000 0.00000000 0.20300674
0.00000000 0.00000000 0.46370935
0.00000000 0.00000000 0.74505007
0.00000000 0.00000000 0.98058915
0.18390810 0.00000000 1.00000000
0.42329928 0.00000000 1.00000000
0.67133045 0.00000000 1.00000000
0.89992166 0.00000000 1.00000000
0.00000000 0.00000000 0.45334581
0.00000000 0.00000000 0.73510444
0.00000000 0.00000000 0.97350568
0.17562944 0.00000000 1.00000000
0.41416723 0.00000000 1.00000000
0.66237807 0.00000000 1.00000000
0.89218199 0.00000000 1.00000000
1.00000000 0.00000000 0.91350806
1.00000000 0.00000000 0.69155455
0.00000000 0.00000000 0.96627361
0.16740185 0.00000000 1.00000000
0.40504828 0.00000000 1.00000000
0.65340072 0.00000000 1.00000000
0.88437939 0.00000000 1.00000000
1.00000000 0.00000000 0.92092896
1.00000000 0.00000000 0.70025486
1.00000000 0.00000000 0.45760295
1.00000000 0.00000000 0.21954906
0.39594379 0.00000000 1.00000000
0.64439988 0.00000000 1.00000000
0.87651521 0.00000000 1.00000000
1.00000000 0.00000000 0.92828411
1.00000000 0.00000000 0.70892549
1.00000000 0.00000000 0.46661121
1.00000000 0.00000000 0.22791728
1.00000000 0.00000000 0.01941963
1.00000000 0.17293915 0.00000000
0.86859095 0.00000000 1.00000000
1.00000000 0.00000000 0.93557227
1.00000000 0.00000000 0.71756494
1.00000000 0.00000000 0.47562435
1.00000000 0.00000000 0.23632638
1.00000000 0.00000000 0.02624696
1.00000000 0.16515937 0.00000000
1.00000000 0.38954112 0.00000000
1.00000000 0.62511176 0.00000000
1.00000000 0.00000000 0.72617209
1.00000000 0.00000000 0.48464108
1.00000000 0.00000000 0.24477503
1.00000000 0.00000000 0.03314980
1.00000000 0.15742706 0.00000000
1.00000000 0.38094184 0.00000000
1.00000000 0.61652386 0.00000000
1.00000000 0.84029770 0.00000000
0.96639705 1.00000000 0.00000000
1.00000000 0.00000000 0.25326189
1.00000000 0.00000000 0.04012684
1.00000000 0.14974339 0.00000000
1.00000000 0.37235889 0.00000000
1.00000000 0.60791999 0.00000000
1.00000000 0.83255124 0.00000000
0.97394204 1.00000000 0.00000000
0.72895783 1.00000000 0.00000000
0.44353607 1.00000000 0.00000000
1.00000000 0.14210956 0.00000000
1.00000000 0.36379346 0.00000000
1.00000000 0.59930134 0.00000000
1.00000000 0.82475770 0.00000000
0.98134458 1.00000000 0.00000000
0.73908389 1.00000000 0.00000000
0.45400169 1.00000000 0.00000000
0.19089763 1.00000000 0.00000000
0.01457137 1.00000000 0.00000000
1.00000000 0.59066904 0.00000000
1.00000000 0.81691825 0.00000000
0.98860151 1.00000000 0.00000000
0.74915200 1.00000000 0.00000000
0.46449703 1.00000000 0.00000000
0.19943629 1.00000000 0.00000000
0.01876944 1.00000000 0.00000000
0.08505152 1.00000000 0.15817249
0.34335029 1.00000000 0.42936859
0.00000000 0.00000000 0.08108063
0.00000000 0.00000000 0.29574227
0.00000000 0.00000000 0.57215029
0.00000000 0.00000000 0.84386486
0.05239116 0.00000000 1.00000000
0.27237478 0.00000000 1.00000000
0.51837224 0.00000000 1.00000000
0.76230353 0.00000000 1.00000000
0.97608894 0.00000000 1.00000000
0.00000000 0.00000000 0.56165773
0.00000000 0.00000000 0.83472216
0.04515782 0.00000000 1.00000000
0.26364890 0.00000000 1.00000000
0.50918680 0.00000000 1.00000000
0.75369167 0.00000000 1.00000000
0.96908361 0.00000000 1.00000000
1.00000000 0.00000000 0.83305204
1.00000000 0.00000000 0.59995711
0.03799909 0.00000000 1.00000000
0.25495961 0.00000000 1.00000000
0.50000000 0.00000000 1.00000000
0.74504042 0.00000000 1.00000000
0.96200091 0.00000000 1.00000000
1.00000000 0.00000000 0.84107608
1.00000000 0.00000000 0.60888779
1.00000000 0.00000000 0.36485431
1.00000000 0.00000000 0.13555147
0.49081320 0.00000000 1.00000000
0.73635113 0.00000000 1.00000000
0.95484221 0.00000000 1.00000000
1.00000000 0.00000000 0.84904808
1.00000000 0.00000000 0.61780244
1.00000000 0.00000000 0.37373385
1.00000000 0.00000000 0.14341822
1.00000000 0.04919124 0.00000000
1.00000000 0.25607193 0.00000000
0.94760883 0.00000000 1.00000000
1.00000000 0.00000000 0.85696679
1.00000000 0.00000000 0.62669975
1.00000000 0.00000000 0.38263202
1.00000000 0.00000000 0.15133955
1.00000000 0.04236776 0.00000000
1.00000000 0.24787033 0.00000000
1.00000000 0.47933424 0.00000000
1.00000000 0.71288401 0.00000000
1.00000000 0.00000000 0.63557833
1.00000000 0.00000000 0.39154747
1.00000000 0.00000000 0.15931416
1.00000000 0.03561172 0.00000000
1.00000000 0.23970386 0.00000000
1.00000000 0.47063568 0.00000000
1.00000000 0.70453173 0.00000000
1.00000000 0.91751653 0.00000000
0.88059938 1.00000000 0.00000000
1.00000000 0.00000000 0.16734068
1.00000000 0.02892433 0.00000000
1.00000000 0.23157372 0.00000000
1.00000000 0.46194115 0.00000000
1.00000000 0.69615120 0.00000000
1.00000000 0.91032833 0.00000000
0.88943046 1.00000000 0.00000000
0.62138540 1.00000000 0.00000000
0.33760893 1.00000000 0.00000000
1.00000000 0.22348109 0.00000000
1.00000000 0.45325181 0.00000000
1.00000000 0.68774348 0.00000000
1.00000000 0.90308064 0.00000000
0.89815265 1.00000000 0.00000000
0.63192207 1.00000000 0.00000000
0.34757629 1.00000000 0.00000000
0.10991484 1.00000000 0.00000000
0.00860880 1.00000000 0.03690118
1.00000000 0.67930990 0.00000000
1.00000000 0.89577478 0.00000000
0.90676254 1.00000000 0.00000000
0.64243430 1.00000000 0.00000000
0.35760680 1.00000000 0.00000000
0.11707976 1.00000000 0.00000000
0.00632728 1.00000000 0.03061802
0.16907160 1.00000000 0.25516436
0.46376151 1.00000000 0.54021519
0.00000000 0.00000000 0.15141329
0.00000000 0.00000000 0.39745370
0.00000000 0.00000000 0.67990893
0.00000000 0.00000000 0.93233913
0.13140903 0.00000000 1.00000000
0.36462304 0.00000000 1.00000000
0.61314481 0.00000000 1.00000000
0.84889442 0.00000000 1.00000000
1.00000000 0.00000000 0.95316881
0.00000000 0.00000000 0.66964275
0.00000000 0.00000000 0.92435473
0.12348478 0.00000000 1.00000000
0.35560009 0.00000000 1.00000000
0.60405618 0.00000000 1.00000000
0.84077322 0.00000000 1.00000000
1.00000000 0.00000000 0.96021521
1.00000000 0.00000000 0.74715298
1.00000000 0.00000000 0.50677991
0.11562064 0.00000000 1.00000000
0.34659925 0.00000000 1.00000000
0.59495175 0.00000000 1.00000000
0.83259815 0.00000000 1.00000000
1.00000000 0.00000000 0.96718866
1.00000000 0.00000000 0.75563800
1.00000000 0.00000000 0.51579881
1.00000000 0.00000000 0.27424702
1.00000000 0.00000000 0.05755851
0.58583277 0.00000000 1.00000000
0.82437056 0.00000000 1.00000000
1.00000000 0.00000000 0.97408783
1.00000000 0.00000000 0.76408476
1.00000000 0.00000000 0.52481538
1.00000000 0.00000000 0.28285575
1.00000000 0.00000000 0.06478166
1.00000000 0.12359073 0.00000000
1.00000000 0.34285098 0.00000000
1.00000000 0.00000000 0.98091143
1.00000000 0.00000000 0.77249187
1.00000000 0.00000000 0.53382838
1.00000000 0.00000000 0.29149678
1.00000000 0.00000000 0.07207311
1.00000000 0.11613820 0.00000000
1.00000000 0.33435524 0.00000000
1.00000000 0.56943053 0.00000000
1.00000000 0.79748875 0.00000000
1.00000000 0.00000000 0.54283637
1.00000000 0.00000000 0.30016884
1.00000000 0.00000000 0.07943153
1.00000000 0.10874080 0.00000000
1.00000000 0.32588229 0.00000000
1.00000000 0.56076044 0.00000000
1.00000000 0.78949982 0.00000000
1.00000000 0.98822486 0.00000000
0.78344160 1.00000000 0.00000000
1.00000000 0.00000000 0.08685561
1.00000000 0.10139972 0.00000000
1.00000000 0.31743336 0.00000000
1.00000000 0.55208200 0.00000000
1.00000000 0.78147024 0.00000000
1.00000000 0.98172253 0.00000000
0.79321235 1.00000000 0.00000000
0.51152611 1.00000000 0.00000000
0.23881476 1.00000000 0.00000000
1.00000000 0.30900961 0.00000000
1.00000000 0.54339647 0.00000000
1.00000000 0.77340120 0.00000000
1.00000000 0.97514844 0.00000000
0.80290753 1.00000000 0.00000000
0.52212691 1.00000000 0.00000000
0.24793726 1.00000000 0.00000000
0.04513821 1.00000000 0.00000000
0.05074629 1.00000000 0.11212132
1.00000000 0.76529396 0.00000000
1.00000000 0.96850383 0.00000000
0.81252390 1.00000000 0.00000000
0.53273666 1.00000000 0.00000000
0.25715640 1.00000000 0.00000000
0.05058282 1.00000000 0.00000000
0.04530507 1.00000000 0.10412281
0.27227229 1.00000000 0.36095163
0.58620292 1.00000000 0.64850175
0.00000000 0.00000000 0.23669766
0.00000000 0.00000000 0.50445867
0.00000000 0.00000000 0.78330290
0.00705317 0.00000000 1.00000000
0.21673405 0.00000000 1.00000000
0.45909652 0.00000000 1.00000000
0.70606071 0.00000000 1.00000000
0.92954677 0.00000000 1.00000000
1.00000000 0.00000000 0.87616920
0.00000000 0.00000000 0.77361840
0.00032603 0.00000000 1.00000000
0.20826904 0.00000000 1.00000000
0.44992670 0.00000000 1.00000000
0.69721913 0.00000000 1.00000000
0.92206639 0.00000000 1.00000000
1.00000000 0.00000000 0.88389355
1.00000000 0.00000000 0.65728378
1.00000000 0.00000000 0.41349587
0.19984968 0.00000000 1.00000000
0.44076452 0.00000000 1.00000000
0.68834716 0.00000000 1.00000000
0.91451770 0.00000000 1.00000000
1.00000000 0.00000000 0.89155865
1.00000000 0.00000000 0.66608769
1.00000000 0.00000000 0.42246085
1.00000000 0.00000000 0.18725404
1.00000000 0.01280831 0.00000000
0.67944616 0.00000000 1.00000000
0.90690202 0.00000000 1.00000000
1.00000000 0.00000000 0.89916319
1.00000000 0.00000000 0.67486703
1.00000000 0.00000000 0.43143728
1.00000000 0.00000000 0.19544981
1.00000000 0.00636719 0.00000000
1.00000000 0.20378388 0.00000000
1.00000000 0.43195298 0.00000000
1.00000000 0.00000000 0.90670586
1.00000000 0.00000000 0.68362045
1.00000000 0.00000000 0.44042376
1.00000000 0.00000000 0.20369162
1.00000000 0.00000000 0.00000000
1.00000000 0.19583000 0.00000000
1.00000000 0.42329076 0.00000000
1.00000000 0.65850681 0.00000000
1.00000000 0.87760270 0.00000000
1.00000000 0.00000000 0.44941899
1.00000000 0.00000000 0.21197815
1.00000000 0.00000000 0.00660012
1.00000000 0.18791893 0.00000000
1.00000000 0.41463903 0.00000000
1.00000000 0.64999282 0.00000000
1.00000000 0.87010473 0.00000000
0.93559730 1.00000000 0.00000000
0.67851532 1.00000000 0.00000000
1.00000000 0.00000000 0.01327961
1.00000000 0.18005185 0.00000000
1.00000000 0.40599900 0.00000000
1.00000000 0.64145815 0.00000000
1.00000000 0.86255383 0.00000000
0.94366813 1.00000000 0.00000000
0.68887907 1.00000000 0.00000000
0.40297148 1.00000000 0.00000000
0.15074497 1.00000000 0.00000000
1.00000000 0.39737183 0.00000000
1.00000000 0.63290405 0.00000000
1.00000000 0.85495120 0.00000000
0.95160913 1.00000000 0.00000000
0.69920075 1.00000000 0.00000000
0.41328984 1.00000000 0.00000000
0.15867612 1.00000000 0.00000000
0.00015922 1.00000000 0.00000000
0.12204488 1.00000000 0.20274505
1.00000000 0.84729803 0.00000000
0.95941705 1.00000000 0.00000000
0.70947701 1.00000000 0.00000000
0.42365056 1.00000000 0.00000000
0.16673733 1.00000000 0.00000000
0.00353698 1.00000000 0.00000000
0.11407490 1.00000000 0.19344895
0.38811463 1.00000000 0.47120479
0.70413560 1.00000000 0.74989867
0.00000000 0.00000000 0.33325136
0.00000000 0.00000000 0.61307478
0.00000000 0.00000000 0.87864989
0.08135643 0.00000000 1.00000000
0.30680993 0.00000000 1.00000000
0.55423898 0.00000000 1.00000000
0.79556370 0.00000000 1.00000000
1.00000000 0.00000000 0.99733156
1.00000000 0.00000000 0.79295129
0.00000000 0.00000000 0.86990237
0.07384484 0.00000000 1.00000000
0.29795435 0.00000000 1.00000000
0.54507244 0.00000000 1.00000000
0.78711927 0.00000000 1.00000000
0.99601489 0.00000000 1.00000000
1.00000000 0.00000000 0.80121142
1.00000000 0.00000000 0.56491745
1.00000000 0.00000000 0.32157794
0.28912991 0.00000000 1.00000000
0.53589904 0.00000000 1.00000000
0.77862996 0.00000000 1.00000000
0.98924273 0.00000000 1.00000000
1.00000000 0.00000000 0.80942601
1.00000000 0.00000000 0.57389814
1.00000000 0.00000000 0.33034691
1.00000000 0.00000000 0.10534834
1.00000000 0.08362698 0.00000000
0.77009714 0.00000000 1.00000000
0.98238909 0.00000000 1.00000000
1.00000000 0.00000000 0.81759381
1.00000000 0.00000000 0.58286792
1.00000000 0.00000000 0.33914101
1.00000000 0.00000000 0.11298903
1.00000000 0.07648961 0.00000000
1.00000000 0.28844744 0.00000000
1.00000000 0.52205467 0.00000000
1.00000000 0.00000000 0.82571346
1.00000000 0.00000000 0.59182554
1.00000000 0.00000000 0.34795889
1.00000000 0.00000000 0.12068947
1.00000000 0.06941386 0.00000000
1.00000000 0.28011990 0.00000000
1.00000000 0.51335365 0.00000000
1.00000000 0.74523973 0.00000000
1.00000000 0.95190257 0.00000000
1.00000000 0.00000000 0.35679924
1.00000000 0.00000000 0.12844835
1.00000000 0.06240090 0.00000000
1.00000000 0.27182284 0.00000000
1.00000000 0.50465083 0.00000000
1.00000000 0.73700953 0.00000000
1.00000000 0.94502330 0.00000000
0.84509283 1.00000000 0.00000000
0.56941193 1.00000000 0.00000000
1.00000000 0.05545194 0.00000000
1.00000000 0.26355743 0.00000000
1.00000000 0.49594739 0.00000000
1.00000000 0.72874635 0.00000000
1.00000000 0.93807882 0.00000000
0.85431904 1.00000000 0.00000000
0.58002222 1.00000000 0.00000000
0.29931298 1.00000000 0.00000000
0.07699110 1.00000000 0.00000000
1.00000000 0.48724449 0.00000000
1.00000000 0.72045141 0.00000000
1.00000000 0.93107021 0.00000000
0.86344892 1.00000000 0.00000000
0.59062380 1.00000000 0.00000000
0.30900237 1.00000000 0.00000000
0.08338434 1.00000000 0.00000000
0.02066205 1.00000000 0.06318931
0.21596561 1.00000000 0.30444285
1.00000000 0.92399871 0.00000000
0.87247920 1.00000000 0.00000000
0.60121346 1.00000000 0.00000000
0.31876755 1.00000000 0.00000000
0.08994106 1.00000000 0.00000000
0.01711461 1.00000000 0.05621006
0.20609783 1.00000000 0.29426694
0.51005965 1.00000000 0.58159429
0.81102055 1.00000000 0.84007645
0.00000000 0.00000000 0.43739203
0.00000000 0.00000000 0.71961963
0.00000000 0.00000000 0.96226740
0.16293612 0.00000000 1.00000000
0.40008032 0.00000000 1.00000000
0.64849401 0.00000000 1.00000000
0.88009739 0.00000000 1.00000000
1.00000000 0.00000000 0.92494911
1.00000000 0.00000000 0.70498806
0.00000000 0.00000000 0.95481217
0.15479025 0.00000000 1.00000000
0.39098433 0.00000000 1.00000000
0.63948095 0.00000000 1.00000000
0.87220025 0.00000000 1.00000000
1.00000000 0.00000000 0.93226790
1.00000000 0.00000000 0.71364182
1.00000000 0.00000000 0.47152695
1.00000000 0.00000000 0.23249908
0.38190499 0.00000000 1.00000000
0.63044655 0.00000000 1.00000000
0.86424381 0.00000000 1.00000000
1.00000000 0.00000000 0.93951893
1.00000000 0.00000000 0.72226387
1.00000000 0.00000000 0.48054221
1.00000000 0.00000000 0.24092992
1.00000000 0.00000000 0.03000287
1.00000000 0.16093579 0.00000000
0.85622936 0.00000000 1.00000000
1.00000000 0.00000000 0.94670087
1.00000000 0.00000000 0.73085272
1.00000000 0.00000000 0.48956034
1.00000000 0.00000000 0.24939957
1.00000000 0.00000000 0.03694635
1.00000000 0.15322986 0.00000000
1.00000000 0.37625813 0.00000000
1.00000000 0.61183274 0.00000000
1.00000000 0.00000000 0.73940718
1.00000000 0.00000000 0.49858001
1.00000000 0.00000000 0.25790673
1.00000000 0.00000000 0.04396329
1.00000000 0.14557323 0.00000000
1.00000000 0.36768457 0.00000000
1.00000000 0.60322064 0.00000000
1.00000000 0.82830596 0.00000000
0.97799766 1.00000000 0.00000000
1.00000000 0.00000000 0.26645005
1.00000000 0.00000000 0.05105238
1.00000000 0.13796706 0.00000000
1.00000000 0.35912922 0.00000000
1.00000000 0.59459442 0.00000000
1.00000000 0.82048726 0.00000000
0.98532116 1.00000000 0.00000000
0.74458295 1.00000000 0.00000000
0.45972294 1.00000000 0.00000000
1.00000000 0.13041259 0.00000000
1.00000000 0.35059321 0.00000000
1.00000000 0.58595526 0.00000000
1.00000000 0.81262326 0.00000000
0.99249727 1.00000000 0.00000000
0.75461811 1.00000000 0.00000000
0.47023317 1.00000000 0.00000000
0.20414211 1.00000000 0.00000000
0.02114461 1.00000000 0.00000000
1.00000000 0.57730424 0.00000000
1.00000000 0.80471516 0.00000000
0.99952269 1.00000000 0.00000000
0.76459026 1.00000000 0.00000000
0.48076814 1.00000000 0.00000000
0.21285595 1.00000000 0.00000000
0.02565338 1.00000000 0.00000000
0.07456697 1.00000000 0.14472811
0.32596955 1.00000000 0.41288522
1.00000000 0.99407285 0.00000000
0.77449626 1.00000000 0.00000000
0.49132463 1.00000000 0.00000000
0.22167903 1.00000000 0.00000000
0.03035909 1.00000000 0.00000000
0.06809781 1.00000000 0.13619108
0.31483492 1.00000000 0.40224725
0.63156849 1.00000000 0.68779063
0.90031892 1.00000000 0.91470563
0.00000000 0.00000000 0.54543722
0.00000000 0.00000000 0.82041091
0.03412627 0.00000000 1.00000000
0.25023592 0.00000000 1.00000000
0.49498892 0.00000000 1.00000000
0.74030542 0.00000000 1.00000000
0.95810550 0.00000000 1.00000000
1.00000000 0.00000000 0.84543097
1.00000000 0.00000000 0.61375242
0.02708560 0.00000000 1.00000000
0.24160597 0.00000000 1.00000000
0.48580271 0.00000000 1.00000000
0.73159599 0.00000000 1.00000000
0.95090586 0.00000000 1.00000000
1.00000000 0.00000000 0.85337406
1.00000000 0.00000000 0.62265778
1.00000000 0.00000000 0.37858516
1.00000000 0.00000000 0.14773226
0.47661865 0.00000000 1.00000000
0.72285068 0.00000000 1.00000000
0.94363242 0.00000000 1.00000000
1.00000000 0.00000000 0.86126316
1.00000000 0.00000000 0.63154501
1.00000000 0.00000000 0.38749292
1.00000000 0.00000000 0.15568282
1.00000000 0.03867421 0.00000000
1.00000000 0.24341147 0.00000000
0.93628651 0.00000000 1.00000000
1.00000000 0.00000000 0.86909682
1.00000000 0.00000000 0.64041287
1.00000000 0.00000000 0.39641726
1.00000000 0.00000000 0.16368590
1.00000000 0.03195547 0.00000000
1.00000000 0.23526466 0.00000000
1.00000000 0.46589264 0.00000000
1.00000000 0.69996393 0.00000000
1.00000000 0.00000000 0.64926004
1.00000000 0.00000000 0.40535685
1.00000000 0.00000000 0.17174020
1.00000000 0.02530602 0.00000000
1.00000000 0.22715482 0.00000000
1.00000000 0.45720080 0.00000000
1.00000000 0.69156843 0.00000000
1.00000000 0.90638232 0.00000000
0.89420176 1.00000000 0.00000000
1.00000000 0.00000000 0.17984441
1.00000000 0.01872704 0.00000000
1.00000000 0.21908316 0.00000000
1.00000000 0.44851479 0.00000000
1.00000000 0.68314648 0.00000000
1.00000000 0.89910275 0.00000000
0.90286309 1.00000000 0.00000000
0.63765925 1.00000000 0.00000000
0.35303983 1.00000000 0.00000000
1.00000000 0.21105084 0.00000000
1.00000000 0.43983585 0.00000000
1.00000000 0.67469925 0.00000000
1.00000000 0.89176559 0.00000000
0.91141039 1.00000000 0.00000000
0.64815670 1.00000000 0.00000000
0.36310345 1.00000000 0.00000000
0.12105034 1.00000000 0.00000000
0.00522502 1.00000000 0.02726967
1.00000000 0.66622794 0.00000000
1.00000000 0.88437206 0.00000000
0.91984051 1.00000000 0.00000000
0.65862465 1.00000000 0.00000000
0.37322527 1.00000000 0.00000000
0.12844209 1.00000000 0.00000000
0.00346875 1.00000000 0.02127809
0.15516652 1.00000000 0.24003746
0.44551775 1.00000000 0.52374268
0.92815024 1.00000000 0.00000000
0.66905987 1.00000000 0.00000000
0.38340208 1.00000000 0.00000000
0.13597654 1.00000000 0.00000000
0.00205982 1.00000000 0.01548015
0.14640661 1.00000000 0.23036042
0.43374720 1.00000000 0.51306039
0.74610209 1.00000000 0.78546435
0.96549171 1.00000000 0.96945661
0.00000000 0.00000000 0.65370458
0.00000000 0.00000000 0.91176611
0.11135695 0.00000000 1.00000000
0.34169954 0.00000000 1.00000000
0.58997947 0.00000000 1.00000000
0.82811677 0.00000000 1.00000000
1.00000000 0.00000000 0.97096115
1.00000000 0.00000000 0.76025015
1.00000000 0.00000000 0.52071732
0.10358848 0.00000000 1.00000000
0.33273566 0.00000000 1.00000000
0.58085316 0.00000000 1.00000000
0.81986117 0.00000000 1.00000000
1.00000000 0.00000000 0.97781926
1.00000000 0.00000000 0.76867545
1.00000000 0.00000000 0.52973211
1.00000000 0.00000000 0.28756511
1.00000000 0.00000000 0.06875043
0.57171458 0.00000000 1.00000000
0.81155521 0.00000000 1.00000000
1.00000000 0.00000000 0.98460108
1.00000000 0.00000000 0.77706045
1.00000000 0.00000000 0.53874248
1.00000000 0.00000000 0.29622325
1.00000000 0.00000000 0.07607858
1.00000000 0.11209635 0.00000000
1.00000000 0.32973072 0.00000000
1.00000000 0.00000000 0.99130529
1.00000000 0.00000000 0.78540373
1.00000000 0.00000000 0.54774719
1.00000000 0.00000000 0.30491164
1.00000000 0.00000000 0.08347297
1.00000000 0.10472952 0.00000000
1.00000000 0.32127070 0.00000000
1.00000000 0.55602771 0.00000000
1.00000000 0.78512496 0.00000000
1.00000000 0.00000000 0.55674493
1.00000000 0.00000000 0.31362903
1.00000000 0.00000000 0.09093230
1.00000000 0.09741966 0.00000000
1.00000000 0.31283537 0.00000000
1.00000000 0.54734522 0.00000000
1.00000000 0.77707374 0.00000000
1.00000000 0.97814548 0.00000000
0.79851019 1.00000000 0.00000000
1.00000000 0.00000000 0.09845523
1.00000000 0.09016796 0.00000000
1.00000000 0.30442590 0.00000000
1.00000000 0.53865629 0.00000000
1.00000000 0.76898378 0.00000000
1.00000000 0.97153276 0.00000000
0.80816275 1.00000000 0.00000000
0.52791315 1.00000000 0.00000000
0.25295410 1.00000000 0.00000000
1.00000000 0.29604343 0.00000000
1.00000000 0.52996206 0.00000000
1.00000000 0.76085615 0.00000000
1.00000000 0.96485013 0.00000000
0.81773484 1.00000000 0.00000000
0.53852636 1.00000000 0.00000000
0.26222458 1.00000000 0.00000000
0.05362915 1.00000000 0.00000000
0.04245367 1.00000000 0.09982182
1.00000000 0.75269216 0.00000000
1.00000000 0.95809877 0.00000000
0.82722312 1.00000000 0.00000000
0.54914355 1.00000000 0.00000000
0.27158672 1.00000000 0.00000000
0.05935228 1.00000000 0.00000000
0.03744360 1.00000000 0.09205261
0.25592178 1.00000000 0.34478781
0.56807125 1.00000000 0.63268560
0.83662438 1.00000000 0.00000000
0.55976140 1.00000000 0.00000000
0.28103724 1.00000000 0.00000000
0.06525153 1.00000000 0.00000000
0.03272000 1.00000000 0.08443671
0.24550205 1.00000000 0.33438852
0.55629575 1.00000000 0.62237680
0.84712160 1.00000000 0.87028581
1.00000000 1.00000000 1.00000000
