Sherglun/Sherglun.cube
# VEGAS Pro LUT
TITLE "Sherglun"
LUT_3D_SIZE 5
0.00000000 0.00000000 0.00000000
0.00000000 0.00000000 0.35826853
0.00000000 0.00000000 0.90041584
0.32948235 0.00000000 1.00000000
0.81684655 0.00000000 1.00000000
0.00000000 0.00000000 0.88337541
0.31165287 0.00000000 1.00000000
0.80015033 0.00000000 1.00000000
1.00000000 0.00000000 0.78842711
1.00000000 0.00000000 0.30807832
0.78326595 0.00000000 1.00000000
1.00000000 0.00000000 0.80495107
1.00000000 0.00000000 0.32556063
1.00000000 0.08754563 0.00000000
1.00000000 0.53549534 0.00000000
1.00000000 0.00000000 0.34314626
1.00000000 0.07326564 0.00000000
1.00000000 0.51809996 0.00000000
1.00000000 0.95562696 0.00000000
0.55300468 1.00000000 0.00000000
1.00000000 0.50069475 0.00000000
1.00000000 0.94187474 0.00000000
0.57423562 1.00000000 0.00000000
0.07357395 1.00000000 0.00000000
0.23150826 1.00000000 0.32029140
0.00000000 0.00000000 0.08108063
0.00000000 0.00000000 0.57215029
0.05239116 0.00000000 1.00000000
0.51837224 0.00000000 1.00000000
0.97608894 0.00000000 1.00000000
0.03799909 0.00000000 1.00000000
0.50000000 0.00000000 1.00000000
0.96200091 0.00000000 1.00000000
1.00000000 0.00000000 0.60888779
1.00000000 0.00000000 0.13555147
0.94760883 0.00000000 1.00000000
1.00000000 0.00000000 0.62669975
1.00000000 0.00000000 0.15133955
1.00000000 0.24787033 0.00000000
1.00000000 0.71288401 0.00000000
1.00000000 0.00000000 0.16734068
1.00000000 0.23157372 0.00000000
1.00000000 0.69615120 0.00000000
0.88943046 1.00000000 0.00000000
0.33760893 1.00000000 0.00000000
1.00000000 0.67930990 0.00000000
0.90676254 1.00000000 0.00000000
0.35760680 1.00000000 0.00000000
0.00632728 1.00000000 0.03061802
0.46376151 1.00000000 0.54021519
0.00000000 0.00000000 0.23669766
0.00000000 0.00000000 0.78330290
0.21673405 0.00000000 1.00000000
0.70606071 0.00000000 1.00000000
1.00000000 0.00000000 0.87616920
0.19984968 0.00000000 1.00000000
0.68834716 0.00000000 1.00000000
1.00000000 0.00000000 0.89155865
1.00000000 0.00000000 0.42246085
1.00000000 0.01280831 0.00000000
1.00000000 0.00000000 0.90670586
1.00000000 0.00000000 0.44042376
1.00000000 0.00000000 0.00000000
1.00000000 0.42329076 0.00000000
1.00000000 0.87760270 0.00000000
1.00000000 0.00000000 0.01327961
1.00000000 0.40599900 0.00000000
1.00000000 0.86255383 0.00000000
0.68887907 1.00000000 0.00000000
0.15074497 1.00000000 0.00000000
1.00000000 0.84729803 0.00000000
0.70947701 1.00000000 0.00000000
0.16673733 1.00000000 0.00000000
0.11407490 1.00000000 0.19344895
0.70413560 1.00000000 0.74989867
0.00000000 0.00000000 0.43739203
0.00000000 0.00000000 0.96226740
0.40008032 0.00000000 1.00000000
0.88009739 0.00000000 1.00000000
1.00000000 0.00000000 0.70498806
0.38190499 0.00000000 1.00000000
0.86424381 0.00000000 1.00000000
1.00000000 0.00000000 0.72226387
1.00000000 0.00000000 0.24092992
1.00000000 0.16093579 0.00000000
1.00000000 0.00000000 0.73940718
1.00000000 0.00000000 0.25790673
1.00000000 0.14557323 0.00000000
1.00000000 0.60322064 0.00000000
0.97799766 1.00000000 0.00000000
1.00000000 0.13041259 0.00000000
1.00000000 0.58595526 0.00000000
0.99249727 1.00000000 0.00000000
0.47023317 1.00000000 0.00000000
0.02114461 1.00000000 0.00000000
1.00000000 0.99407285 0.00000000
0.49132463 1.00000000 0.00000000
0.03035909 1.00000000 0.00000000
0.31483492 1.00000000 0.40224725
0.90031892 1.00000000 0.91470563
0.00000000 0.00000000 0.65370458
0.11135695 0.00000000 1.00000000
0.58997947 0.00000000 1.00000000
1.00000000 0.00000000 0.97096115
1.00000000 0.00000000 0.52071732
0.57171458 0.00000000 1.00000000
1.00000000 0.00000000 0.98460108
1.00000000 0.00000000 0.53874248
1.00000000 0.00000000 0.07607858
1.00000000 0.32973072 0.00000000
1.00000000 0.00000000 0.55674493
1.00000000 0.00000000 0.09093230
1.00000000 0.31283537 0.00000000
1.00000000 0.77707374 0.00000000
0.79851019 1.00000000 0.00000000
1.00000000 0.29604343 0.00000000
1.00000000 0.76085615 0.00000000
0.81773484 1.00000000 0.00000000
0.26222458 1.00000000 0.00000000
0.04245367 1.00000000 0.09982182
0.83662438 1.00000000 0.00000000
0.28103724 1.00000000 0.00000000
0.03272000 1.00000000 0.08443671
0.55629575 1.00000000 0.62237680
1.00000000 1.00000000 1.00000000
