Sherglun/Sherglun.cube
# VEGAS Pro LUT
TITLE "Sherglun"
LUT_3D_SIZE 33
0.00000000 0.00000000 0.00000000
0.00000000 0.00000000 0.01656057
0.00000000 0.00000000 0.04326109
0.00000000 0.00000000 0.07906345
0.00000000 0.00000000 0.12292953
0.00000000 0.00000000 0.17382120
0.00000000 0.00000000 0.23070033
0.00000000 0.00000000 0.29252881
0.00000000 0.00000000 0.35826853
0.00000000 0.00000000 0.42688134
0.00000000 0.00000000 0.49732918
0.00000000 0.00000000 0.56857383
0.00000000 0.00000000 0.63957721
0.00000000 0.00000000 0.70930123
0.00000000 0.00000000 0.77670777
0.00000000 0.00000000 0.84075868
0.00000000 0.00000000 0.90041584
0.00000000 0.00000000 0.95464110
0.00245748 0.00000000 1.00000000
0.04991695 0.00000000 1.00000000
0.10077929 0.00000000 1.00000000
0.15460575 0.00000000 1.00000000
0.21095757 0.00000000 1.00000000
0.26939604 0.00000000 1.00000000
0.32948235 0.00000000 1.00000000
0.39077780 0.00000000 1.00000000
0.45284361 0.00000000 1.00000000
0.51524109 0.00000000 1.00000000
0.57753140 0.00000000 1.00000000
0.63927585 0.00000000 1.00000000
0.70003569 0.00000000 1.00000000
0.75937217 0.00000000 1.00000000
0.81684655 0.00000000 1.00000000
0.00000000 0.00000000 0.04211117
0.00000000 0.00000000 0.07759707
0.00000000 0.00000000 0.12118489
0.00000000 0.00000000 0.17183648
0.00000000 0.00000000 0.22851375
0.00000000 0.00000000 0.29017854
0.00000000 0.00000000 0.35579276
0.00000000 0.00000000 0.42431828
0.00000000 0.00000000 0.49471697
0.00000000 0.00000000 0.56595069
0.00000000 0.00000000 0.63698137
0.00000000 0.00000000 0.70677084
0.00000000 0.00000000 0.77428102
0.00000000 0.00000000 0.83847380
0.00000000 0.00000000 0.89831096
0.00000000 0.00000000 0.95275444
0.00078205 0.00000000 1.00000000
0.04810797 0.00000000 1.00000000
0.09885290 0.00000000 1.00000000
0.15257809 0.00000000 1.00000000
0.20884478 0.00000000 1.00000000
0.26721424 0.00000000 1.00000000
0.32724771 0.00000000 1.00000000
0.38850644 0.00000000 1.00000000
0.45055169 0.00000000 1.00000000
0.51294470 0.00000000 1.00000000
0.57524675 0.00000000 1.00000000
0.63701910 0.00000000 1.00000000
0.69782293 0.00000000 1.00000000
0.75721955 0.00000000 1.00000000
0.81477022 0.00000000 1.00000000
0.87003613 0.00000000 1.00000000
0.92257863 0.00000000 1.00000000
0.00000000 0.00000000 0.11944981
0.00000000 0.00000000 0.16985993
0.00000000 0.00000000 0.22633390
0.00000000 0.00000000 0.28783360
0.00000000 0.00000000 0.35332093
0.00000000 0.00000000 0.42175773
0.00000000 0.00000000 0.49210590
0.00000000 0.00000000 0.56332731
0.00000000 0.00000000 0.63438386
0.00000000 0.00000000 0.70423740
0.00000000 0.00000000 0.77184981
0.00000000 0.00000000 0.83618301
0.00000000 0.00000000 0.89619881
0.00000000 0.00000000 0.95085913
0.00000000 0.00000000 0.99912584
0.04630362 0.00000000 1.00000000
0.09693054 0.00000000 1.00000000
0.15055385 0.00000000 1.00000000
0.20673482 0.00000000 1.00000000
0.26503471 0.00000000 1.00000000
0.32501471 0.00000000 1.00000000
0.38623616 0.00000000 1.00000000
0.44826025 0.00000000 1.00000000
0.51064825 0.00000000 1.00000000
0.57296139 0.00000000 1.00000000
0.63476098 0.00000000 1.00000000
0.69560826 0.00000000 1.00000000
0.75506443 0.00000000 1.00000000
0.81269073 0.00000000 1.00000000
0.86804855 0.00000000 1.00000000
0.92069894 0.00000000 1.00000000
0.97020334 0.00000000 1.00000000
1.00000000 0.00000000 0.98368084
0.00000000 0.00000000 0.22416086
0.00000000 0.00000000 0.28549406
0.00000000 0.00000000 0.35085306
0.00000000 0.00000000 0.41919976
0.00000000 0.00000000 0.48949599
0.00000000 0.00000000 0.56070369
0.00000000 0.00000000 0.63178468
0.00000000 0.00000000 0.70170087
0.00000000 0.00000000 0.76941413
0.00000000 0.00000000 0.83388633
0.00000000 0.00000000 0.89407939
0.00000000 0.00000000 0.94895512
0.00000000 0.00000000 0.99747545
0.04450392 0.00000000 1.00000000
0.09501223 0.00000000 1.00000000
0.14853309 0.00000000 1.00000000
0.20462774 0.00000000 1.00000000
0.26285744 0.00000000 1.00000000
0.32278341 0.00000000 1.00000000
0.38396695 0.00000000 1.00000000
0.44596928 0.00000000 1.00000000
0.50835168 0.00000000 1.00000000
0.57067537 0.00000000 1.00000000
0.63250160 0.00000000 1.00000000
0.69339168 0.00000000 1.00000000
0.75290680 0.00000000 1.00000000
0.81060821 0.00000000 1.00000000
0.86605722 0.00000000 1.00000000
0.91881502 0.00000000 1.00000000
0.96844292 0.00000000 1.00000000
1.00000000 0.00000000 0.98536688
1.00000000 0.00000000 0.93787700
1.00000000 0.00000000 0.88721079
0.00000000 0.00000000 0.34838927
0.00000000 0.00000000 0.41664442
0.00000000 0.00000000 0.48688734
0.00000000 0.00000000 0.55807990
0.00000000 0.00000000 0.62918395
0.00000000 0.00000000 0.69916141
0.00000000 0.00000000 0.76697409
0.00000000 0.00000000 0.83158392
0.00000000 0.00000000 0.89195281
0.00000000 0.00000000 0.94704252
0.00000000 0.00000000 0.99581510
0.04270889 0.00000000 1.00000000
0.09309801 0.00000000 1.00000000
0.14651580 0.00000000 1.00000000
0.20252354 0.00000000 1.00000000
0.26068246 0.00000000 1.00000000
0.32055381 0.00000000 1.00000000
0.38169885 0.00000000 1.00000000
0.44367886 0.00000000 1.00000000
0.50605500 0.00000000 1.00000000
0.56838864 0.00000000 1.00000000
0.63024098 0.00000000 1.00000000
0.69117326 0.00000000 1.00000000
0.75074673 0.00000000 1.00000000
0.80852264 0.00000000 1.00000000
0.86406231 0.00000000 1.00000000
0.91692692 0.00000000 1.00000000
0.96667773 0.00000000 1.00000000
1.00000000 0.00000000 0.98704803
1.00000000 0.00000000 0.93968290
1.00000000 0.00000000 0.88912624
1.00000000 0.00000000 0.83579326
1.00000000 0.00000000 0.78009927
0.00000000 0.00000000 0.48427999
0.00000000 0.00000000 0.55545598
0.00000000 0.00000000 0.62658167
0.00000000 0.00000000 0.69661897
0.00000000 0.00000000 0.76452971
0.00000000 0.00000000 0.82927579
0.00000000 0.00000000 0.88981903
0.00000000 0.00000000 0.94512141
0.00000000 0.00000000 0.99414474
0.04091855 0.00000000 1.00000000
0.09118788 0.00000000 1.00000000
0.14450203 0.00000000 1.00000000
0.20042226 0.00000000 1.00000000
0.25850981 0.00000000 1.00000000
0.31832594 0.00000000 1.00000000
0.37943190 0.00000000 1.00000000
0.44138893 0.00000000 1.00000000
0.50375831 0.00000000 1.00000000
0.56610131 0.00000000 1.00000000
0.62797910 0.00000000 1.00000000
0.68895298 0.00000000 1.00000000
0.74858421 0.00000000 1.00000000
0.80643404 0.00000000 1.00000000
0.86206377 0.00000000 1.00000000
0.91503453 0.00000000 1.00000000
0.96490765 0.00000000 1.00000000
1.00000000 0.00000000 0.98872435
1.00000000 0.00000000 0.94148451
1.00000000 0.00000000 0.89103794
1.00000000 0.00000000 0.83779973
1.00000000 0.00000000 0.78218520
1.00000000 0.00000000 0.72460961
1.00000000 0.00000000 0.66548818
0.00000000 0.00000000 0.62397796
0.00000000 0.00000000 0.69407368
0.00000000 0.00000000 0.76208103
0.00000000 0.00000000 0.82696187
0.00000000 0.00000000 0.88767821
0.00000000 0.00000000 0.94319177
0.00000000 0.00000000 0.99246448
0.03913293 0.00000000 1.00000000
0.08928187 0.00000000 1.00000000
0.14249177 0.00000000 1.00000000
0.19832389 0.00000000 1.00000000
0.25633949 0.00000000 1.00000000
0.31609979 0.00000000 1.00000000
0.37716609 0.00000000 1.00000000
0.43909958 0.00000000 1.00000000
0.50146157 0.00000000 1.00000000
0.56381327 0.00000000 1.00000000
0.62571597 0.00000000 1.00000000
0.68673092 0.00000000 1.00000000
0.74641931 0.00000000 1.00000000
0.80434245 0.00000000 1.00000000
0.86006159 0.00000000 1.00000000
0.91313797 0.00000000 1.00000000
0.96313286 0.00000000 1.00000000
1.00000000 0.00000000 0.99039572
1.00000000 0.00000000 0.94328183
1.00000000 0.00000000 0.89294583
1.00000000 0.00000000 0.83980298
1.00000000 0.00000000 0.78426850
1.00000000 0.00000000 0.72675771
1.00000000 0.00000000 0.66768581
1.00000000 0.00000000 0.60746807
1.00000000 0.00000000 0.54651970
0.00000000 0.00000000 0.75962812
0.00000000 0.00000000 0.82464242
0.00000000 0.00000000 0.88553029
0.00000000 0.00000000 0.94125366
0.00000000 0.00000000 0.99077439
0.03735204 0.00000000 1.00000000
0.08738001 0.00000000 1.00000000
0.14048508 0.00000000 1.00000000
0.19622850 0.00000000 1.00000000
0.25417155 0.00000000 1.00000000
0.31387544 0.00000000 1.00000000
0.37490144 0.00000000 1.00000000
0.43681082 0.00000000 1.00000000
0.49916482 0.00000000 1.00000000
0.56152469 0.00000000 1.00000000
0.62345165 0.00000000 1.00000000
0.68450701 0.00000000 1.00000000
0.74425203 0.00000000 1.00000000
0.80224788 0.00000000 1.00000000
0.85805583 0.00000000 1.00000000
0.91123724 0.00000000 1.00000000
0.96135324 0.00000000 1.00000000
1.00000000 0.00000000 0.99206215
1.00000000 0.00000000 0.94507474
1.00000000 0.00000000 0.89484990
1.00000000 0.00000000 0.84180295
1.00000000 0.00000000 0.78634918
1.00000000 0.00000000 0.72890371
1.00000000 0.00000000 0.66988188
1.00000000 0.00000000 0.60969889
1.00000000 0.00000000 0.54877007
1.00000000 0.00000000 0.48751059
1.00000000 0.00000000 0.42633572
0.00000000 0.00000000 0.88337541
0.00000000 0.00000000 0.93930721
0.00000000 0.00000000 0.98907447
0.03557591 0.00000000 1.00000000
0.08548231 0.00000000 1.00000000
0.13848194 0.00000000 1.00000000
0.19413608 0.00000000 1.00000000
0.25200596 0.00000000 1.00000000
0.31165287 0.00000000 1.00000000
0.37263802 0.00000000 1.00000000
0.43452266 0.00000000 1.00000000
0.49686807 0.00000000 1.00000000
0.55923551 0.00000000 1.00000000
0.62118620 0.00000000 1.00000000
0.68228137 0.00000000 1.00000000
0.74208236 0.00000000 1.00000000
0.80015033 0.00000000 1.00000000
0.85604656 0.00000000 1.00000000
0.90933233 0.00000000 1.00000000
0.95956892 0.00000000 1.00000000
1.00000000 0.00000000 0.99372369
1.00000000 0.00000000 0.94686329
1.00000000 0.00000000 0.89675021
1.00000000 0.00000000 0.84379971
1.00000000 0.00000000 0.78842711
1.00000000 0.00000000 0.73104757
1.00000000 0.00000000 0.67207634
1.00000000 0.00000000 0.61192876
1.00000000 0.00000000 0.55101997
1.00000000 0.00000000 0.48976532
1.00000000 0.00000000 0.42857999
1.00000000 0.00000000 0.36787924
1.00000000 0.00000000 0.30807832
0.00000000 0.00000000 0.98736483
0.03380457 0.00000000 1.00000000
0.08358879 0.00000000 1.00000000
0.13648240 0.00000000 1.00000000
0.19204666 0.00000000 1.00000000
0.24984281 0.00000000 1.00000000
0.30943209 0.00000000 1.00000000
0.37037578 0.00000000 1.00000000
0.43223512 0.00000000 1.00000000
0.49457136 0.00000000 1.00000000
0.55694574 0.00000000 1.00000000
0.61891949 0.00000000 1.00000000
0.68005395 0.00000000 1.00000000
0.73991030 0.00000000 1.00000000
0.79804981 0.00000000 1.00000000
0.85403377 0.00000000 1.00000000
0.90742332 0.00000000 1.00000000
0.95777982 0.00000000 1.00000000
1.00000000 0.00000000 0.99538022
1.00000000 0.00000000 0.94864738
1.00000000 0.00000000 0.89864665
1.00000000 0.00000000 0.84579319
1.00000000 0.00000000 0.79050231
1.00000000 0.00000000 0.73318923
1.00000000 0.00000000 0.67426926
1.00000000 0.00000000 0.61415756
1.00000000 0.00000000 0.55326945
1.00000000 0.00000000 0.49202016
1.00000000 0.00000000 0.43082491
1.00000000 0.00000000 0.37009898
1.00000000 0.00000000 0.31025761
1.00000000 0.00000000 0.25171605
1.00000000 0.00000000 0.19488953
0.08169948 0.00000000 1.00000000
0.13448648 0.00000000 1.00000000
0.18996026 0.00000000 1.00000000
0.24768206 0.00000000 1.00000000
0.30721316 0.00000000 1.00000000
0.36811480 0.00000000 1.00000000
0.42994821 0.00000000 1.00000000
0.49227467 0.00000000 1.00000000
0.55465543 0.00000000 1.00000000
0.61665171 0.00000000 1.00000000
0.67782485 0.00000000 1.00000000
0.73773599 0.00000000 1.00000000
0.79594642 0.00000000 1.00000000
0.85201740 0.00000000 1.00000000
0.90551025 0.00000000 1.00000000
0.95598608 0.00000000 1.00000000
1.00000000 0.00000000 0.99703181
1.00000000 0.00000000 0.95042711
1.00000000 0.00000000 0.90053922
1.00000000 0.00000000 0.84778333
1.00000000 0.00000000 0.79257476
1.00000000 0.00000000 0.73532879
1.00000000 0.00000000 0.67646050
1.00000000 0.00000000 0.61638534
1.00000000 0.00000000 0.55551845
1.00000000 0.00000000 0.49427506
1.00000000 0.00000000 0.43307048
1.00000000 0.00000000 0.37231991
1.00000000 0.00000000 0.31243864
1.00000000 0.00000000 0.25384191
1.00000000 0.00000000 0.19694494
1.00000000 0.00000000 0.14216299
1.00000000 0.00000000 0.08991134
0.18787690 0.00000000 1.00000000
0.24552378 0.00000000 1.00000000
0.30499607 0.00000000 1.00000000
0.36585507 0.00000000 1.00000000
0.42766199 0.00000000 1.00000000
0.48997808 0.00000000 1.00000000
0.55236459 0.00000000 1.00000000
0.61438280 0.00000000 1.00000000
0.67559397 0.00000000 1.00000000
0.73555934 0.00000000 1.00000000
0.79384011 0.00000000 1.00000000
0.84999758 0.00000000 1.00000000
0.90359306 0.00000000 1.00000000
0.95418769 0.00000000 1.00000000
1.00000000 0.00000000 0.99867839
1.00000000 0.00000000 0.95220238
1.00000000 0.00000000 0.90242791
1.00000000 0.00000000 0.84977019
1.00000000 0.00000000 0.79464453
1.00000000 0.00000000 0.73746610
1.00000000 0.00000000 0.67865020
1.00000000 0.00000000 0.61861205
1.00000000 0.00000000 0.55776691
1.00000000 0.00000000 0.49653003
1.00000000 0.00000000 0.43531665
1.00000000 0.00000000 0.37454203
1.00000000 0.00000000 0.31462142
1.00000000 0.00000000 0.25597006
1.00000000 0.00000000 0.19900320
1.00000000 0.00000000 0.14413610
1.00000000 0.00000000 0.09178400
1.00000000 0.00000000 0.04236215
1.00000000 0.00360858 0.00000000
0.30278090 0.00000000 1.00000000
0.36359662 0.00000000 1.00000000
0.42537645 0.00000000 1.00000000
0.48768157 0.00000000 1.00000000
0.55007327 0.00000000 1.00000000
0.61211282 0.00000000 1.00000000
0.67336148 0.00000000 1.00000000
0.73338044 0.00000000 1.00000000
0.79173094 0.00000000 1.00000000
0.84797430 0.00000000 1.00000000
0.90167177 0.00000000 1.00000000
0.95238459 0.00000000 1.00000000
0.99967396 0.00000000 1.00000000
1.00000000 0.00000000 0.95397317
1.00000000 0.00000000 0.90431273
1.00000000 0.00000000 0.85175371
1.00000000 0.00000000 0.79671144
1.00000000 0.00000000 0.73960119
1.00000000 0.00000000 0.68083817
1.00000000 0.00000000 0.62083763
1.00000000 0.00000000 0.56001484
1.00000000 0.00000000 0.49878499
1.00000000 0.00000000 0.43756342
1.00000000 0.00000000 0.37676528
1.00000000 0.00000000 0.31680590
1.00000000 0.00000000 0.25810051
1.00000000 0.00000000 0.20106432
1.00000000 0.00000000 0.14611261
1.00000000 0.00000000 0.09366062
1.00000000 0.00000000 0.04412361
1.00000000 0.00201783 0.00000000
1.00000000 0.04685755 0.00000000
1.00000000 0.09477589 0.00000000
0.42309162 0.00000000 1.00000000
0.48538521 0.00000000 1.00000000
0.54778153 0.00000000 1.00000000
0.60984176 0.00000000 1.00000000
0.67112726 0.00000000 1.00000000
0.73119920 0.00000000 1.00000000
0.78961891 0.00000000 1.00000000
0.84594756 0.00000000 1.00000000
0.89974648 0.00000000 1.00000000
0.95057684 0.00000000 1.00000000
0.99799997 0.00000000 1.00000000
1.00000000 0.00000000 0.95573950
1.00000000 0.00000000 0.90619355
1.00000000 0.00000000 0.85373384
1.00000000 0.00000000 0.79877561
1.00000000 0.00000000 0.74173409
1.00000000 0.00000000 0.68302453
1.00000000 0.00000000 0.62306213
1.00000000 0.00000000 0.56226224
1.00000000 0.00000000 0.50103998
1.00000000 0.00000000 0.43981075
1.00000000 0.00000000 0.37898970
1.00000000 0.00000000 0.31899211
1.00000000 0.00000000 0.26023319
1.00000000 0.00000000 0.20312825
1.00000000 0.00000000 0.14809249
1.00000000 0.00000000 0.09554119
1.00000000 0.00000000 0.04588958
1.00000000 0.00043175 0.00000000
1.00000000 0.04515110 0.00000000
1.00000000 0.09296279 0.00000000
1.00000000 0.14349376 0.00000000
1.00000000 0.19637097 0.00000000
0.54548925 0.00000000 1.00000000
0.60756963 0.00000000 1.00000000
0.66889143 0.00000000 1.00000000
0.72901583 0.00000000 1.00000000
0.78750408 0.00000000 1.00000000
0.84391743 0.00000000 1.00000000
0.89781719 0.00000000 1.00000000
0.94876450 0.00000000 1.00000000
0.99632078 0.00000000 1.00000000
1.00000000 0.00000000 0.95750129
1.00000000 0.00000000 0.90807050
1.00000000 0.00000000 0.85571063
1.00000000 0.00000000 0.80083692
1.00000000 0.00000000 0.74386472
1.00000000 0.00000000 0.68520910
1.00000000 0.00000000 0.62528551
1.00000000 0.00000000 0.56450903
1.00000000 0.00000000 0.50329500
1.00000000 0.00000000 0.44205862
1.00000000 0.00000000 0.38121521
1.00000000 0.00000000 0.32117996
1.00000000 0.00000000 0.26236814
1.00000000 0.00000000 0.20519498
1.00000000 0.00000000 0.15007575
1.00000000 0.00000000 0.09742568
1.00000000 0.00000000 0.04766003
1.00000000 0.00000000 0.00119406
1.00000000 0.04344883 0.00000000
1.00000000 0.09115336 0.00000000
1.00000000 0.14159091 0.00000000
1.00000000 0.19438840 0.00000000
1.00000000 0.24917281 0.00000000
1.00000000 0.30557108 0.00000000
0.66665399 0.00000000 1.00000000
0.72683018 0.00000000 1.00000000
0.78538638 0.00000000 1.00000000
0.84188390 0.00000000 1.00000000
0.89588386 0.00000000 1.00000000
0.94694763 0.00000000 1.00000000
0.99463636 0.00000000 1.00000000
1.00000000 0.00000000 0.95925862
1.00000000 0.00000000 0.90994346
1.00000000 0.00000000 0.85768402
1.00000000 0.00000000 0.80289543
1.00000000 0.00000000 0.74599302
1.00000000 0.00000000 0.68739206
1.00000000 0.00000000 0.62750769
1.00000000 0.00000000 0.56675524
1.00000000 0.00000000 0.50554997
1.00000000 0.00000000 0.44430706
1.00000000 0.00000000 0.38344181
1.00000000 0.00000000 0.32336947
1.00000000 0.00000000 0.26450530
1.00000000 0.00000000 0.20726448
1.00000000 0.00000000 0.15206234
1.00000000 0.00000000 0.09931408
1.00000000 0.00000000 0.04943496
1.00000000 0.00000000 0.00284023
1.00000000 0.04175077 0.00000000
1.00000000 0.08934764 0.00000000
1.00000000 0.13969125 0.00000000
1.00000000 0.19240853 0.00000000
1.00000000 0.24712646 0.00000000
1.00000000 0.30347195 0.00000000
1.00000000 0.36107194 0.00000000
1.00000000 0.41955343 0.00000000
0.78326595 0.00000000 1.00000000
0.83984691 0.00000000 1.00000000
0.89394659 0.00000000 1.00000000
0.94512612 0.00000000 1.00000000
0.99294680 0.00000000 1.00000000
1.00000000 0.00000000 0.96101135
1.00000000 0.00000000 0.91181242
1.00000000 0.00000000 0.85965395
1.00000000 0.00000000 0.80495107
1.00000000 0.00000000 0.74811906
1.00000000 0.00000000 0.68957317
1.00000000 0.00000000 0.62972873
1.00000000 0.00000000 0.56900084
1.00000000 0.00000000 0.50780487
1.00000000 0.00000000 0.44655600
1.00000000 0.00000000 0.38566950
1.00000000 0.00000000 0.32556063
1.00000000 0.00000000 0.26664463
1.00000000 0.00000000 0.20933676
1.00000000 0.00000000 0.15405224
1.00000000 0.00000000 0.10120635
1.00000000 0.00000000 0.05121433
1.00000000 0.00000000 0.00449141
1.00000000 0.04005693 0.00000000
1.00000000 0.08754563 0.00000000
1.00000000 0.13779481 0.00000000
1.00000000 0.19043137 0.00000000
1.00000000 0.24508230 0.00000000
1.00000000 0.30137452 0.00000000
1.00000000 0.35893500 0.00000000
1.00000000 0.41739064 0.00000000
1.00000000 0.47636843 0.00000000
1.00000000 0.53549534 0.00000000
0.89200532 0.00000000 1.00000000
0.94330007 0.00000000 1.00000000
0.99125212 0.00000000 1.00000000
1.00000000 0.00000000 0.96275949
1.00000000 0.00000000 0.91367739
1.00000000 0.00000000 0.86162043
1.00000000 0.00000000 0.80700380
1.00000000 0.00000000 0.75024277
1.00000000 0.00000000 0.69175261
1.00000000 0.00000000 0.63194853
1.00000000 0.00000000 0.57124579
1.00000000 0.00000000 0.51005971
1.00000000 0.00000000 0.44880542
1.00000000 0.00000000 0.38789824
1.00000000 0.00000000 0.32775339
1.00000000 0.00000000 0.26878616
1.00000000 0.00000000 0.21141177
1.00000000 0.00000000 0.15604547
1.00000000 0.00000000 0.10310250
1.00000000 0.00000000 0.05299812
1.00000000 0.00000000 0.00614758
1.00000000 0.03836733 0.00000000
1.00000000 0.08574736 0.00000000
1.00000000 0.13590159 0.00000000
1.00000000 0.18845694 0.00000000
1.00000000 0.24304037 0.00000000
1.00000000 0.29927883 0.00000000
1.00000000 0.35679924 0.00000000
1.00000000 0.41522858 0.00000000
1.00000000 0.47419375 0.00000000
1.00000000 0.53332174 0.00000000
1.00000000 0.59223950 0.00000000
1.00000000 0.65057397 0.00000000
0.98955232 0.00000000 1.00000000
1.00000000 0.00000000 0.96450311
1.00000000 0.00000000 0.91553837
1.00000000 0.00000000 0.86358345
1.00000000 0.00000000 0.80905366
1.00000000 0.00000000 0.75236416
1.00000000 0.00000000 0.69393027
1.00000000 0.00000000 0.63416713
1.00000000 0.00000000 0.57349014
1.00000000 0.00000000 0.51231444
1.00000000 0.00000000 0.45105532
1.00000000 0.00000000 0.39012802
1.00000000 0.00000000 0.32994777
1.00000000 0.00000000 0.27092984
1.00000000 0.00000000 0.21348950
1.00000000 0.00000000 0.15804195
1.00000000 0.00000000 0.10500248
1.00000000 0.00000000 0.05478631
1.00000000 0.00000000 0.00780871
1.00000000 0.03668199 0.00000000
1.00000000 0.08395285 0.00000000
1.00000000 0.13401163 0.00000000
1.00000000 0.18648525 0.00000000
1.00000000 0.24100067 0.00000000
1.00000000 0.29718485 0.00000000
1.00000000 0.35466471 0.00000000
1.00000000 0.41306722 0.00000000
1.00000000 0.47201931 0.00000000
1.00000000 0.53114796 0.00000000
1.00000000 0.59008002 0.00000000
1.00000000 0.64844257 0.00000000
1.00000000 0.70586240 0.00000000
1.00000000 0.76196665 0.00000000
1.00000000 0.00000000 0.91739529
1.00000000 0.00000000 0.86554301
1.00000000 0.00000000 0.81110060
1.00000000 0.00000000 0.75448316
1.00000000 0.00000000 0.69610608
1.00000000 0.00000000 0.63638455
1.00000000 0.00000000 0.57573378
1.00000000 0.00000000 0.51456904
1.00000000 0.00000000 0.45330566
1.00000000 0.00000000 0.39235878
1.00000000 0.00000000 0.33214369
1.00000000 0.00000000 0.27307567
1.00000000 0.00000000 0.21556991
1.00000000 0.00000000 0.16004170
1.00000000 0.00000000 0.10690629
1.00000000 0.00000000 0.05657889
1.00000000 0.00000000 0.00947479
1.00000000 0.03500092 0.00000000
1.00000000 0.08216210 0.00000000
1.00000000 0.13212492 0.00000000
1.00000000 0.18451631 0.00000000
1.00000000 0.23896323 0.00000000
1.00000000 0.29509264 0.00000000
1.00000000 0.35253143 0.00000000
1.00000000 0.41090661 0.00000000
1.00000000 0.46984509 0.00000000
1.00000000 0.52897382 0.00000000
1.00000000 0.58791977 0.00000000
1.00000000 0.64630985 0.00000000
1.00000000 0.70377100 0.00000000
1.00000000 0.75993025 0.00000000
1.00000000 0.81441444 0.00000000
1.00000000 0.86685055 0.00000000
1.00000000 0.00000000 0.81314456
1.00000000 0.00000000 0.75659978
1.00000000 0.00000000 0.69828010
1.00000000 0.00000000 0.63860065
1.00000000 0.00000000 0.57797670
1.00000000 0.00000000 0.51682359
1.00000000 0.00000000 0.45555642
1.00000000 0.00000000 0.39459056
1.00000000 0.00000000 0.33434120
1.00000000 0.00000000 0.27522361
1.00000000 0.00000000 0.21765302
1.00000000 0.00000000 0.16204470
1.00000000 0.00000000 0.10881389
1.00000000 0.00000000 0.05837584
1.00000000 0.00000000 0.01114579
1.00000000 0.03332416 0.00000000
1.00000000 0.08037516 0.00000000
1.00000000 0.13024151 0.00000000
1.00000000 0.18255018 0.00000000
1.00000000 0.23692808 0.00000000
1.00000000 0.29300219 0.00000000
1.00000000 0.35039943 0.00000000
1.00000000 0.40874675 0.00000000
1.00000000 0.46767113 0.00000000
1.00000000 0.52679950 0.00000000
1.00000000 0.58575875 0.00000000
1.00000000 0.64417589 0.00000000
1.00000000 0.70167786 0.00000000
1.00000000 0.75789160 0.00000000
1.00000000 0.81244397 0.00000000
1.00000000 0.86496210 0.00000000
1.00000000 0.91507280 0.00000000
1.00000000 0.96240300 0.00000000
1.00000000 0.00000000 0.70045227
1.00000000 0.00000000 0.64081550
1.00000000 0.00000000 0.58021897
1.00000000 0.00000000 0.51907790
1.00000000 0.00000000 0.45780760
1.00000000 0.00000000 0.39682329
1.00000000 0.00000000 0.33654022
1.00000000 0.00000000 0.27737364
1.00000000 0.00000000 0.21973878
1.00000000 0.00000000 0.16405091
1.00000000 0.00000000 0.11072528
1.00000000 0.00000000 0.06017712
1.00000000 0.00000000 0.01282170
1.00000000 0.03165171 0.00000000
1.00000000 0.07859202 0.00000000
1.00000000 0.12836140 0.00000000
1.00000000 0.18058683 0.00000000
1.00000000 0.23489521 0.00000000
1.00000000 0.29091352 0.00000000
1.00000000 0.34826872 0.00000000
1.00000000 0.40658769 0.00000000
1.00000000 0.46549743 0.00000000
1.00000000 0.52462488 0.00000000
1.00000000 0.58359700 0.00000000
1.00000000 0.64204067 0.00000000
1.00000000 0.69958293 0.00000000
1.00000000 0.75585067 0.00000000
1.00000000 0.81047082 0.00000000
1.00000000 0.86307037 0.00000000
1.00000000 0.91327620 0.00000000
1.00000000 0.96071535 0.00000000
0.99442840 1.00000000 0.00000000
