Horror_Effect_1.0/Horror Effect 1.0.cube
# VEGAS Pro LUT
TITLE "Horror Effect 1.0"
LUT_3D_SIZE 9
0.00166371 0.00000000 0.00000000
0.12500000 0.00000000 0.00000000
0.25000000 0.00000000 0.00000000
0.37500000 0.00000000 0.00000000
0.50000000 0.00000000 0.00000000
0.62500000 0.00000000 0.00000000
0.75000000 0.00000000 0.00000000
0.87500000 0.00000000 0.00000000
0.93554688 0.00195312 0.00000000
0.06445312 0.12304688 0.00000000
0.12500000 0.12500000 0.00000000
0.25000000 0.12500000 0.00000000
0.37500000 0.12500000 0.00000000
0.50000000 0.12500000 0.00000000
0.62500000 0.12500000 0.00000000
0.75000000 0.12500000 0.00000000
0.87500000 0.12500000 0.00000000
0.93554688 0.12695312 0.00000000
0.06445312 0.24804688 0.00000000
0.12500000 0.25000000 0.00000000
0.25000000 0.25000000 0.00000000
0.37500000 0.25000000 0.00000000
0.50000000 0.25000000 0.00000000
0.62500000 0.25000000 0.00000000
0.75000000 0.25000000 0.00000000
0.87500000 0.25000000 0.00000000
0.93554688 0.25195312 0.00000000
0.06445312 0.37304688 0.00000000
0.12500000 0.37500000 0.00000000
0.25000000 0.37500000 0.00000000
0.37500000 0.37500000 0.00000000
0.50000000 0.37500000 0.00000000
0.62500000 0.37500000 0.00000000
0.75000000 0.37500000 0.00000000
0.87500000 0.37500000 0.00000000
0.93554688 0.37695312 0.00000000
0.06445312 0.49804688 0.00000000
0.12500000 0.50000000 0.00000000
0.25000000 0.50000000 0.00000000
0.37500000 0.50000000 0.00000000
0.50000000 0.50000000 0.00000000
0.62500000 0.50000000 0.00000000
0.75000000 0.50000000 0.00000000
0.87500000 0.50000000 0.00000000
0.93554688 0.50195312 0.00000000
0.06445312 0.62304688 0.00000000
0.12500000 0.62500000 0.00000000
0.25000000 0.62500000 0.00000000
0.37500000 0.62500000 0.00000000
0.50000000 0.62500000 0.00000000
0.62500000 0.62500000 0.00000000
0.75000000 0.62500000 0.00000000
0.87500000 0.62500000 0.00000000
0.93554688 0.62695312 0.00000000
0.06445312 0.74804688 0.00000000
0.12500000 0.75000000 0.00000000
0.25000000 0.75000000 0.00000000
0.37500000 0.75000000 0.00000000
0.50000000 0.75000000 0.00000000
0.62500000 0.75000000 0.00000000
0.75000000 0.75000000 0.00000000
0.87500000 0.75000000 0.00000000
0.93554688 0.75195312 0.00000000
0.06445312 0.87304688 0.00000000
0.12500000 0.87500000 0.00000000
0.25000000 0.87500000 0.00000000
0.37500000 0.87500000 0.00000000
0.50000000 0.87500000 0.00000000
0.62500000 0.87500000 0.00000000
0.75000000 0.87500000 0.00000000
0.87500000 0.87500000 0.00000000
0.93554688 0.87695312 0.00000000
0.06445312 0.99804688 0.00000000
0.12500000 1.00000000 0.00000000
0.25000000 1.00000000 0.00000000
0.37500000 1.00000000 0.00000000
0.50000000 1.00000000 0.00000000
0.62500000 1.00000000 0.00000000
0.75000000 1.00000000 0.00000000
0.87500000 1.00000000 0.00000000
0.93097067 0.93291479 0.00000003
0.00357596 0.00190321 0.05352805
0.12500000 0.00000000 0.12500000
0.25000000 0.00000000 0.12500000
0.37500000 0.00000000 0.12500000
0.50000000 0.00000000 0.12500000
0.62500000 0.00000000 0.12500000
0.75000000 0.00000000 0.12500000
0.87500000 0.00000000 0.12500000
0.93097067 0.00000003 0.12271345
0.00189294 0.05177720 0.05367012
0.00158095 0.00157392 0.00157392
0.10051942 0.00000000 0.00000000
0.20103885 0.00000000 0.00000000
0.30155832 0.00000000 0.00000000
0.40207776 0.00000000 0.00000000
0.50259721 0.00000000 0.00000000
0.60311669 0.00000000 0.00000000
0.65180582 0.00157061 0.00000000
0.00000003 0.16327490 0.05149573
0.00158095 0.10253002 0.00157392
0.10051942 0.10051940 0.00000000
0.20103885 0.10051940 0.00000000
0.30155832 0.10051940 0.00000000
0.40207776 0.10051940 0.00000000
0.50259721 0.10051940 0.00000000
0.60311669 0.10051940 0.00000000
0.65180582 0.10209003 0.00000000
0.00000003 0.27694514 0.05149573
0.00158095 0.20348616 0.00157392
0.10051942 0.20103888 0.00000000
0.20103885 0.20103888 0.00000000
0.30155832 0.20103888 0.00000000
0.40207776 0.20103888 0.00000000
0.50259721 0.20103888 0.00000000
0.60311669 0.20103888 0.00000000
0.65180582 0.20260948 0.00000000
0.00000003 0.39061540 0.05149573
0.00158095 0.30444229 0.00157392
0.10051942 0.30155832 0.00000000
0.20103885 0.30155832 0.00000000
0.30155832 0.30155832 0.00000000
0.40207776 0.30155832 0.00000000
0.50259721 0.30155832 0.00000000
0.60311669 0.30155832 0.00000000
0.65180582 0.30312893 0.00000000
0.00000003 0.50428563 0.05149573
0.00158095 0.40539843 0.00157392
0.10051942 0.40207776 0.00000000
0.20103885 0.40207776 0.00000000
0.30155832 0.40207776 0.00000000
0.40207776 0.40207776 0.00000000
0.50259721 0.40207776 0.00000000
0.60311669 0.40207776 0.00000000
0.65180582 0.40364838 0.00000000
0.00000003 0.61795586 0.05149573
0.00158095 0.50635457 0.00157392
0.10051942 0.50259721 0.00000000
0.20103885 0.50259721 0.00000000
0.30155832 0.50259721 0.00000000
0.40207776 0.50259721 0.00000000
0.50259721 0.50259721 0.00000000
0.60311669 0.50259721 0.00000000
0.65180582 0.50416785 0.00000000
0.00000003 0.73162609 0.05149573
0.00158095 0.60731065 0.00157392
0.10051942 0.60311669 0.00000000
0.20103885 0.60311669 0.00000000
0.30155832 0.60311669 0.00000000
0.40207776 0.60311669 0.00000000
0.50259721 0.60311669 0.00000000
0.60311669 0.60311669 0.00000000
0.65180582 0.60468727 0.00000000
0.00000003 0.84529638 0.05149573
0.00158095 0.70826679 0.00157392
0.10051942 0.70363611 0.00000000
0.20103885 0.70363611 0.00000000
0.30155832 0.70363611 0.00000000
0.40207776 0.70363611 0.00000000
0.50259721 0.70363611 0.00000000
0.60311669 0.70363611 0.00000000
0.64729232 0.64885259 0.00000000
0.00166371 0.00000000 0.16542001
0.12500000 0.00000000 0.25000000
0.25000000 0.00000000 0.25000000
0.37500000 0.00000000 0.25000000
0.50000000 0.00000000 0.25000000
0.62500000 0.00000000 0.25000000
0.75000000 0.00000000 0.25000000
0.87500000 0.00000000 0.25000000
0.93097067 0.00000003 0.24737857
0.00189294 0.05177720 0.16769126
0.00158095 0.00157392 0.10253002
0.10051942 0.00000000 0.10051940
0.20103885 0.00000000 0.10051940
0.30155832 0.00000000 0.10051940
0.40207776 0.00000000 0.10051940
0.50259721 0.00000000 0.10051940
0.60311669 0.00000000 0.10051940
0.64729232 0.00000000 0.09851450
0.00000003 0.16327490 0.16516593
0.00000000 0.10050740 0.10050740
0.00107264 0.00106710 0.00106710
0.06787869 0.00000000 0.00000000
0.13575737 0.00000000 0.00000000
0.20363607 0.00000000 0.00000000
0.27151477 0.00000000 0.00000000
0.33939347 0.00000000 0.00000000
0.37227222 0.00106060 0.00000000
0.00000003 0.27694514 0.16516593
0.00000000 0.20102885 0.10050740
0.00107264 0.06953970 0.00106710
0.06787869 0.06787868 0.00000000
0.13575737 0.06787868 0.00000000
0.20363607 0.06787868 0.00000000
0.27151477 0.06787868 0.00000000
0.33939347 0.06787868 0.00000000
0.37227222 0.06893929 0.00000000
0.00000003 0.39061540 0.16516593
0.00000000 0.30155030 0.10050740
0.00107264 0.13801233 0.00106710
0.06787869 0.13575737 0.00000000
0.13575737 0.13575737 0.00000000
0.20363607 0.13575737 0.00000000
0.27151477 0.13575737 0.00000000
0.33939347 0.13575737 0.00000000
0.37227222 0.13681798 0.00000000
0.00000003 0.50428563 0.16516593
0.00000000 0.40207174 0.10050740
0.00107264 0.20648497 0.00106710
0.06787869 0.20363608 0.00000000
0.13575737 0.20363608 0.00000000
0.20363607 0.20363608 0.00000000
0.27151477 0.20363608 0.00000000
0.33939347 0.20363608 0.00000000
0.37227222 0.20469670 0.00000000
0.00000003 0.61795586 0.16516593
0.00000000 0.50259322 0.10050740
0.00107264 0.27495757 0.00106710
0.06787869 0.27151474 0.00000000
0.13575737 0.27151474 0.00000000
0.20363607 0.27151474 0.00000000
0.27151477 0.27151474 0.00000000
0.33939347 0.27151474 0.00000000
0.37227222 0.27257538 0.00000000
0.00000003 0.73162609 0.16516593
0.00000000 0.60311466 0.10050740
0.00107264 0.34343022 0.00106710
0.06787869 0.33939347 0.00000000
0.13575737 0.33939347 0.00000000
0.20363607 0.33939347 0.00000000
0.27151477 0.33939347 0.00000000
0.33939347 0.33939347 0.00000000
0.37227222 0.34045407 0.00000000
0.00000003 0.84529638 0.16516593
0.00000000 0.70363611 0.10050740
0.00107264 0.41190284 0.00106710
0.06787869 0.40727216 0.00000000
0.13575737 0.40727216 0.00000000
0.20363607 0.40727216 0.00000000
0.27151477 0.40727216 0.00000000
0.33939347 0.40727216 0.00000000
0.36786383 0.36891234 0.00000000
0.00166371 0.00000000 0.27950278
0.12500000 0.00000000 0.37500000
0.25000000 0.00000000 0.37500000
0.37500000 0.00000000 0.37500000
0.50000000 0.00000000 0.37500000
0.62500000 0.00000000 0.37500000
0.75000000 0.00000000 0.37500000
0.87500000 0.00000000 0.37500000
0.93097067 0.00000003 0.37204370
0.00189294 0.05177720 0.28171238
0.00158095 0.00157392 0.20348616
0.10051942 0.00000000 0.20103888
0.20103885 0.00000000 0.20103888
0.30155832 0.00000000 0.20103888
0.40207776 0.00000000 0.20103888
0.50259721 0.00000000 0.20103888
0.60311669 0.00000000 0.20103888
0.64729232 0.00000000 0.19859633
0.00000003 0.16327490 0.27883619
0.00000000 0.10050740 0.20102885
0.00107264 0.00106710 0.06953970
0.06787869 0.00000000 0.06787868
0.13575737 0.00000000 0.06787868
0.20363607 0.00000000 0.06787868
0.27151477 0.00000000 0.06787868
0.33939347 0.00000000 0.06787868
0.36786383 0.00000000 0.06622855
0.00000003 0.27694514 0.27883619
0.00000000 0.20102885 0.20102885
-0.00000002 0.06786948 0.06786948
0.00036106 0.00035882 0.00035882
0.02218165 0.00000000 0.00000000
0.04436330 0.00000000 0.00000000
0.06654495 0.00000000 0.00000000
0.08872660 0.00000000 0.00000000
0.09947083 0.00034659 0.00000000
0.00000003 0.39061540 0.27883619
0.00000000 0.30155030 0.20102885
-0.00000002 0.13575001 0.06786948
0.00036106 0.02339484 0.00035882
0.02218165 0.02218165 0.00000000
0.04436330 0.02218165 0.00000000
0.06654495 0.02218165 0.00000000
0.08872660 0.02218165 0.00000000
0.09947083 0.02252824 0.00000000
0.00000003 0.50428563 0.27883619
0.00000000 0.40207174 0.20102885
-0.00000002 0.20363055 0.06786948
0.00036106 0.04643086 0.00035882
0.02218165 0.04436329 0.00000000
0.04436330 0.04436329 0.00000000
0.06654495 0.04436329 0.00000000
0.08872660 0.04436329 0.00000000
0.09947083 0.04470988 0.00000000
0.00000003 0.61795586 0.27883619
0.00000000 0.50259322 0.20102885
-0.00000002 0.27151108 0.06786948
0.00036106 0.06946689 0.00035882
0.02218165 0.06654495 0.00000000
0.04436330 0.06654495 0.00000000
0.06654495 0.06654495 0.00000000
0.08872660 0.06654495 0.00000000
0.09947083 0.06689154 0.00000000
0.00000003 0.73162609 0.27883619
0.00000000 0.60311466 0.20102885
-0.00000002 0.33939165 0.06786948
0.00036106 0.09250291 0.00035882
0.02218165 0.08872660 0.00000000
0.04436330 0.08872660 0.00000000
0.06654495 0.08872660 0.00000000
0.08872660 0.08872660 0.00000000
0.09947083 0.08907318 0.00000000
0.00000003 0.84529638 0.27883619
0.00000000 0.70363611 0.20102885
-0.00000002 0.40727216 0.06786948
0.00036106 0.11553893 0.00035882
0.02218165 0.11090824 0.00000000
0.04436330 0.11090824 0.00000000
0.06654495 0.11090824 0.00000000
0.08872660 0.11090824 0.00000000
0.09525084 0.09558296 0.00000000
0.00166371 0.00000000 0.39358559
0.12500000 0.00000000 0.50000000
0.25000000 0.00000000 0.50000000
0.37500000 0.00000000 0.50000000
0.50000000 0.00000000 0.50000000
0.62500000 0.00000000 0.50000000
0.75000000 0.00000000 0.50000000
0.87500000 0.00000000 0.50000000
0.93097067 0.00000003 0.49670881
0.00189294 0.05177720 0.39573354
0.00158095 0.00157392 0.30444229
0.10051942 0.00000000 0.30155832
0.20103885 0.00000000 0.30155832
0.30155832 0.00000000 0.30155832
0.40207776 0.00000000 0.30155832
0.50259721 0.00000000 0.30155832
0.60311669 0.00000000 0.30155832
0.64729232 0.00000000 0.29867816
0.00000003 0.16327490 0.39250642
0.00000000 0.10050740 0.30155030
0.00107264 0.00106710 0.13801233
0.06787869 0.00000000 0.13575737
0.13575737 0.00000000 0.13575737
0.20363607 0.00000000 0.13575737
0.27151477 0.00000000 0.13575737
0.33939347 0.00000000 0.13575737
0.36786383 0.00000000 0.13351113
0.00000003 0.27694514 0.39250642
0.00000000 0.20102885 0.30155030
-0.00000002 0.06786948 0.13575001
0.00036106 0.00035882 0.02339484
0.02218165 0.00000000 0.02218165
0.04436330 0.00000000 0.02218165
0.06654495 0.00000000 0.02218165
0.08872660 0.00000000 0.02218165
0.09525084 0.00000000 0.02098815
0.00000003 0.39061540 0.39250642
0.00000000 0.30155030 0.30155030
-0.00000002 0.13575001 0.13575001
0.00000000 0.02217818 0.02217818
0.00000000 0.00000000 0.00000000
0.00000000 0.00000000 0.00000000
0.00000000 0.00000000 0.00000000
0.00000000 0.00000000 0.00000000
0.00000000 0.00000000 0.00000000
0.00000003 0.50428563 0.39250642
0.00000000 0.40207174 0.30155030
-0.00000002 0.20363055 0.13575001
0.00000000 0.04436070 0.02217818
0.00000000 0.00000000 0.00000000
0.00000000 0.00000000 0.00000000
0.00000000 0.00000000 0.00000000
0.00000000 0.00000000 0.00000000
0.00000000 0.00000000 0.00000000
0.00000003 0.61795586 0.39250642
0.00000000 0.50259322 0.30155030
-0.00000002 0.27151108 0.13575001
0.00000000 0.06654322 0.02217818
0.00000000 0.00000000 0.00000000
0.00000000 0.00000000 0.00000000
0.00000000 0.00000000 0.00000000
0.00000000 0.00000000 0.00000000
0.00000000 0.00000000 0.00000000
0.00000003 0.73162609 0.39250642
0.00000000 0.60311466 0.30155030
-0.00000002 0.33939165 0.13575001
0.00000000 0.08872573 0.02217818
0.00000000 0.00000000 0.00000000
0.00000000 0.00000000 0.00000000
0.00000000 0.00000000 0.00000000
0.00000000 0.00000000 0.00000000
0.00000000 0.00000000 0.00000000
0.00000003 0.84529638 0.39250642
0.00000000 0.70363611 0.30155030
-0.00000002 0.40727216 0.13575001
0.00000000 0.11090825 0.02217818
0.00000000 0.00000000 0.00000000
0.00000000 0.00000000 0.00000000
0.00000000 0.00000000 0.00000000
0.00000000 0.00000000 0.00000000
0.00000000 0.00000000 0.00000000
0.00166371 0.00000000 0.50766838
0.12500000 0.00000000 0.62500000
0.25000000 0.00000000 0.62500000
0.37500000 0.00000000 0.62500000
0.50000000 0.00000000 0.62500000
0.62500000 0.00000000 0.62500000
0.75000000 0.00000000 0.62500000
0.87500000 0.00000000 0.62500000
0.93097067 0.00000003 0.62137395
0.00189294 0.05177720 0.50975472
0.00158095 0.00157392 0.40539843
0.10051942 0.00000000 0.40207776
0.20103885 0.00000000 0.40207776
0.30155832 0.00000000 0.40207776
0.40207776 0.00000000 0.40207776
0.50259721 0.00000000 0.40207776
0.60311669 0.00000000 0.40207776
0.64729232 0.00000000 0.39875999
0.00000003 0.16327490 0.50617665
0.00000000 0.10050740 0.40207174
0.00107264 0.00106710 0.20648497
0.06787869 0.00000000 0.20363608
0.13575737 0.00000000 0.20363608
0.20363607 0.00000000 0.20363608
0.27151477 0.00000000 0.20363608
0.33939347 0.00000000 0.20363608
0.36786383 0.00000000 0.20079371
0.00000003 0.27694514 0.50617665
0.00000000 0.20102885 0.40207174
-0.00000002 0.06786948 0.20363055
0.00036106 0.00035882 0.04643086
0.02218165 0.00000000 0.04436329
0.04436330 0.00000000 0.04436329
0.06654495 0.00000000 0.04436329
0.08872660 0.00000000 0.04436329
0.09525084 0.00000000 0.04231049
0.00000003 0.39061540 0.50617665
0.00000000 0.30155030 0.40207174
-0.00000002 0.13575001 0.20363055
0.00000000 0.02217818 0.04436070
0.00000000 0.00000000 0.00000000
0.00000000 0.00000000 0.00000000
0.00000000 0.00000000 0.00000000
0.00000000 0.00000000 0.00000000
0.00000000 0.00000000 0.00000000
0.00000003 0.50428563 0.50617665
0.00000000 0.40207174 0.40207174
-0.00000002 0.20363055 0.20363055
0.00000000 0.04436070 0.04436070
0.00000000 0.00000000 0.00000000
0.00000000 0.00000000 0.00000000
0.00000000 0.00000000 0.00000000
0.00000000 0.00000000 0.00000000
0.00000000 0.00000000 0.00000000
0.00000003 0.61795586 0.50617665
0.00000000 0.50259322 0.40207174
-0.00000002 0.27151108 0.20363055
0.00000000 0.06654322 0.04436070
0.00000000 0.00000000 0.00000000
0.00000000 0.00000000 0.00000000
0.00000000 0.00000000 0.00000000
0.00000000 0.00000000 0.00000000
0.00000000 0.00000000 0.00000000
0.00000003 0.73162609 0.50617665
0.00000000 0.60311466 0.40207174
-0.00000002 0.33939165 0.20363055
0.00000000 0.08872573 0.04436070
0.00000000 0.00000000 0.00000000
0.00000000 0.00000000 0.00000000
0.00000000 0.00000000 0.00000000
0.00000000 0.00000000 0.00000000
0.00000000 0.00000000 0.00000000
0.00000003 0.84529638 0.50617665
0.00000000 0.70363611 0.40207174
-0.00000002 0.40727216 0.20363055
0.00000000 0.11090825 0.04436070
0.00000000 0.00000000 0.00000000
0.00000000 0.00000000 0.00000000
0.00000000 0.00000000 0.00000000
0.00000000 0.00000000 0.00000000
0.00000000 0.00000000 0.00000000
0.00166371 0.00000000 0.62175119
0.12500000 0.00000000 0.75000000
0.25000000 0.00000000 0.75000000
0.37500000 0.00000000 0.75000000
0.50000000 0.00000000 0.75000000
0.62500000 0.00000000 0.75000000
0.75000000 0.00000000 0.75000000
0.87500000 0.00000000 0.75000000
0.93097067 0.00000003 0.74603909
0.00189294 0.05177720 0.62377578
0.00158095 0.00157392 0.50635457
0.10051942 0.00000000 0.50259721
0.20103885 0.00000000 0.50259721
0.30155832 0.00000000 0.50259721
0.40207776 0.00000000 0.50259721
0.50259721 0.00000000 0.50259721
0.60311669 0.00000000 0.50259721
0.64729232 0.00000000 0.49884179
0.00000003 0.16327490 0.61984694
0.00000000 0.10050740 0.50259322
0.00107264 0.00106710 0.27495757
0.06787869 0.00000000 0.27151474
0.13575737 0.00000000 0.27151474
0.20363607 0.00000000 0.27151474
0.27151477 0.00000000 0.27151474
0.33939347 0.00000000 0.27151474
0.36786383 0.00000000 0.26807630
0.00000003 0.27694514 0.61984694
0.00000000 0.20102885 0.50259322
-0.00000002 0.06786948 0.27151108
0.00036106 0.00035882 0.06946689
0.02218165 0.00000000 0.06654495
0.04436330 0.00000000 0.06654495
0.06654495 0.00000000 0.06654495
0.08872660 0.00000000 0.06654495
0.09525084 0.00000000 0.06363285
0.00000003 0.39061540 0.61984694
0.00000000 0.30155030 0.50259322
-0.00000002 0.13575001 0.27151108
0.00000000 0.02217818 0.06654322
0.00000000 0.00000000 0.00000000
0.00000000 0.00000000 0.00000000
0.00000000 0.00000000 0.00000000
0.00000000 0.00000000 0.00000000
0.00000000 0.00000000 0.00000000
0.00000003 0.50428563 0.61984694
0.00000000 0.40207174 0.50259322
-0.00000002 0.20363055 0.27151108
0.00000000 0.04436070 0.06654322
0.00000000 0.00000000 0.00000000
0.00000000 0.00000000 0.00000000
0.00000000 0.00000000 0.00000000
0.00000000 0.00000000 0.00000000
0.00000000 0.00000000 0.00000000
0.00000003 0.61795586 0.61984694
0.00000000 0.50259322 0.50259322
-0.00000002 0.27151108 0.27151108
0.00000000 0.06654322 0.06654322
0.00000000 0.00000000 0.00000000
0.00000000 0.00000000 0.00000000
0.00000000 0.00000000 0.00000000
0.00000000 0.00000000 0.00000000
0.00000000 0.00000000 0.00000000
0.00000003 0.73162609 0.61984694
0.00000000 0.60311466 0.50259322
-0.00000002 0.33939165 0.27151108
0.00000000 0.08872573 0.06654322
0.00000000 0.00000000 0.00000000
0.00000000 0.00000000 0.00000000
0.00000000 0.00000000 0.00000000
0.00000000 0.00000000 0.00000000
0.00000000 0.00000000 0.00000000
0.00000003 0.84529638 0.61984694
0.00000000 0.70363611 0.50259322
-0.00000002 0.40727216 0.27151108
0.00000000 0.11090825 0.06654322
0.00000000 0.00000000 0.00000000
0.00000000 0.00000000 0.00000000
0.00000000 0.00000000 0.00000000
0.00000000 0.00000000 0.00000000
0.00000000 0.00000000 0.00000000
0.00166371 0.00000000 0.73583388
0.12500000 0.00000000 0.87500000
0.25000000 0.00000000 0.87500000
0.37500000 0.00000000 0.87500000
0.50000000 0.00000000 0.87500000
0.62500000 0.00000000 0.87500000
0.75000000 0.00000000 0.87500000
0.87500000 0.00000000 0.87500000
0.93097067 0.00000003 0.87070417
0.00189294 0.05177720 0.73779696
0.00158095 0.00157392 0.60731065
0.10051942 0.00000000 0.60311669
0.20103885 0.00000000 0.60311669
0.30155832 0.00000000 0.60311669
0.40207776 0.00000000 0.60311669
0.50259721 0.00000000 0.60311669
0.60311669 0.00000000 0.60311669
0.64729232 0.00000000 0.59892362
0.00000003 0.16327490 0.73351717
0.00000000 0.10050740 0.60311466
0.00107264 0.00106710 0.34343022
0.06787869 0.00000000 0.33939347
0.13575737 0.00000000 0.33939347
0.20363607 0.00000000 0.33939347
0.27151477 0.00000000 0.33939347
0.33939347 0.00000000 0.33939347
0.36786383 0.00000000 0.33535892
0.00000003 0.27694514 0.73351717
0.00000000 0.20102885 0.60311466
-0.00000002 0.06786948 0.33939165
0.00036106 0.00035882 0.09250291
0.02218165 0.00000000 0.08872660
0.04436330 0.00000000 0.08872660
0.06654495 0.00000000 0.08872660
0.08872660 0.00000000 0.08872660
0.09525084 0.00000000 0.08495521
0.00000003 0.39061540 0.73351717
0.00000000 0.30155030 0.60311466
-0.00000002 0.13575001 0.33939165
0.00000000 0.02217818 0.08872573
0.00000000 0.00000000 0.00000000
0.00000000 0.00000000 0.00000000
0.00000000 0.00000000 0.00000000
0.00000000 0.00000000 0.00000000
0.00000000 0.00000000 0.00000000
0.00000003 0.50428563 0.73351717
0.00000000 0.40207174 0.60311466
-0.00000002 0.20363055 0.33939165
0.00000000 0.04436070 0.08872573
0.00000000 0.00000000 0.00000000
0.00000000 0.00000000 0.00000000
0.00000000 0.00000000 0.00000000
0.00000000 0.00000000 0.00000000
0.00000000 0.00000000 0.00000000
0.00000003 0.61795586 0.73351717
0.00000000 0.50259322 0.60311466
-0.00000002 0.27151108 0.33939165
0.00000000 0.06654322 0.08872573
0.00000000 0.00000000 0.00000000
0.00000000 0.00000000 0.00000000
0.00000000 0.00000000 0.00000000
0.00000000 0.00000000 0.00000000
0.00000000 0.00000000 0.00000000
0.00000003 0.73162609 0.73351717
0.00000000 0.60311466 0.60311466
-0.00000002 0.33939165 0.33939165
0.00000000 0.08872573 0.08872573
0.00000000 0.00000000 0.00000000
0.00000000 0.00000000 0.00000000
0.00000000 0.00000000 0.00000000
0.00000000 0.00000000 0.00000000
0.00000000 0.00000000 0.00000000
0.00000003 0.84529638 0.73351717
0.00000000 0.70363611 0.60311466
-0.00000002 0.40727216 0.33939165
0.00000000 0.11090825 0.08872573
0.00000000 0.00000000 0.00000000
0.00000000 0.00000000 0.00000000
0.00000000 0.00000000 0.00000000
0.00000000 0.00000000 0.00000000
0.00000000 0.00000000 0.00000000
0.00166371 0.00000000 0.84991670
0.12500000 0.00000000 1.00000000
0.25000000 0.00000000 1.00000000
0.37500000 0.00000000 1.00000000
0.50000000 0.00000000 1.00000000
0.62500000 0.00000000 1.00000000
0.75000000 0.00000000 1.00000000
0.87500000 0.00000000 1.00000000
0.93097067 0.00000003 0.99536932
0.00189294 0.05177720 0.85181808
0.00158095 0.00157392 0.70826679
0.10051942 0.00000000 0.70363611
0.20103885 0.00000000 0.70363611
0.30155832 0.00000000 0.70363611
0.40207776 0.00000000 0.70363611
0.50259721 0.00000000 0.70363611
0.60311669 0.00000000 0.70363611
0.64729232 0.00000000 0.69900542
0.00000003 0.16327490 0.84718740
0.00000000 0.10050740 0.70363611
0.00107264 0.00106710 0.41190284
0.06787869 0.00000000 0.40727216
0.13575737 0.00000000 0.40727216
0.20363607 0.00000000 0.40727216
0.27151477 0.00000000 0.40727216
0.33939347 0.00000000 0.40727216
0.36786383 0.00000000 0.40264148
0.00000003 0.27694514 0.84718740
0.00000000 0.20102885 0.70363611
-0.00000002 0.06786948 0.40727216
0.00036106 0.00035882 0.11553893
0.02218165 0.00000000 0.11090824
0.04436330 0.00000000 0.11090824
0.06654495 0.00000000 0.11090824
0.08872660 0.00000000 0.11090824
0.09525084 0.00000000 0.10627756
0.00000003 0.39061540 0.84718740
0.00000000 0.30155030 0.70363611
-0.00000002 0.13575001 0.40727216
0.00000000 0.02217818 0.11090825
0.00000000 0.00000000 0.00000000
0.00000000 0.00000000 0.00000000
0.00000000 0.00000000 0.00000000
0.00000000 0.00000000 0.00000000
0.00000000 0.00000000 0.00000000
0.00000003 0.50428563 0.84718740
0.00000000 0.40207174 0.70363611
-0.00000002 0.20363055 0.40727216
0.00000000 0.04436070 0.11090825
0.00000000 0.00000000 0.00000000
0.00000000 0.00000000 0.00000000
0.00000000 0.00000000 0.00000000
0.00000000 0.00000000 0.00000000
0.00000000 0.00000000 0.00000000
0.00000003 0.61795586 0.84718740
0.00000000 0.50259322 0.70363611
-0.00000002 0.27151108 0.40727216
0.00000000 0.06654322 0.11090825
0.00000000 0.00000000 0.00000000
0.00000000 0.00000000 0.00000000
0.00000000 0.00000000 0.00000000
0.00000000 0.00000000 0.00000000
0.00000000 0.00000000 0.00000000
0.00000003 0.73162609 0.84718740
0.00000000 0.60311466 0.70363611
-0.00000002 0.33939165 0.40727216
0.00000000 0.08872573 0.11090825
0.00000000 0.00000000 0.00000000
0.00000000 0.00000000 0.00000000
0.00000000 0.00000000 0.00000000
0.00000000 0.00000000 0.00000000
0.00000000 0.00000000 0.00000000
0.00000003 0.84529638 0.84718740
0.00000000 0.70363611 0.70363611
-0.00000002 0.40727216 0.40727216
0.00000000 0.11090825 0.11090825
0.00000000 0.00000000 0.00000000
0.00000000 0.00000000 0.00000000
0.00000000 0.00000000 0.00000000
0.00000000 0.00000000 0.00000000
0.00000000 0.00000000 0.00000000
