Horror_Effect_1.0/Horror Effect 1.0.cube
# VEGAS Pro LUT
TITLE "Horror Effect 1.0"
LUT_3D_SIZE 5
0.00166371 0.00000000 0.00000000
0.25000000 0.00000000 0.00000000
0.50000000 0.00000000 0.00000000
0.75000000 0.00000000 0.00000000
0.93554688 0.00195312 0.00000000
0.06445312 0.24804688 0.00000000
0.25000000 0.25000000 0.00000000
0.50000000 0.25000000 0.00000000
0.75000000 0.25000000 0.00000000
0.93554688 0.25195312 0.00000000
0.06445312 0.49804688 0.00000000
0.25000000 0.50000000 0.00000000
0.50000000 0.50000000 0.00000000
0.75000000 0.50000000 0.00000000
0.93554688 0.50195312 0.00000000
0.06445312 0.74804688 0.00000000
0.25000000 0.75000000 0.00000000
0.50000000 0.75000000 0.00000000
0.75000000 0.75000000 0.00000000
0.93554688 0.75195312 0.00000000
0.06445312 0.99804688 0.00000000
0.25000000 1.00000000 0.00000000
0.50000000 1.00000000 0.00000000
0.75000000 1.00000000 0.00000000
0.93097067 0.93291479 0.00000003
0.00166371 0.00000000 0.16542001
0.25000000 0.00000000 0.25000000
0.50000000 0.00000000 0.25000000
0.75000000 0.00000000 0.25000000
0.93097067 0.00000003 0.24737857
0.00000003 0.16327490 0.16516593
0.00107264 0.00106710 0.00106710
0.13575737 0.00000000 0.00000000
0.27151477 0.00000000 0.00000000
0.37227222 0.00106060 0.00000000
0.00000003 0.39061540 0.16516593
0.00107264 0.13801233 0.00106710
0.13575737 0.13575737 0.00000000
0.27151477 0.13575737 0.00000000
0.37227222 0.13681798 0.00000000
0.00000003 0.61795586 0.16516593
0.00107264 0.27495757 0.00106710
0.13575737 0.27151474 0.00000000
0.27151477 0.27151474 0.00000000
0.37227222 0.27257538 0.00000000
0.00000003 0.84529638 0.16516593
0.00107264 0.41190284 0.00106710
0.13575737 0.40727216 0.00000000
0.27151477 0.40727216 0.00000000
0.36786383 0.36891234 0.00000000
0.00166371 0.00000000 0.39358559
0.25000000 0.00000000 0.50000000
0.50000000 0.00000000 0.50000000
0.75000000 0.00000000 0.50000000
0.93097067 0.00000003 0.49670881
0.00000003 0.16327490 0.39250642
0.00107264 0.00106710 0.13801233
0.13575737 0.00000000 0.13575737
0.27151477 0.00000000 0.13575737
0.36786383 0.00000000 0.13351113
0.00000003 0.39061540 0.39250642
-0.00000002 0.13575001 0.13575001
0.00000000 0.00000000 0.00000000
0.00000000 0.00000000 0.00000000
0.00000000 0.00000000 0.00000000
0.00000003 0.61795586 0.39250642
-0.00000002 0.27151108 0.13575001
0.00000000 0.00000000 0.00000000
0.00000000 0.00000000 0.00000000
0.00000000 0.00000000 0.00000000
0.00000003 0.84529638 0.39250642
-0.00000002 0.40727216 0.13575001
0.00000000 0.00000000 0.00000000
0.00000000 0.00000000 0.00000000
0.00000000 0.00000000 0.00000000
0.00166371 0.00000000 0.62175119
0.25000000 0.00000000 0.75000000
0.50000000 0.00000000 0.75000000
0.75000000 0.00000000 0.75000000
0.93097067 0.00000003 0.74603909
0.00000003 0.16327490 0.61984694
0.00107264 0.00106710 0.27495757
0.13575737 0.00000000 0.27151474
0.27151477 0.00000000 0.27151474
0.36786383 0.00000000 0.26807630
0.00000003 0.39061540 0.61984694
-0.00000002 0.13575001 0.27151108
0.00000000 0.00000000 0.00000000
0.00000000 0.00000000 0.00000000
0.00000000 0.00000000 0.00000000
0.00000003 0.61795586 0.61984694
-0.00000002 0.27151108 0.27151108
0.00000000 0.00000000 0.00000000
0.00000000 0.00000000 0.00000000
0.00000000 0.00000000 0.00000000
0.00000003 0.84529638 0.61984694
-0.00000002 0.40727216 0.27151108
0.00000000 0.00000000 0.00000000
0.00000000 0.00000000 0.00000000
0.00000000 0.00000000 0.00000000
0.00166371 0.00000000 0.84991670
0.25000000 0.00000000 1.00000000
0.50000000 0.00000000 1.00000000
0.75000000 0.00000000 1.00000000
0.93097067 0.00000003 0.99536932
0.00000003 0.16327490 0.84718740
0.00107264 0.00106710 0.41190284
0.13575737 0.00000000 0.40727216
0.27151477 0.00000000 0.40727216
0.36786383 0.00000000 0.40264148
0.00000003 0.39061540 0.84718740
-0.00000002 0.13575001 0.40727216
0.00000000 0.00000000 0.00000000
0.00000000 0.00000000 0.00000000
0.00000000 0.00000000 0.00000000
0.00000003 0.61795586 0.84718740
-0.00000002 0.27151108 0.40727216
0.00000000 0.00000000 0.00000000
0.00000000 0.00000000 0.00000000
0.00000000 0.00000000 0.00000000
0.00000003 0.84529638 0.84718740
-0.00000002 0.40727216 0.40727216
0.00000000 0.00000000 0.00000000
0.00000000 0.00000000 0.00000000
0.00000000 0.00000000 0.00000000
