Horror_Effect_1.0/Horror Effect 1.0.cube
# VEGAS Pro LUT
TITLE "Horror Effect 1.0"
LUT_3D_SIZE 33
0.00166371 0.00000000 0.00000000
0.03125000 0.00000000 0.00000000
0.06250000 0.00000000 0.00000000
0.09375000 0.00000000 0.00000000
0.12500000 0.00000000 0.00000000
0.15625000 0.00000000 0.00000000
0.18750000 0.00000000 0.00000000
0.21875000 0.00000000 0.00000000
0.25000000 0.00000000 0.00000000
0.28125000 0.00000000 0.00000000
0.31250000 0.00000000 0.00000000
0.34375000 0.00000000 0.00000000
0.37500000 0.00000000 0.00000000
0.40625000 0.00000000 0.00000000
0.43750000 0.00000000 0.00000000
0.46875000 0.00000000 0.00000000
0.50000000 0.00000000 0.00000000
0.53125000 0.00000000 0.00000000
0.56250000 0.00000000 0.00000000
0.59375000 0.00000000 0.00000000
0.62500000 0.00000000 0.00000000
0.65625000 0.00000000 0.00000000
0.68750000 0.00000000 0.00000000
0.71875000 0.00000000 0.00000000
0.75000000 0.00000000 0.00000000
0.78125000 0.00000000 0.00000000
0.81250000 0.00000000 0.00000000
0.84375000 0.00000000 0.00000000
0.87500000 0.00000000 0.00000000
0.90625000 0.00000000 0.00000000
0.93750000 0.00000000 0.00000000
0.96875000 0.00000000 0.00000000
0.93554688 0.00195312 0.00000000
0.06445312 0.02929688 0.00000000
0.03125000 0.03125000 0.00000000
0.06250000 0.03125000 0.00000000
0.09375000 0.03125000 0.00000000
0.12500000 0.03125000 0.00000000
0.15625000 0.03125000 0.00000000
0.18750000 0.03125000 0.00000000
0.21875000 0.03125000 0.00000000
0.25000000 0.03125000 0.00000000
0.28125000 0.03125000 0.00000000
0.31250000 0.03125000 0.00000000
0.34375000 0.03125000 0.00000000
0.37500000 0.03125000 0.00000000
0.40625000 0.03125000 0.00000000
0.43750000 0.03125000 0.00000000
0.46875000 0.03125000 0.00000000
0.50000000 0.03125000 0.00000000
0.53125000 0.03125000 0.00000000
0.56250000 0.03125000 0.00000000
0.59375000 0.03125000 0.00000000
0.62500000 0.03125000 0.00000000
0.65625000 0.03125000 0.00000000
0.68750000 0.03125000 0.00000000
0.71875000 0.03125000 0.00000000
0.75000000 0.03125000 0.00000000
0.78125000 0.03125000 0.00000000
0.81250000 0.03125000 0.00000000
0.84375000 0.03125000 0.00000000
0.87500000 0.03125000 0.00000000
0.90625000 0.03125000 0.00000000
0.93750000 0.03125000 0.00000000
0.96875000 0.03125000 0.00000000
0.93554688 0.03320312 0.00000000
0.06445312 0.06054688 0.00000000
0.03125000 0.06250000 0.00000000
0.06250000 0.06250000 0.00000000
0.09375000 0.06250000 0.00000000
0.12500000 0.06250000 0.00000000
0.15625000 0.06250000 0.00000000
0.18750000 0.06250000 0.00000000
0.21875000 0.06250000 0.00000000
0.25000000 0.06250000 0.00000000
0.28125000 0.06250000 0.00000000
0.31250000 0.06250000 0.00000000
0.34375000 0.06250000 0.00000000
0.37500000 0.06250000 0.00000000
0.40625000 0.06250000 0.00000000
0.43750000 0.06250000 0.00000000
0.46875000 0.06250000 0.00000000
0.50000000 0.06250000 0.00000000
0.53125000 0.06250000 0.00000000
0.56250000 0.06250000 0.00000000
0.59375000 0.06250000 0.00000000
0.62500000 0.06250000 0.00000000
0.65625000 0.06250000 0.00000000
0.68750000 0.06250000 0.00000000
0.71875000 0.06250000 0.00000000
0.75000000 0.06250000 0.00000000
0.78125000 0.06250000 0.00000000
0.81250000 0.06250000 0.00000000
0.84375000 0.06250000 0.00000000
0.87500000 0.06250000 0.00000000
0.90625000 0.06250000 0.00000000
0.93750000 0.06250000 0.00000000
0.96875000 0.06250000 0.00000000
0.93554688 0.06445312 0.00000000
0.06445312 0.09179688 0.00000000
0.03125000 0.09375000 0.00000000
0.06250000 0.09375000 0.00000000
0.09375000 0.09375000 0.00000000
0.12500000 0.09375000 0.00000000
0.15625000 0.09375000 0.00000000
0.18750000 0.09375000 0.00000000
0.21875000 0.09375000 0.00000000
0.25000000 0.09375000 0.00000000
0.28125000 0.09375000 0.00000000
0.31250000 0.09375000 0.00000000
0.34375000 0.09375000 0.00000000
0.37500000 0.09375000 0.00000000
0.40625000 0.09375000 0.00000000
0.34771481 0.07486682 0.00000000
0.48242188 0.13085938 0.00000000
0.50000000 0.09375000 0.00000000
0.53125000 0.09375000 0.00000000
0.56250000 0.09375000 0.00000000
0.59375000 0.09375000 0.00000000
0.62500000 0.09375000 0.00000000
0.65625000 0.09375000 0.00000000
0.68750000 0.09375000 0.00000000
0.71875000 0.09375000 0.00000000
0.75000000 0.09375000 0.00000000
0.78125000 0.09375000 0.00000000
0.81250000 0.09375000 0.00000000
0.84375000 0.09375000 0.00000000
0.87500000 0.09375000 0.00000000
0.90625000 0.09375000 0.00000000
0.93750000 0.09375000 0.00000000
0.96875000 0.09375000 0.00000000
0.93554688 0.09570312 0.00000000
0.06445312 0.12304688 0.00000000
0.03125000 0.12500000 0.00000000
0.06250000 0.12500000 0.00000000
0.09375000 0.12500000 0.00000000
0.12500000 0.12500000 0.00000000
0.15625000 0.12500000 0.00000000
0.18750000 0.12500000 0.00000000
0.21875000 0.12500000 0.00000000
0.25000000 0.12500000 0.00000000
0.28125000 0.12500000 0.00000000
0.31250000 0.12500000 0.00000000
0.34375000 0.12500000 0.00000000
0.37500000 0.12500000 0.00000000
0.40625000 0.12500000 0.00000000
0.43750000 0.12500000 0.00000000
0.46875000 0.12500000 0.00000000
0.50000000 0.12500000 0.00000000
0.53125000 0.12500000 0.00000000
0.56250000 0.12500000 0.00000000
0.59375000 0.12500000 0.00000000
0.62500000 0.12500000 0.00000000
0.65625000 0.12500000 0.00000000
0.68750000 0.12500000 0.00000000
0.71875000 0.12500000 0.00000000
0.75000000 0.12500000 0.00000000
0.78125000 0.12500000 0.00000000
0.81250000 0.12500000 0.00000000
0.84375000 0.12500000 0.00000000
0.87500000 0.12500000 0.00000000
0.90625000 0.12500000 0.00000000
0.93750000 0.12500000 0.00000000
0.96875000 0.12500000 0.00000000
0.93554688 0.12695312 0.00000000
0.06445312 0.15429688 0.00000000
0.03125000 0.15625000 0.00000000
0.06250000 0.15625000 0.00000000
0.09375000 0.15625000 0.00000000
0.12500000 0.15625000 0.00000000
0.15625000 0.15625000 0.00000000
0.18750000 0.15625000 0.00000000
0.21875000 0.15625000 0.00000000
0.25000000 0.15625000 0.00000000
0.28125000 0.15625000 0.00000000
0.31250000 0.15625000 0.00000000
0.34375000 0.15625000 0.00000000
0.37500000 0.15625000 0.00000000
0.40625000 0.15625000 0.00000000
0.43750000 0.15625000 0.00000000
0.46875000 0.15625000 0.00000000
0.50000000 0.15625000 0.00000000
0.53125000 0.15625000 0.00000000
0.56250000 0.15625000 0.00000000
0.59375000 0.15625000 0.00000000
0.62500000 0.15625000 0.00000000
0.65625000 0.15625000 0.00000000
0.68750000 0.15625000 0.00000000
0.71875000 0.15625000 0.00000000
0.75000000 0.15625000 0.00000000
0.78125000 0.15625000 0.00000000
0.81250000 0.15625000 0.00000000
0.84375000 0.15625000 0.00000000
0.87500000 0.15625000 0.00000000
0.90625000 0.15625000 0.00000000
0.93750000 0.15625000 0.00000000
0.96875000 0.15625000 0.00000000
0.93554688 0.15820312 0.00000000
0.06445312 0.18554688 0.00000000
0.03125000 0.18750000 0.00000000
0.06250000 0.18750000 0.00000000
0.09375000 0.18750000 0.00000000
0.12500000 0.18750000 0.00000000
0.15625000 0.18750000 0.00000000
0.18750000 0.18750000 0.00000000
0.21875000 0.18750000 0.00000000
0.25000000 0.18750000 0.00000000
0.28125000 0.18750000 0.00000000
0.31250000 0.18750000 0.00000000
0.34375000 0.18750000 0.00000000
0.37500000 0.18750000 0.00000000
0.40625000 0.18750000 0.00000000
0.43750000 0.18750000 0.00000000
0.46875000 0.18750000 0.00000000
0.50000000 0.18750000 0.00000000
0.53125000 0.18750000 0.00000000
0.56250000 0.18750000 0.00000000
0.59375000 0.18750000 0.00000000
0.62500000 0.18750000 0.00000000
0.65625000 0.18750000 0.00000000
0.68750000 0.18750000 0.00000000
0.71875000 0.18750000 0.00000000
0.75000000 0.18750000 0.00000000
0.78125000 0.18750000 0.00000000
0.81250000 0.18750000 0.00000000
0.84375000 0.18750000 0.00000000
0.87500000 0.18750000 0.00000000
0.90625000 0.18750000 0.00000000
0.93750000 0.18750000 0.00000000
0.96875000 0.18750000 0.00000000
0.93554688 0.18945312 0.00000000
0.06445312 0.21679688 0.00000000
0.03125000 0.21875000 0.00000000
0.06250000 0.21875000 0.00000000
0.09375000 0.21875000 0.00000000
0.12500000 0.21875000 0.00000000
0.15625000 0.21875000 0.00000000
0.18750000 0.21875000 0.00000000
0.21875000 0.21875000 0.00000000
0.25000000 0.21875000 0.00000000
0.28125000 0.21875000 0.00000000
0.31250000 0.21875000 0.00000000
0.34375000 0.21875000 0.00000000
0.37500000 0.21875000 0.00000000
0.40625000 0.21875000 0.00000000
0.43750000 0.21875000 0.00000000
0.46875000 0.21875000 0.00000000
0.50000000 0.21875000 0.00000000
0.53125000 0.21875000 0.00000000
0.56250000 0.21875000 0.00000000
0.59375000 0.21875000 0.00000000
0.62500000 0.21875000 0.00000000
0.65625000 0.21875000 0.00000000
0.68750000 0.21875000 0.00000000
0.71875000 0.21875000 0.00000000
0.75000000 0.21875000 0.00000000
0.78125000 0.21875000 0.00000000
0.81250000 0.21875000 0.00000000
0.84375000 0.21875000 0.00000000
0.87500000 0.21875000 0.00000000
0.90625000 0.21875000 0.00000000
0.93750000 0.21875000 0.00000000
0.96875000 0.21875000 0.00000000
0.93554688 0.22070312 0.00000000
0.06445312 0.24804688 0.00000000
0.03125000 0.25000000 0.00000000
0.06250000 0.25000000 0.00000000
0.09375000 0.25000000 0.00000000
0.12500000 0.25000000 0.00000000
0.15625000 0.25000000 0.00000000
0.18750000 0.25000000 0.00000000
0.21875000 0.25000000 0.00000000
0.25000000 0.25000000 0.00000000
0.28125000 0.25000000 0.00000000
0.31250000 0.25000000 0.00000000
0.34375000 0.25000000 0.00000000
0.37500000 0.25000000 0.00000000
0.40625000 0.25000000 0.00000000
0.43750000 0.25000000 0.00000000
0.46875000 0.25000000 0.00000000
0.50000000 0.25000000 0.00000000
0.53125000 0.25000000 0.00000000
0.56250000 0.25000000 0.00000000
0.59375000 0.25000000 0.00000000
0.62500000 0.25000000 0.00000000
0.65625000 0.25000000 0.00000000
0.68750000 0.25000000 0.00000000
0.71875000 0.25000000 0.00000000
0.75000000 0.25000000 0.00000000
0.78125000 0.25000000 0.00000000
0.81250000 0.25000000 0.00000000
0.84375000 0.25000000 0.00000000
0.87500000 0.25000000 0.00000000
0.90625000 0.25000000 0.00000000
0.93750000 0.25000000 0.00000000
0.96875000 0.25000000 0.00000000
0.93554688 0.25195312 0.00000000
0.06445312 0.27929688 0.00000000
0.03125000 0.28125000 0.00000000
0.06250000 0.28125000 0.00000000
0.09375000 0.28125000 0.00000000
0.12500000 0.28125000 0.00000000
0.15625000 0.28125000 0.00000000
0.18750000 0.28125000 0.00000000
0.21875000 0.28125000 0.00000000
0.25000000 0.28125000 0.00000000
0.28125000 0.28125000 0.00000000
0.31250000 0.28125000 0.00000000
0.34375000 0.28125000 0.00000000
0.37500000 0.28125000 0.00000000
0.40625000 0.28125000 0.00000000
0.43750000 0.28125000 0.00000000
0.46875000 0.28125000 0.00000000
0.50000000 0.28125000 0.00000000
0.53125000 0.28125000 0.00000000
0.56250000 0.28125000 0.00000000
0.59375000 0.28125000 0.00000000
0.62500000 0.28125000 0.00000000
0.65625000 0.28125000 0.00000000
0.68750000 0.28125000 0.00000000
0.71875000 0.28125000 0.00000000
0.75000000 0.28125000 0.00000000
0.78125000 0.28125000 0.00000000
0.81250000 0.28125000 0.00000000
0.84375000 0.28125000 0.00000000
0.87500000 0.28125000 0.00000000
0.90625000 0.28125000 0.00000000
0.93750000 0.28125000 0.00000000
0.96875000 0.28125000 0.00000000
0.93554688 0.28320312 0.00000000
0.06445312 0.31054688 0.00000000
0.03125000 0.31250000 0.00000000
0.06250000 0.31250000 0.00000000
0.09375000 0.31250000 0.00000000
0.12500000 0.31250000 0.00000000
0.15625000 0.31250000 0.00000000
0.18750000 0.31250000 0.00000000
0.21875000 0.31250000 0.00000000
0.25000000 0.31250000 0.00000000
0.28125000 0.31250000 0.00000000
0.31250000 0.31250000 0.00000000
0.34375000 0.31250000 0.00000000
0.37500000 0.31250000 0.00000000
0.40625000 0.31250000 0.00000000
0.43750000 0.31250000 0.00000000
0.46875000 0.31250000 0.00000000
0.50000000 0.31250000 0.00000000
0.53125000 0.31250000 0.00000000
0.56250000 0.31250000 0.00000000
0.59375000 0.31250000 0.00000000
0.62500000 0.31250000 0.00000000
0.65625000 0.31250000 0.00000000
0.68750000 0.31250000 0.00000000
0.71875000 0.31250000 0.00000000
0.75000000 0.31250000 0.00000000
0.78125000 0.31250000 0.00000000
0.81250000 0.31250000 0.00000000
0.84375000 0.31250000 0.00000000
0.87500000 0.31250000 0.00000000
0.90625000 0.31250000 0.00000000
0.93750000 0.31250000 0.00000000
0.96875000 0.31250000 0.00000000
0.93554688 0.31445312 0.00000000
0.06445312 0.34179688 0.00000000
0.03125000 0.34375000 0.00000000
0.06250000 0.34375000 0.00000000
0.09375000 0.34375000 0.00000000
0.12500000 0.34375000 0.00000000
0.15625000 0.34375000 0.00000000
0.18750000 0.34375000 0.00000000
0.21875000 0.34375000 0.00000000
0.25000000 0.34375000 0.00000000
0.28125000 0.34375000 0.00000000
0.31250000 0.34375000 0.00000000
0.34375000 0.34375000 0.00000000
0.37500000 0.34375000 0.00000000
0.40625000 0.34375000 0.00000000
0.43750000 0.34375000 0.00000000
0.46875000 0.34375000 0.00000000
0.50000000 0.34375000 0.00000000
0.53125000 0.34375000 0.00000000
0.56250000 0.34375000 0.00000000
0.59375000 0.34375000 0.00000000
0.62500000 0.34375000 0.00000000
0.65625000 0.34375000 0.00000000
0.68750000 0.34375000 0.00000000
0.71875000 0.34375000 0.00000000
0.75000000 0.34375000 0.00000000
0.78125000 0.34375000 0.00000000
0.81250000 0.34375000 0.00000000
0.84375000 0.34375000 0.00000000
0.87500000 0.34375000 0.00000000
0.90625000 0.34375000 0.00000000
0.93750000 0.34375000 0.00000000
0.96875000 0.34375000 0.00000000
0.93554688 0.34570312 0.00000000
0.06445312 0.37304688 0.00000000
0.03125000 0.37500000 0.00000000
0.06250000 0.37500000 0.00000000
0.09375000 0.37500000 0.00000000
0.12500000 0.37500000 0.00000000
0.15625000 0.37500000 0.00000000
0.18750000 0.37500000 0.00000000
0.21875000 0.37500000 0.00000000
0.25000000 0.37500000 0.00000000
0.28125000 0.37500000 0.00000000
0.31250000 0.37500000 0.00000000
0.34375000 0.37500000 0.00000000
0.37500000 0.37500000 0.00000000
0.40625000 0.37500000 0.00000000
0.43750000 0.37500000 0.00000000
0.46875000 0.37500000 0.00000000
0.50000000 0.37500000 0.00000000
0.53125000 0.37500000 0.00000000
0.56250000 0.37500000 0.00000000
0.59375000 0.37500000 0.00000000
0.62500000 0.37500000 0.00000000
0.65625000 0.37500000 0.00000000
0.68750000 0.37500000 0.00000000
0.71875000 0.37500000 0.00000000
0.75000000 0.37500000 0.00000000
0.78125000 0.37500000 0.00000000
0.81250000 0.37500000 0.00000000
0.84375000 0.37500000 0.00000000
0.87500000 0.37500000 0.00000000
0.90625000 0.37500000 0.00000000
0.93750000 0.37500000 0.00000000
0.96875000 0.37500000 0.00000000
0.93554688 0.37695312 0.00000000
0.06445312 0.40429688 0.00000000
0.03125000 0.40625000 0.00000000
0.06250000 0.40625000 0.00000000
0.09375000 0.40625000 0.00000000
0.12500000 0.40625000 0.00000000
0.15625000 0.40625000 0.00000000
0.18750000 0.40625000 0.00000000
0.21875000 0.40625000 0.00000000
0.25000000 0.40625000 0.00000000
0.28125000 0.40625000 0.00000000
0.31250000 0.40625000 0.00000000
0.34375000 0.40625000 0.00000000
0.37500000 0.40625000 0.00000000
0.40625000 0.40625000 0.00000000
0.43750000 0.40625000 0.00000000
0.46875000 0.40625000 0.00000000
0.50000000 0.40625000 0.00000000
0.53125000 0.40625000 0.00000000
0.56250000 0.40625000 0.00000000
0.59375000 0.40625000 0.00000000
0.62500000 0.40625000 0.00000000
0.65625000 0.40625000 0.00000000
0.68750000 0.40625000 0.00000000
0.71875000 0.40625000 0.00000000
0.75000000 0.40625000 0.00000000
0.78125000 0.40625000 0.00000000
0.81250000 0.40625000 0.00000000
0.84375000 0.40625000 0.00000000
0.87500000 0.40625000 0.00000000
0.90625000 0.40625000 0.00000000
0.93750000 0.40625000 0.00000000
0.96875000 0.40625000 0.00000000
0.93554688 0.40820312 0.00000000
0.06445312 0.43554688 0.00000000
0.03125000 0.43750000 0.00000000
0.06250000 0.43750000 0.00000000
0.09375000 0.43750000 0.00000000
0.12500000 0.43750000 0.00000000
0.15625000 0.43750000 0.00000000
0.18750000 0.43750000 0.00000000
0.21875000 0.43750000 0.00000000
0.25000000 0.43750000 0.00000000
0.28125000 0.43750000 0.00000000
0.31250000 0.43750000 0.00000000
0.34375000 0.43750000 0.00000000
0.37500000 0.43750000 0.00000000
0.40625000 0.43750000 0.00000000
0.43750000 0.43750000 0.00000000
0.46875000 0.43750000 0.00000000
0.50000000 0.43750000 0.00000000
0.53125000 0.43750000 0.00000000
0.56250000 0.43750000 0.00000000
0.59375000 0.43750000 0.00000000
0.62500000 0.43750000 0.00000000
0.65625000 0.43750000 0.00000000
0.68750000 0.43750000 0.00000000
0.71875000 0.43750000 0.00000000
0.75000000 0.43750000 0.00000000
0.78125000 0.43750000 0.00000000
0.81250000 0.43750000 0.00000000
0.84375000 0.43750000 0.00000000
0.87500000 0.43750000 0.00000000
0.90625000 0.43750000 0.00000000
0.93750000 0.43750000 0.00000000
0.96875000 0.43750000 0.00000000
0.93554688 0.43945312 0.00000000
0.06445312 0.46679688 0.00000000
0.03125000 0.46875000 0.00000000
0.06250000 0.46875000 0.00000000
0.09375000 0.46875000 0.00000000
0.12500000 0.46875000 0.00000000
0.15625000 0.46875000 0.00000000
0.18750000 0.46875000 0.00000000
0.21875000 0.46875000 0.00000000
0.25000000 0.46875000 0.00000000
0.28125000 0.46875000 0.00000000
0.31250000 0.46875000 0.00000000
0.34375000 0.46875000 0.00000000
0.37500000 0.46875000 0.00000000
0.40625000 0.46875000 0.00000000
0.43750000 0.46875000 0.00000000
0.46875000 0.46875000 0.00000000
0.50000000 0.46875000 0.00000000
0.53125000 0.46875000 0.00000000
0.56250000 0.46875000 0.00000000
0.59375000 0.46875000 0.00000000
0.62500000 0.46875000 0.00000000
0.65625000 0.46875000 0.00000000
0.68750000 0.46875000 0.00000000
0.71875000 0.46875000 0.00000000
0.75000000 0.46875000 0.00000000
0.78125000 0.46875000 0.00000000
0.81250000 0.46875000 0.00000000
0.84375000 0.46875000 0.00000000
0.87500000 0.46875000 0.00000000
0.90625000 0.46875000 0.00000000
0.93750000 0.46875000 0.00000000
0.96875000 0.46875000 0.00000000
0.93554688 0.47070312 0.00000000
0.06445312 0.49804688 0.00000000
0.03125000 0.50000000 0.00000000
0.06250000 0.50000000 0.00000000
0.09375000 0.50000000 0.00000000
0.12500000 0.50000000 0.00000000
0.15625000 0.50000000 0.00000000
0.18750000 0.50000000 0.00000000
0.21875000 0.50000000 0.00000000
0.25000000 0.50000000 0.00000000
0.28125000 0.50000000 0.00000000
0.31250000 0.50000000 0.00000000
0.34375000 0.50000000 0.00000000
0.37500000 0.50000000 0.00000000
0.40625000 0.50000000 0.00000000
0.43750000 0.50000000 0.00000000
0.46875000 0.50000000 0.00000000
0.50000000 0.50000000 0.00000000
0.53125000 0.50000000 0.00000000
0.56250000 0.50000000 0.00000000
0.59375000 0.50000000 0.00000000
0.62500000 0.50000000 0.00000000
0.65625000 0.50000000 0.00000000
0.68750000 0.50000000 0.00000000
0.71875000 0.50000000 0.00000000
0.75000000 0.50000000 0.00000000
0.78125000 0.50000000 0.00000000
0.81250000 0.50000000 0.00000000
0.84375000 0.50000000 0.00000000
0.87500000 0.50000000 0.00000000
0.90625000 0.50000000 0.00000000
0.93750000 0.50000000 0.00000000
0.96875000 0.50000000 0.00000000
0.93554688 0.50195312 0.00000000
0.06445312 0.52929688 0.00000000
0.03125000 0.53125000 0.00000000
0.06250000 0.53125000 0.00000000
0.09375000 0.53125000 0.00000000
0.12500000 0.53125000 0.00000000
0.15625000 0.53125000 0.00000000
0.18750000 0.53125000 0.00000000
0.21875000 0.53125000 0.00000000
0.25000000 0.53125000 0.00000000
0.28125000 0.53125000 0.00000000
0.31250000 0.53125000 0.00000000
0.34375000 0.53125000 0.00000000
0.37500000 0.53125000 0.00000000
0.40625000 0.53125000 0.00000000
0.43750000 0.53125000 0.00000000
0.46875000 0.53125000 0.00000000
0.50000000 0.53125000 0.00000000
0.53125000 0.53125000 0.00000000
0.56250000 0.53125000 0.00000000
0.59375000 0.53125000 0.00000000
0.62500000 0.53125000 0.00000000
0.65625000 0.53125000 0.00000000
0.68750000 0.53125000 0.00000000
0.71875000 0.53125000 0.00000000
0.75000000 0.53125000 0.00000000
0.78125000 0.53125000 0.00000000
0.81250000 0.53125000 0.00000000
0.84375000 0.53125000 0.00000000
0.87500000 0.53125000 0.00000000
0.90625000 0.53125000 0.00000000
0.93750000 0.53125000 0.00000000
0.96875000 0.53125000 0.00000000
0.93554688 0.53320312 0.00000000
0.06445312 0.56054688 0.00000000
0.03125000 0.56250000 0.00000000
0.06250000 0.56250000 0.00000000
0.09375000 0.56250000 0.00000000
0.12500000 0.56250000 0.00000000
0.15625000 0.56250000 0.00000000
0.18750000 0.56250000 0.00000000
0.21875000 0.56250000 0.00000000
0.25000000 0.56250000 0.00000000
0.28125000 0.56250000 0.00000000
0.31250000 0.56250000 0.00000000
0.34375000 0.56250000 0.00000000
0.37500000 0.56250000 0.00000000
0.40625000 0.56250000 0.00000000
0.43750000 0.56250000 0.00000000
0.46875000 0.56250000 0.00000000
0.50000000 0.56250000 0.00000000
0.53125000 0.56250000 0.00000000
0.56250000 0.56250000 0.00000000
0.59375000 0.56250000 0.00000000
0.62500000 0.56250000 0.00000000
0.65625000 0.56250000 0.00000000
0.68750000 0.56250000 0.00000000
0.71875000 0.56250000 0.00000000
0.75000000 0.56250000 0.00000000
0.78125000 0.56250000 0.00000000
0.81250000 0.56250000 0.00000000
0.67213774 0.44920093 0.00000000
0.70042074 0.44920093 0.00000000
0.90625000 0.56250000 0.00000000
0.93750000 0.56250000 0.00000000
0.96875000 0.56250000 0.00000000
0.93554688 0.56445312 0.00000000
0.06445312 0.59179688 0.00000000
0.03125000 0.59375000 0.00000000
0.06250000 0.59375000 0.00000000
0.09375000 0.59375000 0.00000000
0.12500000 0.59375000 0.00000000
0.15625000 0.59375000 0.00000000
0.18750000 0.59375000 0.00000000
0.21875000 0.59375000 0.00000000
0.25000000 0.59375000 0.00000000
0.28125000 0.59375000 0.00000000
0.31250000 0.59375000 0.00000000
0.34375000 0.59375000 0.00000000
0.37500000 0.59375000 0.00000000
0.40625000 0.59375000 0.00000000
0.43750000 0.59375000 0.00000000
0.46875000 0.59375000 0.00000000
0.50000000 0.59375000 0.00000000
0.53125000 0.59375000 0.00000000
0.56250000 0.59375000 0.00000000
0.59375000 0.59375000 0.00000000
0.62500000 0.59375000 0.00000000
0.65625000 0.59375000 0.00000000
0.68750000 0.59375000 0.00000000
0.71875000 0.59375000 0.00000000
0.75000000 0.59375000 0.00000000
0.78125000 0.59375000 0.00000000
0.81250000 0.59375000 0.00000000
0.84375000 0.59375000 0.00000000
0.87500000 0.59375000 0.00000000
0.90625000 0.59375000 0.00000000
0.93750000 0.59375000 0.00000000
0.96875000 0.59375000 0.00000000
0.93554688 0.59570312 0.00000000
0.06445312 0.62304688 0.00000000
0.03125000 0.62500000 0.00000000
0.06250000 0.62500000 0.00000000
0.09375000 0.62500000 0.00000000
0.12500000 0.62500000 0.00000000
0.15625000 0.62500000 0.00000000
0.18750000 0.62500000 0.00000000
0.21875000 0.62500000 0.00000000
0.25000000 0.62500000 0.00000000
0.28125000 0.62500000 0.00000000
0.31250000 0.62500000 0.00000000
0.34375000 0.62500000 0.00000000
0.37500000 0.62500000 0.00000000
0.40625000 0.62500000 0.00000000
0.43750000 0.62500000 0.00000000
0.46875000 0.62500000 0.00000000
0.50000000 0.62500000 0.00000000
0.53125000 0.62500000 0.00000000
0.56250000 0.62500000 0.00000000
0.59375000 0.62500000 0.00000000
0.62500000 0.62500000 0.00000000
0.65625000 0.62500000 0.00000000
0.68750000 0.62500000 0.00000000
0.71875000 0.62500000 0.00000000
0.75000000 0.62500000 0.00000000
0.78125000 0.62500000 0.00000000
0.81250000 0.62500000 0.00000000
0.84375000 0.62500000 0.00000000
0.87500000 0.62500000 0.00000000
0.90625000 0.62500000 0.00000000
0.93750000 0.62500000 0.00000000
0.96875000 0.62500000 0.00000000
0.93554688 0.62695312 0.00000000
0.06445312 0.65429688 0.00000000
0.03125000 0.65625000 0.00000000
0.06250000 0.65625000 0.00000000
0.09375000 0.65625000 0.00000000
0.12500000 0.65625000 0.00000000
0.15625000 0.65625000 0.00000000
0.18750000 0.65625000 0.00000000
0.21875000 0.65625000 0.00000000
0.25000000 0.65625000 0.00000000
0.28125000 0.65625000 0.00000000
0.31250000 0.65625000 0.00000000
0.34375000 0.65625000 0.00000000
0.37500000 0.65625000 0.00000000
0.40625000 0.65625000 0.00000000
0.43750000 0.65625000 0.00000000
0.46875000 0.65625000 0.00000000
0.50000000 0.65625000 0.00000000
0.53125000 0.65625000 0.00000000
0.56250000 0.65625000 0.00000000
0.59375000 0.65625000 0.00000000
0.62500000 0.65625000 0.00000000
0.65625000 0.65625000 0.00000000
0.68750000 0.65625000 0.00000000
0.71875000 0.65625000 0.00000000
0.75000000 0.65625000 0.00000000
0.78125000 0.65625000 0.00000000
0.81250000 0.65625000 0.00000000
0.84375000 0.65625000 0.00000000
0.87500000 0.65625000 0.00000000
0.90625000 0.65625000 0.00000000
0.93750000 0.65625000 0.00000000
0.96875000 0.65625000 0.00000000
